( Made using CamBam - http://www.cambam.co.uk )
( PlatineRadio 4/9/2019 6:48:08 PM )
( T0 : 2.0 )
G21 G90 G64 G40
G0 Z3.0
( T0 : 2.0 )
T0 M6
( Contour1 )
G17
M3 S1000
G0 X19.1667 Y24.756
G0 Z1.0
G1 F20.0 Z-1.0
G1 F150.0 Y43.256
G1 X58.6667
G1 Y24.756
G1 X19.1667
G1 F20.0 Z-2.0
G1 F150.0 Y43.256
G1 X58.6667
G1 Y24.756
G1 X19.1667
G1 F20.0 Z-3.0
G1 F150.0 Y43.256
G1 X36.5
G1 X38.0 Z-2.0
G1 X40.0
G1 X41.5 Z-3.0
G1 X58.6667
G1 Y24.756
G1 X41.3333
G1 X39.8333 Z-2.0
G1 X37.8333
G1 X36.3333 Z-3.0
G1 X19.1667
G1 F20.0 Z-4.0
G1 F150.0 Y43.256
G1 X36.5
G1 X38.0 Z-2.0
G1 X40.0
G1 X41.5 Z-4.0
G1 X58.6667
G1 Y24.756
G1 X41.3333
G1 X39.8333 Z-2.0
G1 X37.8333
G1 X36.3333 Z-4.0
G1 X19.1667
G1 F20.0 Z-5.0
G1 F150.0 Y43.256
G1 X36.5
G1 X38.0 Z-2.0
G1 X40.0
G1 X41.5 Z-5.0
G1 X58.6667
G1 Y24.756
G1 X41.3333
G1 X39.8333 Z-2.0
G1 X37.8333
G1 X36.3333 Z-5.0
G1 X19.1667
G0 F200
( Contour2 )
S1000
G0 Z3.0
G0 Y85.256
G0 Z1.0
G1 F20.0 Z-1.0
G1 F150.0 Y103.756
G1 X58.6667
G1 Y85.256
G1 X19.1667
G1 F20.0 Z-2.0
G1 F150.0 Y103.756
G1 X58.6667
G1 Y85.256
G1 X19.1667
G1 F20.0 Z-3.0
G1 F150.0 Y103.756
G1 X36.5
G1 X38.0 Z-2.0
G1 X40.0
G1 X41.5 Z-3.0
G1 X58.6667
G1 Y85.256
G1 X41.3333
G1 X39.8333 Z-2.0
G1 X37.8333
G1 X36.3333 Z-3.0
G1 X19.1667
G1 F20.0 Z-4.0
G1 F150.0 Y103.756
G1 X36.5
G1 X38.0 Z-2.0
G1 X40.0
G1 X41.5 Z-4.0
G1 X58.6667
G1 Y85.256
G1 X41.3333
G1 X39.8333 Z-2.0
G1 X37.8333
G1 X36.3333 Z-4.0
G1 X19.1667
G1 F20.0 Z-5.0
G1 F150.0 Y103.756
G1 X36.5
G1 X38.0 Z-2.0
G1 X40.0
G1 X41.5 Z-5.0
G1 X58.6667
G1 Y85.256
G1 X41.3333
G1 X39.8333 Z-2.0
G1 X37.8333
G1 X36.3333 Z-5.0
G1 X19.1667
G0 F200
( Contour3 )
S1000
G0 Z3.0
G0 X94.1667 Y104.256
G0 Z1.0
G1 F20.0 Z-1.0
G1 F150.0 X143.1667
G1 Y85.256
G1 X94.1667
G1 Y104.256
G1 F20.0 Z-2.0
G1 F150.0 X143.1667
G1 Y85.256
G1 X94.1667
G1 Y104.256
G1 F20.0 Z-3.0
G1 F150.0 X116.5
G1 X118.0 Z-2.0
G1 X120.0
G1 X121.5 Z-3.0
G1 X143.1667
G1 Y85.256
G1 X121.5
G1 X120.0 Z-2.0
G1 X118.0
G1 X116.5 Z-3.0
G1 X94.1667
G1 Y104.256
G1 F20.0 Z-4.0
G1 F150.0 X116.5
G1 X118.0 Z-2.0
G1 X120.0
G1 X121.5 Z-4.0
G1 X143.1667
G1 Y85.256
G1 X121.5
G1 X120.0 Z-2.0
G1 X118.0
G1 X116.5 Z-4.0
G1 X94.1667
G1 Y104.256
G1 F20.0 Z-5.0
G1 F150.0 X116.5
G1 X118.0 Z-2.0
G1 X120.0
G1 X121.5 Z-5.0
G1 X143.1667
G1 Y85.256
G1 X121.5
G1 X120.0 Z-2.0
G1 X118.0
G1 X116.5 Z-5.0
G1 X94.1667
G1 Y104.256
G0 F200
( Contour4 )
S1000
G0 Z3.0
G0 X77.1667 Y39.756
G0 Z1.0
G1 F20.0 Z-1.0
G1 F150.0 Y58.256
G1 X116.6667
G1 Y39.756
G1 X77.1667
G1 F20.0 Z-2.0
G1 F150.0 Y58.256
G1 X116.6667
G1 Y39.756
G1 X77.1667
G1 F20.0 Z-3.0
G1 F150.0 Y58.256
G1 X94.5
G1 X96.0 Z-2.0
G1 X98.0
G1 X99.5 Z-3.0
G1 X116.6667
G1 Y39.756
G1 X99.5
G1 X99.3333 Z-2.8889
G1 X98.0 Z-2.0
G1 X97.8333
G1 X96.0
G1 X95.8333
G1 X94.5 Z-2.8889
G1 X94.3333 Z-3.0
G1 X77.1667
G1 F20.0 Z-4.0
G1 F150.0 Y58.256
G1 X94.5
G1 X96.0 Z-2.0
G1 X98.0
G1 X99.5 Z-4.0
G1 X116.6667
G1 Y39.756
G1 X99.5
G1 X99.3333 Z-3.7778
G1 X98.0 Z-2.0
G1 X97.8333
G1 X96.0
G1 X95.8333
G1 X94.5 Z-3.7778
G1 X94.3333 Z-4.0
G1 X77.1667
G1 F20.0 Z-5.0
G1 F150.0 Y58.256
G1 X94.5
G1 X96.0 Z-2.0
G1 X98.0
G1 X99.5 Z-5.0
G1 X116.6667
G1 Y39.756
G1 X99.5
G1 X99.3333 Z-4.6667
G1 X98.0 Z-2.0
G1 X97.8333
G1 X96.0
G1 X95.8333
G1 X94.5 Z-4.6667
G1 X94.3333 Z-5.0
G1 X77.1667
G0 F200
( Contour5 )
S1000
G0 Z3.0
G0 X158.2691 Y24.756
G0 Z1.0
G1 F20.0 Z-1.0
G1 F150.0 Y32.756
G1 X181.2691
G1 Y24.756
G1 X158.2691
G1 F20.0 Z-2.0
G1 F150.0 Y32.756
G1 X181.2691
G1 Y24.756
G1 X158.2691
G1 F20.0 Z-3.0
G1 F150.0 Y32.756
G1 X167.5
G1 X169.0 Z-2.0
G1 X171.0
G1 X172.5 Z-3.0
G1 X181.2691
G1 Y24.756
G1 X172.5
G1 X171.0 Z-2.0
G1 X169.0
G1 X167.5 Z-3.0
G1 X158.2691
G1 F20.0 Z-4.0
G1 F150.0 Y32.756
G1 X167.5
G1 X169.0 Z-2.0
G1 X171.0
G1 X172.5 Z-4.0
G1 X181.2691
G1 Y24.756
G1 X172.5
G1 X171.0 Z-2.0
G1 X169.0
G1 X167.5 Z-4.0
G1 X158.2691
G1 F20.0 Z-5.0
G1 F150.0 Y32.756
G1 X167.5
G1 X169.0 Z-2.0
G1 X171.0
G1 X172.5 Z-5.0
G1 X181.2691
G1 Y24.756
G1 X172.5
G1 X171.0 Z-2.0
G1 X169.0
G1 X167.5 Z-5.0
G1 X158.2691
G0 F200
( Contour6 )
S1000
G0 Z3.0
G0 X283.1793 Y70.7808
G0 Z1.0
G1 F20.0 Z-1.0
G1 F150.0 Y42.7808
G1 X193.1793
G1 Y70.7808
G1 X283.1793
G1 F20.0 Z-2.0
G1 F150.0 Y42.7808
G1 X193.1793
G1 Y70.7808
G1 X283.1793
G1 F20.0 Z-3.0
G1 F150.0 Y42.7808
G1 X269.5
G1 X268.0 Z-2.0
G1 X266.0
G1 X264.5 Z-3.0
G1 X214.5
G1 X213.0 Z-2.0
G1 X211.0
G1 X209.5 Z-3.0
G1 X193.1793
G1 Y70.7808
G1 X210.5
G1 X212.0 Z-2.0
G1 X214.0
G1 X215.5 Z-3.0
G1 X264.5
G1 X266.0 Z-2.0
G1 X268.0
G1 X269.5 Z-3.0
G1 X283.1793
G1 F20.0 Z-4.0
G1 F150.0 Y42.7808
G1 X269.5
G1 X268.0 Z-2.0
G1 X266.0
G1 X264.5 Z-4.0
G1 X214.5
G1 X213.0 Z-2.0
G1 X211.0
G1 X209.5 Z-4.0
G1 X193.1793
G1 Y70.7808
G1 X210.5
G1 X212.0 Z-2.0
G1 X214.0
G1 X215.5 Z-4.0
G1 X264.5
G1 X266.0 Z-2.0
G1 X268.0
G1 X269.5 Z-4.0
G1 X283.1793
G1 F20.0 Z-5.0
G1 F150.0 Y42.7808
G1 X269.5
G1 X268.0 Z-2.0
G1 X266.0
G1 X264.5 Z-5.0
G1 X214.5
G1 X213.0 Z-2.0
G1 X211.0
G1 X209.5 Z-5.0
G1 X193.1793
G1 Y70.7808
G1 X210.5
G1 X212.0 Z-2.0
G1 X214.0
G1 X215.5 Z-5.0
G1 X264.5
G1 X266.0 Z-2.0
G1 X268.0
G1 X269.5 Z-5.0
G1 X283.1793
G0 F200
( Contour7 )
S1000
G0 Z3.0
G0 X240.3455 Y77.1122
G0 Z1.0
G1 F20.0 Z-1.0
G1 F150.0 X201.5801 Y84.6946
G1 X205.1313 Y102.8506
G1 X243.8967 Y95.2681
G1 X240.3455 Y77.1122
G1 F20.0 Z-2.0
G1 F150.0 X201.5801 Y84.6946
G1 X205.1313 Y102.8506
G1 X243.8967 Y95.2681
G1 X240.3455 Y77.1122
G1 F20.0 Z-3.0
G1 F150.0 X223.6223 Y80.3832
G1 X223.498 Y80.4075 Z-2.9156
G1 X222.1502 Y80.6711 Z-2.0
G1 X222.0259 Y80.6954
G1 X220.1874 Y81.055
G1 X220.0631 Y81.0794
G1 X218.7153 Y81.343 Z-2.9156
G1 X218.591 Y81.3673 Z-3.0
G1 X201.5801 Y84.6946
G1 X205.1313 Y102.8506
G1 X222.5398 Y99.4455
G1 X224.0119 Y99.1576 Z-2.0
G1 X225.9747 Y98.7736
G1 X227.4468 Y98.4857 Z-3.0
G1 X243.8967 Y95.2681
G1 X240.3455 Y77.1122
G1 F20.0 Z-4.0
G1 F150.0 X223.6223 Y80.3832
G1 X223.498 Y80.4075 Z-3.8312
G1 X222.1502 Y80.6711 Z-2.0
G1 X222.0259 Y80.6954
G1 X220.1874 Y81.055
G1 X220.0631 Y81.0794
G1 X218.7153 Y81.343 Z-3.8312
G1 X218.591 Y81.3673 Z-4.0
G1 X201.5801 Y84.6946
G1 X205.1313 Y102.8506
G1 X222.5398 Y99.4455
G1 X224.0119 Y99.1576 Z-2.0
G1 X225.9747 Y98.7736
G1 X227.4468 Y98.4857 Z-4.0
G1 X243.8967 Y95.2681
G1 X240.3455 Y77.1122
G1 F20.0 Z-5.0
G1 F150.0 X223.6223 Y80.3832
G1 X223.498 Y80.4075 Z-4.7467
G1 X222.1502 Y80.6711 Z-2.0
G1 X222.0259 Y80.6954
G1 X220.1874 Y81.055
G1 X220.0631 Y81.0794
G1 X218.7153 Y81.343 Z-4.7467
G1 X218.591 Y81.3673 Z-5.0
G1 X201.5801 Y84.6946
G1 X205.1313 Y102.8506
G1 X222.5398 Y99.4455
G1 X224.0119 Y99.1576 Z-2.0
G1 X225.9747 Y98.7736
G1 X227.4468 Y98.4857 Z-5.0
G1 X243.8967 Y95.2681
G1 X240.3455 Y77.1122
G0 F200
( Contour8 )
S1000
G0 Z3.0
G0 X158.2691 Y95.756
G0 Z1.0
G1 F20.0 Z-1.0
G1 F150.0 Y103.756
G1 X181.2691
G1 Y95.756
G1 X158.2691
G1 F20.0 Z-2.0
G1 F150.0 Y103.756
G1 X181.2691
G1 Y95.756
G1 X158.2691
G1 F20.0 Z-3.0
G1 F150.0 Y103.756
G1 X167.5
G1 X169.0 Z-2.0
G1 X171.0
G1 X172.5 Z-3.0
G1 X181.2691
G1 Y95.756
G1 X172.5
G1 X171.0 Z-2.0
G1 X169.0
G1 X167.5 Z-3.0
G1 X158.2691
G1 F20.0 Z-4.0
G1 F150.0 Y103.756
G1 X167.5
G1 X169.0 Z-2.0
G1 X171.0
G1 X172.5 Z-4.0
G1 X181.2691
G1 Y95.756
G1 X172.5
G1 X171.0 Z-2.0
G1 X169.0
G1 X167.5 Z-4.0
G1 X158.2691
G1 F20.0 Z-5.0
G1 F150.0 Y103.756
G1 X167.5
G1 X169.0 Z-2.0
G1 X171.0
G1 X172.5 Z-5.0
G1 X181.2691
G1 Y95.756
G1 X172.5
G1 X171.0 Z-2.0
G1 X169.0
G1 X167.5 Z-5.0
G1 X158.2691
G0 F200
( Contour9 )
S1000
G0 Z3.0
G0 X157.0616 Y116.6372
G0 Z1.0
G1 F20.0 Z-1.0
G3 F150.0 X152.4728 Y117.0688 I-85.0729 J-879.8293
G3 X152.4719 Y117.0689 I-0.0911 J-0.9958
G1 X150.9598 Y117.2059
G3 X150.9586 Y117.206 I-0.0902 J-0.9959
G3 X139.6018 Y118.1632 I-101.3297 J-1134.2986
G3 X139.6013 Y118.1633 I-0.079 J-0.9969
G1 X138.8918 Y118.2191
G3 X138.8903 Y118.2193 I-0.0785 J-0.9969
G1 X136.2293 Y118.4247
G3 X136.2277 Y118.4248 I-0.077 J-0.997
G1 X135.2297 Y118.5003
G3 X135.2291 I-0.0754 J-0.9972
G1 X134.7924 Y118.533
G3 X134.792 Y118.5331 I-0.0747 J-0.9972
G1 X134.3826 Y118.5636
G3 X134.3817 I-0.0743 J-0.9972
G1 X132.8466 Y118.6767
G3 X132.8458 Y118.6768 I-0.0735 J-0.9973
G1 X132.5579 Y118.6978
G3 X132.5568 Y118.6979 I-0.0727 J-0.9974
G1 X130.3976 Y118.8528
G3 X130.3957 Y118.8529 I-0.0716 J-0.9974
G1 X128.2363 Y119.0035
G3 X128.2346 Y119.0036 I-0.0696 J-0.9976
G1 X126.8819 Y119.0958
G3 X126.88 Y119.0959 I-0.068 J-0.9977
G1 X124.2586 Y119.2695
G3 X124.2572 Y119.2696 I-0.0661 J-0.9978
G1 X123.95 Y119.2895
G3 X123.9487 Y119.2896 I-0.0647 J-0.9979
G1 X121.5099 Y119.4446
G3 X121.5082 Y119.4447 I-0.0634 J-0.998
G1 X120.365 Y119.5154
G3 X120.3634 Y119.5155 I-0.0617 J-0.9981
G1 X118.1481 Y119.6489
G3 X118.1466 Y119.649 I-0.0601 J-0.9982
G1 X117.108 Y119.71
G3 X117.1073 Y119.7101 I-0.0586 J-0.9983
G3 X100.99 Y120.5351 I-68.6108 J-1182.5564
G3 X100.9896 I-0.0443 J-0.999
G1 X98.9759 Y120.6236
G3 X98.9746 Y120.6237 I-0.0439 J-0.999
G1 X97.2126 Y120.6988
G3 X97.211 Y120.6989 I-0.0426 J-0.9991
G1 X94.1271 Y120.8255
G3 X94.126 I-0.041 J-0.9992
G1 X93.5477 Y120.8486
G3 X93.5472 I-0.0399 J-0.9992
G1 X92.4629 Y120.8913
G3 X92.4623 I-0.0394 J-0.9992
G1 X91.5135 Y120.9281
G3 X91.5123 Y120.9282 I-0.0388 J-0.9992
G1 X88.1917 Y121.053
G3 X88.1907 I-0.0375 J-0.9993
G1 X87.9831 Y121.0606
G3 X87.9823 I-0.0366 J-0.9993
G1 X84.8691 Y121.172
G3 X84.868 I-0.0357 J-0.9994
G1 X83.6705 Y121.2136
G3 X83.6699 I-0.0347 J-0.9994
G1 X82.4911 Y121.2538
G3 X82.4905 I-0.0341 J-0.9994
G1 X81.3301 Y121.2928
G3 X81.3295 I-0.0335 J-0.9994
G1 X80.1872 Y121.3304
G3 X80.1866 I-0.0329 J-0.9995
G1 X79.0621 Y121.3668
G3 X79.0617 I-0.0323 J-0.9995
G1 X78.5082 Y121.3845
G3 X78.5075 I-0.0319 J-0.9995
G1 X76.3109 Y121.4531
G3 X76.3102 I-0.0312 J-0.9995
G1 X75.7782 Y121.4694
G3 X75.7778 I-0.0305 J-0.9995
G1 X74.7221 Y121.5012
G3 X74.7215 I-0.0301 J-0.9995
G1 X73.6823 Y121.5319
G3 X73.6819 I-0.0296 J-0.9996
G1 X73.1704 Y121.5469
G3 X73.1701 I-0.0292 J-0.9996
G1 X72.6626 Y121.5616
G3 X72.6615 I-0.0289 J-0.9996
G1 X68.6334 Y121.6737
G3 X66.7421 Y121.7237 I-13.9296 J-490.9892
G1 X66.2854 Y121.7355
G3 X66.2845 Y121.7356 I-0.0259 J-0.9997
G1 X62.6543 Y121.8265
G3 X62.6528 I-0.025 J-0.9997
G1 X59.2494 Y121.9068
G3 X59.2484 Y121.9069 I-0.0236 J-0.9997
G1 X57.653 Y121.943
G3 X57.6522 I-0.0227 J-0.9997
G1 X54.561 Y122.0105
G3 X54.5603 I-0.0218 J-0.9998
G1 X53.1112 Y122.0411
G3 X53.1109 I-0.0211 J-0.9998
G1 X52.409 Y122.0557
G3 X52.4087 I-0.0207 J-0.9998
G1 X51.7191 Y122.0698
G3 X51.0359 Y122.0837 I-2.8133 J-121.658
G1 X49.6981 Y122.1105
G3 X49.6972 I-0.02 J-0.9998
G1 X44.5086 Y122.2096
G3 X44.5074 Y122.2097 I-0.0191 J-0.9998
G1 X39.9672 Y122.2909
G3 X39.9667 I-0.0179 J-0.9998
G1 X39.8425 Y122.293
G3 X39.8421 I-0.0173 J-0.9998
G1 X35.8849 Y122.36
G3 X35.8842 I-0.0169 J-0.9999
G1 X32.4215 Y122.416
G3 X32.4211 I-0.0162 J-0.9999
G1 X31.6637 Y122.428
G3 X31.6631 I-0.0158 J-0.9999
G1 X25.7929 Y122.5173
G3 X25.7921 I-0.0152 J-0.9999
G1 X21.3893 Y122.5807
G3 X21.389 I-0.0144 J-0.9999
G1 X20.5634 Y122.5923
G1 X20.5633
G1 X19.7894 Y122.6031
G3 X19.7889 I-0.0139 J-0.9999
G1 X13.9846 Y122.6815
G3 X13.9841 I-0.0135 J-0.9999
G1 X11.0818 Y122.7191
G3 X11.0815 I-0.013 J-0.9999
G1 X8.1793 Y122.7559
G3 X7.1667 Y121.756 I-0.0127 J-0.9999
G1 Y6.756
G3 X8.1794 Y5.756 I1.0 J0.0
G1 X12.9718 Y5.8172
G3 X12.9723 I-0.0128 J0.9999
G1 X17.4651 Y5.8769
G3 X17.4656 I-0.0133 J0.9999
G1 X19.5716 Y5.9058
G3 X19.572 I-0.0137 J0.9999
G1 X23.6524 Y5.9634
G3 X23.6529 I-0.0141 J0.9999
G1 X27.4782 Y6.0197
G3 X27.4788 I-0.0147 J0.9999
G1 X31.065 Y6.0746
G3 X31.0656 I-0.0153 J0.9999
G1 X34.4276 Y6.1281
G3 X34.4281 I-0.0159 J0.9999
G1 X36.004 Y6.1539
G3 X36.0044 I-0.0164 J0.9999
G1 X37.531 Y6.1794
G3 X43.4485 Y6.2829 I-58.1927 J3496.6412
G3 X43.449 I-0.0183 J0.9998
G1 X48.6251 Y6.3803
G3 X48.626 I-0.0188 J0.9998
G1 X49.7583 Y6.4026
G3 X49.7588 I-0.0197 J0.9998
G1 X51.9526 Y6.4469
G3 X51.953 I-0.0202 J0.9998
G1 X52.9814 Y6.4681
G3 X52.9822 I-0.0206 J0.9998
G1 X56.9646 Y6.5536
G3 X57.4062 Y6.5634 I-0.7265 J42.6634
G1 X59.1199 Y6.6021
G3 X59.1208 I-0.0226 J0.9997
G1 X62.3383 Y6.6778
G3 X62.3392 I-0.0235 J0.9997
G1 X63.7276 Y6.7117
G3 X63.8297 Y6.7137 I0.0147 J1.8654
G3 X63.9315 Y6.7168 I-0.0051 J1.8638
G1 X66.5311 Y6.7827
G3 X66.5314 I-0.0253 J0.9997
G3 X84.8684 Y7.3399 I-49.9975 J1947.4558
G1 X84.8685
G1 X85.546 Y7.3637
G3 X85.5465 I-0.0351 J0.9994
G1 X86.8804 Y7.4113
G3 X86.8811 I-0.0356 J0.9994
G1 X88.1733 Y7.4583
G3 X88.1743 I-0.0363 J0.9993
G1 X90.6639 Y7.5513
G3 X90.7519 Y7.5543 I-0.0283 J2.0923
G3 X90.8396 Y7.558 I-0.043 J2.0913
G1 X93.1635 Y7.6481
G3 X93.1645 I-0.0388 J0.9992
G1 X94.2603 Y7.6918
G3 X94.2614 I-0.0398 J0.9992
G1 X96.3843 Y7.7785
G3 X96.3856 I-0.0408 J0.9992
G1 X98.3758 Y7.8625
G3 X98.3768 I-0.0421 J0.9991
G1 X99.3097 Y7.9028
G3 X99.3102 I-0.0431 J0.9991
G1 X99.7621 Y7.9225
G3 X99.7624 I-0.0436 J0.999
G1 X100.2072 Y7.9421
G3 X100.208 I-0.0439 J0.999
G1 X101.9438 Y8.0198
G3 X102.0628 Y8.0248 I-0.0416 J2.4058
G3 X102.1651 Y8.0295 I-0.0582 J2.4043
G3 X102.2671 Y8.0341 I-0.0586 J2.4032
G3 X102.3845 Y8.0399 I-0.0589 J2.4021
G1 X103.9853 Y8.114
G3 X103.9871 Y8.1141 I-0.0463 J0.9989
G1 X107.0171 Y8.26
G3 X107.0189 Y8.2601 I-0.0481 J0.9988
G1 X108.3444 Y8.3262
G3 X108.3455 Y8.3263 I-0.0498 J0.9988
G1 X109.5881 Y8.3896
G3 X109.5891 Y8.3897 I-0.0509 J0.9987
G1 X110.754 Y8.4502
G3 X110.7555 Y8.4503 I-0.0519 J0.9987
G1 X112.9394 Y8.5671
G3 X112.9402 I-0.0534 J0.9986
G3 X120.5895 Y9.0103 I-56.6163 J1043.4629
G3 X120.5903 Y9.0104 I-0.0615 J0.9981
G1 X122.5003 Y9.1296
G3 X122.5026 Y9.1297 I-0.0623 J0.9981
G1 X125.3671 Y9.315
G3 X125.3692 Y9.3151 I-0.0645 J0.9979
G1 X126.7962 Y9.4103
G3 X126.9819 Y9.4228 I-0.5071 J8.9341
G3 X127.1371 Y9.4333 I-0.5333 J9.0363
G3 X127.4139 Y9.4521 I-0.747 J13.0542
G3 X127.619 Y9.4661 I-0.8265 J13.6363
G3 X128.2382 Y9.5085 I-3.0979 J49.7671
G3 X146.5998 Y10.9241 I-75.3013 J1096.5311
G3 X146.6008 Y10.9242 I-0.0852 J0.9964
G1 X148.8914 Y11.1225
G3 X149.8994 Y11.2114 I-10.8122 J128.3437
G1 X151.7777 Y11.3798
G3 X151.779 Y11.3799 I-0.0893 J0.996
G1 X152.6013 Y11.4548
G3 X152.6025 Y11.4549 I-0.0907 J0.9959
G1 X154.1438 Y11.5973
G3 X154.145 Y11.5974 I-0.092 J0.9958
G1 X154.8193 Y11.6605
G3 X154.8204 Y11.6606 I-0.0932 J0.9957
G1 X156.0846 Y11.7803
G3 X156.0856 Y11.7804 I-0.0943 J0.9955
G1 X156.6386 Y11.8334
G3 X156.6396 Y11.8335 I-0.0953 J0.9954
G1 X157.6764 Y11.9338
G3 X157.6776 Y11.9339 I-0.0963 J0.9954
G1 X158.5847 Y12.0227
G3 X158.5858 Y12.0228 I-0.0975 J0.9952
G1 X159.3794 Y12.1015
G3 X159.3804 Y12.1016 I-0.0986 J0.9951
G1 X160.0748 Y12.1711
G3 X160.0757 I-0.0996 J0.995
G1 X160.6832 Y12.2325
G3 X160.6852 Y12.2327 I-0.1005 J0.9949
G1 X162.8109 Y12.4517
G3 X162.8143 Y12.452 I-0.1025 J0.9947
G1 X164.9326 Y12.6775
G3 X165.125 Y12.6983 I-0.6352 J6.7867
G3 X165.3122 Y12.7188 I-0.7139 J7.3964
G3 X168.1907 Y13.0406 I-41.5718 J384.8641
G1 X168.5052 Y13.0767
G3 X168.5068 Y13.0769 I-0.1142 J0.9935
G1 X169.7458 Y13.2214
G3 X169.7473 Y13.2216 I-0.1158 J0.9933
G3 X179.0464 Y14.4142 I-55.2371 J467.5351
G3 X179.0478 Y14.4144 I-0.1371 J0.9906
G1 X180.206 Y14.5763
G3 X180.209 Y14.5768 I-0.1385 J0.9904
G1 X182.2349 Y14.8662
G3 X182.2378 Y14.8666 I-0.1414 J0.9899
G1 X183.7566 Y15.0881
G3 X183.7588 Y15.0884 I-0.1443 J0.9895
G1 X186.0363 Y15.4258
G3 X186.0378 Y15.426 I-0.1466 J0.9892
G1 X188.3147 Y15.767
G3 X188.3151 I-0.1481 J0.989
G1 X190.8183 Y16.1428
G3 X190.8189 Y16.1429 I-0.1485 J0.9889
G1 X193.009 Y16.4733
G3 X193.0101 Y16.4734 I-0.1491 J0.9888
G1 X194.9261 Y16.7647
G3 X194.9275 Y16.7649 I-0.1503 J0.9886
G1 X196.6035 Y17.0221
G3 X196.6051 Y17.0224 I-0.1517 J0.9884
G1 X198.0713 Y17.2498
G3 X198.0729 Y17.25 I-0.1533 J0.9882
G1 X199.3555 Y17.4511
G3 X199.3579 Y17.4515 I-0.1549 J0.9879
G1 X201.6017 Y17.8088
G3 X201.604 Y17.8092 I-0.1573 J0.9876
G1 X202.4451 Y17.9452
G3 X202.4465 Y17.9454 I-0.1597 J0.9872
G1 X203.1823 Y18.0655
G3 X203.1835 Y18.0657 I-0.161 J0.987
G1 X203.8272 Y18.1715
G3 X203.8283 Y18.1717 I-0.1622 J0.9868
G1 X204.3914 Y18.2649
G3 X204.3929 Y18.2652 I-0.1633 J0.9866
G1 X205.3781 Y18.4298
G3 X205.3806 Y18.4302 I-0.1648 J0.9863
G1 X206.8578 Y18.681
G3 X206.8611 Y18.6816 I-0.1674 J0.9859
G1 X208.3373 Y18.9373
G3 X208.3405 Y18.9378 I-0.1707 J0.9853
G1 X209.5911 Y19.1585
G3 X209.593 Y19.1589 I-0.1738 J0.9848
G1 X210.179 Y19.2635
G3 X210.1793 I-0.1757 J0.9844
G3 X214.7241 Y20.0923 I-119.5236 J668.2948
G1 X216.4248 Y20.4067
G3 X216.4282 Y20.4074 I-0.1818 J0.9833
G2 X216.7938 Y20.475 I10.4092 J-55.2475
G3 X216.802 Y20.4765 I-0.1786 J0.9839
G2 X217.1526 Y20.5414 I6.6145 J-34.7861
G3 X217.1636 Y20.5434 I-0.1769 J0.9842
G2 X217.5006 Y20.6057 I5.1964 J-27.1692
G3 X217.5058 Y20.6066 I-0.1757 J0.9844
G1 X220.2129 Y21.1045
G3 X220.2219 Y21.1062 I-0.1809 J0.9835
G2 X220.455 Y21.1488 I2.1271 J-10.995
G3 X220.4757 Y21.1525 I-0.1691 J0.9856
G2 X220.7005 Y21.1935 I2.0224 J-10.4633
G3 X220.7214 Y21.1973 I-0.1687 J0.9857
G2 X220.9384 Y21.2368 I1.9277 J-9.9841
G3 X220.9595 Y21.2406 I-0.1682 J0.9857
G2 X221.1688 Y21.2786 I1.8414 J-9.5489
G3 X221.1901 Y21.2825 I-0.1678 J0.9858
G2 X221.3921 Y21.3191 I1.7623 J-9.1513
G3 X221.4135 Y21.3229 I-0.1674 J0.9859
G2 X221.6084 Y21.3582 I1.6894 J-8.7859
G3 X221.6299 Y21.3621 I-0.167 J0.986
G2 X221.8179 Y21.396 I1.6218 J-8.4482
G3 X221.8395 Y21.3999 I-0.1667 J0.986
G2 X222.0209 Y21.4326 I1.559 J-8.135
G3 X222.0425 Y21.4364 I-0.1663 J0.9861
G2 X222.2176 Y21.4679 I1.5003 J-7.8432
G3 X222.2392 Y21.4718 I-0.166 J0.9861
G2 X222.4081 Y21.5021 I1.4454 J-7.5704
G3 X222.4297 Y21.506 I-0.1656 J0.9862
G2 X222.5927 Y21.5352 I1.3938 J-7.3144
G3 X222.6143 Y21.539 I-0.1653 J0.9862
G2 X222.7716 Y21.5671 I1.3452 J-7.0736
G3 X222.793 Y21.571 I-0.165 J0.9863
G2 X222.9448 Y21.598 I1.2993 J-6.8463
G3 X222.9662 Y21.6018 I-0.1647 J0.9863
G2 X223.1127 Y21.6279 I1.2559 J-6.6315
G3 X223.134 Y21.6317 I-0.1644 J0.9864
G2 X223.2753 Y21.6568 I1.2147 J-6.4279
G3 X223.2965 Y21.6606 I-0.1641 J0.9864
G2 X223.4329 Y21.6847 I1.1756 J-6.2343
G3 X223.4539 Y21.6885 I-0.1638 J0.9865
G2 X223.5855 Y21.7117 I1.1384 J-6.05
G3 X223.5984 Y21.714 I-0.1635 J0.9865
G2 X224.7761 Y21.9205 I27.9956 J-156.1867
G3 X224.792 Y21.9234 I-0.169 J0.9856
G2 X224.9865 Y21.9571 I1.2895 J-6.8525
G3 X225.0135 Y21.9618 I-0.1571 J0.9876
G2 X225.1946 Y21.9931 I1.2216 J-6.5226
G3 X225.2058 Y21.995 I-0.1568 J0.9876
G1 X226.7696 Y22.2614
G3 X226.7812 Y22.2635 I-0.168 J0.9858
G2 X226.9482 Y22.2915 I1.0495 J-5.7475
G3 X226.9599 Y22.2934 I-0.151 J0.9885
G1 X228.3294 Y22.5193
G3 X228.3393 Y22.521 I-0.1628 J0.9867
G2 X228.4834 Y22.5443 I0.9881 J-5.637
G3 X228.4945 Y22.5461 I-0.1475 J0.9891
G1 X229.1655 Y22.6539
G1 X229.4897 Y22.7054
G1 X229.8089 Y22.7559
G1 X230.4386 Y22.8545
G1 X230.7429 Y22.9017
G1 X231.9451 Y23.0864
G1 X232.5082 Y23.1719
G1 X233.6009 Y23.3367
G1 X235.6516 Y23.6433
G1 X235.6515
G1 X235.6516
G1 X236.549 Y23.7774
G3 X236.5498 Y23.7775 I-0.1478 J0.989
G1 X238.2324 Y24.0303
G3 X238.2342 Y24.0306 I-0.1486 J0.9889
G1 X239.706 Y24.2545
G3 X239.7078 Y24.2548 I-0.1504 J0.9886
G1 X240.3516 Y24.3539
G3 X240.3534 Y24.3542 I-0.1522 J0.9884
G1 X241.5601 Y24.5423
G3 X241.5607 Y24.5424 I-0.154 J0.9881
G3 X245.7921 Y25.2327 I-50.6338 J323.6746
G3 X245.7936 Y25.233 I-0.1675 J0.9859
G1 X246.8469 Y25.4136
G3 X246.85 Y25.4141 I-0.169 J0.9856
G1 X247.6394 Y25.5521
G3 X247.6413 Y25.5524 I-0.1721 J0.9851
G1 X247.9373 Y25.6047
G3 X247.9396 Y25.6051 I-0.174 J0.9847
G1 X248.975 Y25.7906
G3 X248.9787 Y25.7913 I-0.1763 J0.9843
G1 X250.0134 Y25.9806
G3 X250.0158 Y25.9811 I-0.18 J0.9837
G1 X250.3163 Y26.0368
G3 X250.3189 Y26.0373 I-0.1825 J0.9832
G1 X251.5108 Y26.2617
G3 X251.5145 Y26.2624 I-0.185 J0.9827
G1 X252.6684 Y26.4841
G3 X252.6707 Y26.4845 I-0.1887 J0.982
G1 X253.2294 Y26.5933
G3 X253.2314 Y26.5936 I-0.191 J0.9816
G1 X254.3309 Y26.8099
G3 X254.3321 Y26.8102 I-0.193 J0.9812
G1 X254.3987 Y26.8234
G1 X254.3989
G1 X254.4653 Y26.8366
G3 X254.466 Y26.8367 I-0.1944 J0.9809
G3 X258.711 Y27.6942 I-143.6425 J722.0202
G3 X258.7116 Y27.6943 I-0.2009 J0.9796
G1 X260.5649 Y28.0755
G3 X260.5663 Y28.0758 I-0.2015 J0.9795
G1 X264.0403 Y28.7954
G3 X264.0407 Y28.7955 I-0.2028 J0.9792
G1 X270.1191 Y30.0575
G1 X274.6783 Y30.9989
G1 X275.533 Y31.1746
G1 X275.9335 Y31.2568
G1 X279.0403 Y31.8925
G2 X281.3694 Y32.3664 I287.6141 J-1407.63
G1 X284.8659 Y33.0734
G1 X288.3635 Y33.7755
G3 X289.1667 Y34.756 I-0.1968 J0.9804
G1 Y93.756
G3 X288.3633 Y94.7364 I-1.0 J0.0
G1 X285.9662 Y95.2171
G2 X276.9857 Y97.0394 I413.5976 J2061.2919
G1 X273.6186 Y97.7311
G1 X270.6734 Y98.3395
G1 X268.0965 Y98.8738
G1 X263.5865 Y99.8107
G3 X263.5861 Y99.8108 I-0.2034 J-0.9791
G1 X261.8946 Y100.1615
G3 X261.894 Y100.1616 I-0.203 J-0.9792
G1 X260.4138 Y100.4676
G3 X260.4123 Y100.4679 I-0.2024 J-0.9793
G1 X257.8212 Y100.9996
G3 X257.8187 Y101.0001 I-0.201 J-0.9796
G1 X255.8744 Y101.3939
G3 X255.8717 Y101.3944 I-0.1985 J-0.9801
G1 X254.4126 Y101.6858
G3 X254.4106 Y101.6862 I-0.1958 J-0.9806
G1 X253.8632 Y101.7943
G3 X253.8621 Y101.7946 I-0.1938 J-0.981
G1 X253.383 Y101.8886
G3 X253.3814 Y101.8889 I-0.1927 J-0.9813
G1 X252.5427 Y102.0522
G3 X250.0145 Y102.5311 I-49.0432 J-251.9847
G3 X250.0128 Y102.5314 I-0.1812 J-0.9834
G1 X248.6637 Y102.7775
G3 X248.6607 Y102.778 I-0.1795 J-0.9838
G1 X248.3443 Y102.8348
G3 X248.3416 Y102.8353 I-0.1765 J-0.9843
G1 X247.0952 Y103.0552
G3 X247.0931 Y103.0555 I-0.1737 J-0.9848
G3 X245.9198 Y103.2575 I-51.5934 J-296.2285
G3 X245.9181 Y103.2578 I-0.1677 J-0.9858
G1 X244.8212 Y103.4424
G3 X244.818 Y103.4429 I-0.166 J-0.9861
G1 X243.789 Y103.6126
G3 X243.7868 Y103.6129 I-0.1627 J-0.9867
G1 X243.3043 Y103.6914
G3 X243.3024 Y103.6917 I-0.1605 J-0.987
G1 X242.3673 Y103.8418
G3 X242.3658 Y103.8421 I-0.1586 J-0.9874
G1 X242.1466 Y103.8769
G3 X242.146 Y103.877 I-0.1571 J-0.9876
G1 X241.9302 Y103.9112
G3 X241.9289 Y103.9114 I-0.1565 J-0.9877
G1 X241.079 Y104.045
G3 X241.0772 Y104.0453 I-0.1552 J-0.9879
G1 X240.2802 Y104.169
G3 X240.2787 Y104.1693 I-0.1534 J-0.9882
G1 X239.5435 Y104.2823
G3 X239.4736 Y104.293 I-0.2891 J-1.6564
G1 X238.0894 Y104.5032
G3 X238.0875 Y104.5035 I-0.1502 J-0.9887
G1 X235.6433 Y104.8698
G3 X235.6427 Y104.8699 I-0.1482 J-0.989
G1 X235.1844 Y104.9383
G3 X235.184 Y104.9384 I-0.1477 J-0.989
G2 X231.7516 Y105.455 I161.2136 J1082.7609
G1 X230.0372 Y105.7202
G1 X229.1821 Y105.8554
G1 X228.3269 Y105.993
G1 X227.7025 Y106.0952
G1 X227.0981 Y106.1954
G1 X225.926 Y106.3933
G1 X224.8276 Y106.5825
G1 X224.3133 Y106.6722
G1 X223.8155 Y106.7596
G1 X221.8824 Y107.1043
G1 X221.0378 Y107.2571
G1 X220.2456 Y107.4014
G1 X218.7596 Y107.674
G1 X217.4593 Y107.9139
G1 X216.3231 Y108.124
G3 X215.8243 Y108.2163 I-12.1876 J-64.4817
G3 X215.3568 Y108.3027 I-7.2797 J-38.0569
G3 X214.9187 Y108.3837 I-5.6585 J-29.3958
G3 X214.508 Y108.4595 I-4.7654 J-24.6651
G3 X214.1229 Y108.5305 I-4.1736 J-21.5577
G3 X213.7618 Y108.597 I-3.7411 J-19.3066
G3 X213.4233 Y108.6592 I-3.4051 J-17.5722
G3 X213.1059 Y108.7174 I-3.1332 J-16.1791
G3 X212.8083 Y108.772 I-2.9065 J-15.025
G3 X212.5241 Y108.8239 I-2.7131 J-14.0466
G3 X208.3399 Y109.5742 I-115.6135 J-632.7156
G3 X208.3392 Y109.5743 I-0.1732 J-0.9849
G3 X205.8386 Y110.0044 I-71.167 J-406.2503
G3 X201.4599 Y110.7259 I-89.507 J-529.5808
G3 X201.4589 Y110.726 I-0.1585 J-0.9874
G1 X199.8185 Y110.9877
G3 X199.8164 Y110.988 I-0.1575 J-0.9875
G1 X198.3806 Y111.2138
G3 X198.3782 Y111.2142 I-0.1554 J-0.9879
G1 X195.8647 Y111.6035
G3 X195.8626 Y111.6038 I-0.1531 J-0.9882
G1 X193.9768 Y111.8918
G3 X193.9753 Y111.8921 I-0.151 J-0.9885
G1 X191.1484 Y112.3194
G3 X190.7911 Y112.3732 I-4.8627 J-31.0989
G3 X190.4823 Y112.4196 I-4.8364 J-31.1196
G3 X189.9393 Y112.5012 I-7.0558 J-45.1209
G3 X189.5337 Y112.562 I-6.9894 J-45.1777
G3 X188.9234 Y112.6536 I-10.6069 J-68.6113
G3 X188.3135 Y112.7451 I-18.1939 J-119.2161
G1 X185.4047 Y113.1802
G3 X185.4036 Y113.1803 I-0.1479 J-0.989
G1 X184.7669 Y113.2748
G3 X184.7659 Y113.275 I-0.1468 J-0.9892
G1 X183.5322 Y113.4568
G3 X183.5314 Y113.4569 I-0.1458 J-0.9893
G1 X183.3872 Y113.478
G3 X174.1763 Y114.7466 I-72.2098 J-490.2319
G3 X174.1746 Y114.7468 I-0.1271 J-0.9919
G1 X173.0239 Y114.8923
G3 X173.022 Y114.8925 I-0.1254 J-0.9921
G3 X164.9411 Y115.8335 I-63.3932 J-509.2552
G3 X164.9405 I-0.1078 J-0.9942
G1 X164.3687 Y115.8952
G3 X164.3672 Y115.8953 I-0.1072 J-0.9942
G1 X163.2414 Y116.015
G3 X163.2387 Y116.0153 I-0.1057 J-0.9944
G1 X161.0567 Y116.2414
G3 X161.0547 Y116.2416 I-0.1031 J-0.9947
G1 X160.5432 Y116.2936
G3 X160.5423 Y116.2937 I-0.1011 J-0.9949
G3 X157.0616 Y116.6372 I-88.5536 J-879.4858
G1 F20.0 Z-2.0
G3 F150.0 X152.4728 Y117.0688 I-85.0729 J-879.8293
G3 X152.4719 Y117.0689 I-0.0911 J-0.9958
G1 X150.9598 Y117.2059
G3 X150.9586 Y117.206 I-0.0902 J-0.9959
G3 X139.6018 Y118.1632 I-101.3297 J-1134.2986
G3 X139.6013 Y118.1633 I-0.079 J-0.9969
G1 X138.8918 Y118.2191
G3 X138.8903 Y118.2193 I-0.0785 J-0.9969
G1 X136.2293 Y118.4247
G3 X136.2277 Y118.4248 I-0.077 J-0.997
G1 X135.2297 Y118.5003
G3 X135.2291 I-0.0754 J-0.9972
G1 X134.7924 Y118.533
G3 X134.792 Y118.5331 I-0.0747 J-0.9972
G1 X134.3826 Y118.5636
G3 X134.3817 I-0.0743 J-0.9972
G1 X132.8466 Y118.6767
G3 X132.8458 Y118.6768 I-0.0735 J-0.9973
G1 X132.5579 Y118.6978
G3 X132.5568 Y118.6979 I-0.0727 J-0.9974
G1 X130.3976 Y118.8528
G3 X130.3957 Y118.8529 I-0.0716 J-0.9974
G1 X128.2363 Y119.0035
G3 X128.2346 Y119.0036 I-0.0696 J-0.9976
G1 X126.8819 Y119.0958
G3 X126.88 Y119.0959 I-0.068 J-0.9977
G1 X124.2586 Y119.2695
G3 X124.2572 Y119.2696 I-0.0661 J-0.9978
G1 X123.95 Y119.2895
G3 X123.9487 Y119.2896 I-0.0647 J-0.9979
G1 X121.5099 Y119.4446
G3 X121.5082 Y119.4447 I-0.0634 J-0.998
G1 X120.365 Y119.5154
G3 X120.3634 Y119.5155 I-0.0617 J-0.9981
G1 X118.1481 Y119.6489
G3 X118.1466 Y119.649 I-0.0601 J-0.9982
G1 X117.108 Y119.71
G3 X117.1073 Y119.7101 I-0.0586 J-0.9983
G3 X100.99 Y120.5351 I-68.6108 J-1182.5564
G3 X100.9896 I-0.0443 J-0.999
G1 X98.9759 Y120.6236
G3 X98.9746 Y120.6237 I-0.0439 J-0.999
G1 X97.2126 Y120.6988
G3 X97.211 Y120.6989 I-0.0426 J-0.9991
G1 X94.1271 Y120.8255
G3 X94.126 I-0.041 J-0.9992
G1 X93.5477 Y120.8486
G3 X93.5472 I-0.0399 J-0.9992
G1 X92.4629 Y120.8913
G3 X92.4623 I-0.0394 J-0.9992
G1 X91.5135 Y120.9281
G3 X91.5123 Y120.9282 I-0.0388 J-0.9992
G1 X88.1917 Y121.053
G3 X88.1907 I-0.0375 J-0.9993
G1 X87.9831 Y121.0606
G3 X87.9823 I-0.0366 J-0.9993
G1 X84.8691 Y121.172
G3 X84.868 I-0.0357 J-0.9994
G1 X83.6705 Y121.2136
G3 X83.6699 I-0.0347 J-0.9994
G1 X82.4911 Y121.2538
G3 X82.4905 I-0.0341 J-0.9994
G1 X81.3301 Y121.2928
G3 X81.3295 I-0.0335 J-0.9994
G1 X80.1872 Y121.3304
G3 X80.1866 I-0.0329 J-0.9995
G1 X79.0621 Y121.3668
G3 X79.0617 I-0.0323 J-0.9995
G1 X78.5082 Y121.3845
G3 X78.5075 I-0.0319 J-0.9995
G1 X76.3109 Y121.4531
G3 X76.3102 I-0.0312 J-0.9995
G1 X75.7782 Y121.4694
G3 X75.7778 I-0.0305 J-0.9995
G1 X74.7221 Y121.5012
G3 X74.7215 I-0.0301 J-0.9995
G1 X73.6823 Y121.5319
G3 X73.6819 I-0.0296 J-0.9996
G1 X73.1704 Y121.5469
G3 X73.1701 I-0.0292 J-0.9996
G1 X72.6626 Y121.5616
G3 X72.6615 I-0.0289 J-0.9996
G1 X68.6334 Y121.6737
G3 X66.7421 Y121.7237 I-13.9296 J-490.9892
G1 X66.2854 Y121.7355
G3 X66.2845 Y121.7356 I-0.0259 J-0.9997
G1 X62.6543 Y121.8265
G3 X62.6528 I-0.025 J-0.9997
G1 X59.2494 Y121.9068
G3 X59.2484 Y121.9069 I-0.0236 J-0.9997
G1 X57.653 Y121.943
G3 X57.6522 I-0.0227 J-0.9997
G1 X54.561 Y122.0105
G3 X54.5603 I-0.0218 J-0.9998
G1 X53.1112 Y122.0411
G3 X53.1109 I-0.0211 J-0.9998
G1 X52.409 Y122.0557
G3 X52.4087 I-0.0207 J-0.9998
G1 X51.7191 Y122.0698
G3 X51.0359 Y122.0837 I-2.8133 J-121.658
G1 X49.6981 Y122.1105
G3 X49.6972 I-0.02 J-0.9998
G1 X44.5086 Y122.2096
G3 X44.5074 Y122.2097 I-0.0191 J-0.9998
G1 X39.9672 Y122.2909
G3 X39.9667 I-0.0179 J-0.9998
G1 X39.8425 Y122.293
G3 X39.8421 I-0.0173 J-0.9998
G1 X35.8849 Y122.36
G3 X35.8842 I-0.0169 J-0.9999
G1 X32.4215 Y122.416
G3 X32.4211 I-0.0162 J-0.9999
G1 X31.6637 Y122.428
G3 X31.6631 I-0.0158 J-0.9999
G1 X25.7929 Y122.5173
G3 X25.7921 I-0.0152 J-0.9999
G1 X21.3893 Y122.5807
G3 X21.389 I-0.0144 J-0.9999
G1 X20.5634 Y122.5923
G1 X20.5633
G1 X19.7894 Y122.6031
G3 X19.7889 I-0.0139 J-0.9999
G1 X13.9846 Y122.6815
G3 X13.9841 I-0.0135 J-0.9999
G1 X11.0818 Y122.7191
G3 X11.0815 I-0.013 J-0.9999
G1 X8.1793 Y122.7559
G3 X7.1667 Y121.756 I-0.0127 J-0.9999
G1 Y6.756
G3 X8.1794 Y5.756 I1.0 J0.0
G1 X12.9718 Y5.8172
G3 X12.9723 I-0.0128 J0.9999
G1 X17.4651 Y5.8769
G3 X17.4656 I-0.0133 J0.9999
G1 X19.5716 Y5.9058
G3 X19.572 I-0.0137 J0.9999
G1 X23.6524 Y5.9634
G3 X23.6529 I-0.0141 J0.9999
G1 X27.4782 Y6.0197
G3 X27.4788 I-0.0147 J0.9999
G1 X31.065 Y6.0746
G3 X31.0656 I-0.0153 J0.9999
G1 X34.4276 Y6.1281
G3 X34.4281 I-0.0159 J0.9999
G1 X36.004 Y6.1539
G3 X36.0044 I-0.0164 J0.9999
G1 X37.531 Y6.1794
G3 X43.4485 Y6.2829 I-58.1927 J3496.6412
G3 X43.449 I-0.0183 J0.9998
G1 X48.6251 Y6.3803
G3 X48.626 I-0.0188 J0.9998
G1 X49.7583 Y6.4026
G3 X49.7588 I-0.0197 J0.9998
G1 X51.9526 Y6.4469
G3 X51.953 I-0.0202 J0.9998
G1 X52.9814 Y6.4681
G3 X52.9822 I-0.0206 J0.9998
G1 X56.9646 Y6.5536
G3 X57.4062 Y6.5634 I-0.7265 J42.6634
G1 X59.1199 Y6.6021
G3 X59.1208 I-0.0226 J0.9997
G1 X62.3383 Y6.6778
G3 X62.3392 I-0.0235 J0.9997
G1 X63.7276 Y6.7117
G3 X63.8297 Y6.7137 I0.0147 J1.8654
G3 X63.9315 Y6.7168 I-0.0051 J1.8638
G1 X66.5311 Y6.7827
G3 X66.5314 I-0.0253 J0.9997
G3 X84.8684 Y7.3399 I-49.9975 J1947.4558
G1 X84.8685
G1 X85.546 Y7.3637
G3 X85.5465 I-0.0351 J0.9994
G1 X86.8804 Y7.4113
G3 X86.8811 I-0.0356 J0.9994
G1 X88.1733 Y7.4583
G3 X88.1743 I-0.0363 J0.9993
G1 X90.6639 Y7.5513
G3 X90.7519 Y7.5543 I-0.0283 J2.0923
G3 X90.8396 Y7.558 I-0.043 J2.0913
G1 X93.1635 Y7.6481
G3 X93.1645 I-0.0388 J0.9992
G1 X94.2603 Y7.6918
G3 X94.2614 I-0.0398 J0.9992
G1 X96.3843 Y7.7785
G3 X96.3856 I-0.0408 J0.9992
G1 X98.3758 Y7.8625
G3 X98.3768 I-0.0421 J0.9991
G1 X99.3097 Y7.9028
G3 X99.3102 I-0.0431 J0.9991
G1 X99.7621 Y7.9225
G3 X99.7624 I-0.0436 J0.999
G1 X100.2072 Y7.9421
G3 X100.208 I-0.0439 J0.999
G1 X101.9438 Y8.0198
G3 X102.0628 Y8.0248 I-0.0416 J2.4058
G3 X102.1651 Y8.0295 I-0.0582 J2.4043
G3 X102.2671 Y8.0341 I-0.0586 J2.4032
G3 X102.3845 Y8.0399 I-0.0589 J2.4021
G1 X103.9853 Y8.114
G3 X103.9871 Y8.1141 I-0.0463 J0.9989
G1 X107.0171 Y8.26
G3 X107.0189 Y8.2601 I-0.0481 J0.9988
G1 X108.3444 Y8.3262
G3 X108.3455 Y8.3263 I-0.0498 J0.9988
G1 X109.5881 Y8.3896
G3 X109.5891 Y8.3897 I-0.0509 J0.9987
G1 X110.754 Y8.4502
G3 X110.7555 Y8.4503 I-0.0519 J0.9987
G1 X112.9394 Y8.5671
G3 X112.9402 I-0.0534 J0.9986
G3 X120.5895 Y9.0103 I-56.6163 J1043.4629
G3 X120.5903 Y9.0104 I-0.0615 J0.9981
G1 X122.5003 Y9.1296
G3 X122.5026 Y9.1297 I-0.0623 J0.9981
G1 X125.3671 Y9.315
G3 X125.3692 Y9.3151 I-0.0645 J0.9979
G1 X126.7962 Y9.4103
G3 X126.9819 Y9.4228 I-0.5071 J8.9341
G3 X127.1371 Y9.4333 I-0.5333 J9.0363
G3 X127.4139 Y9.4521 I-0.747 J13.0542
G3 X127.619 Y9.4661 I-0.8265 J13.6363
G3 X128.2382 Y9.5085 I-3.0979 J49.7671
G3 X146.5998 Y10.9241 I-75.3013 J1096.5311
G3 X146.6008 Y10.9242 I-0.0852 J0.9964
G1 X148.8914 Y11.1225
G3 X149.8994 Y11.2114 I-10.8122 J128.3437
G1 X151.7777 Y11.3798
G3 X151.779 Y11.3799 I-0.0893 J0.996
G1 X152.6013 Y11.4548
G3 X152.6025 Y11.4549 I-0.0907 J0.9959
G1 X154.1438 Y11.5973
G3 X154.145 Y11.5974 I-0.092 J0.9958
G1 X154.8193 Y11.6605
G3 X154.8204 Y11.6606 I-0.0932 J0.9957
G1 X156.0846 Y11.7803
G3 X156.0856 Y11.7804 I-0.0943 J0.9955
G1 X156.6386 Y11.8334
G3 X156.6396 Y11.8335 I-0.0953 J0.9954
G1 X157.6764 Y11.9338
G3 X157.6776 Y11.9339 I-0.0963 J0.9954
G1 X158.5847 Y12.0227
G3 X158.5858 Y12.0228 I-0.0975 J0.9952
G1 X159.3794 Y12.1015
G3 X159.3804 Y12.1016 I-0.0986 J0.9951
G1 X160.0748 Y12.1711
G3 X160.0757 I-0.0996 J0.995
G1 X160.6832 Y12.2325
G3 X160.6852 Y12.2327 I-0.1005 J0.9949
G1 X162.8109 Y12.4517
G3 X162.8143 Y12.452 I-0.1025 J0.9947
G1 X164.9326 Y12.6775
G3 X165.125 Y12.6983 I-0.6352 J6.7867
G3 X165.3122 Y12.7188 I-0.7139 J7.3964
G3 X168.1907 Y13.0406 I-41.5718 J384.8641
G1 X168.5052 Y13.0767
G3 X168.5068 Y13.0769 I-0.1142 J0.9935
G1 X169.7458 Y13.2214
G3 X169.7473 Y13.2216 I-0.1158 J0.9933
G3 X179.0464 Y14.4142 I-55.2371 J467.5351
G3 X179.0478 Y14.4144 I-0.1371 J0.9906
G1 X180.206 Y14.5763
G3 X180.209 Y14.5768 I-0.1385 J0.9904
G1 X182.2349 Y14.8662
G3 X182.2378 Y14.8666 I-0.1414 J0.9899
G1 X183.7566 Y15.0881
G3 X183.7588 Y15.0884 I-0.1443 J0.9895
G1 X186.0363 Y15.4258
G3 X186.0378 Y15.426 I-0.1466 J0.9892
G1 X188.3147 Y15.767
G3 X188.3151 I-0.1481 J0.989
G1 X190.8183 Y16.1428
G3 X190.8189 Y16.1429 I-0.1485 J0.9889
G1 X193.009 Y16.4733
G3 X193.0101 Y16.4734 I-0.1491 J0.9888
G1 X194.9261 Y16.7647
G3 X194.9275 Y16.7649 I-0.1503 J0.9886
G1 X196.6035 Y17.0221
G3 X196.6051 Y17.0224 I-0.1517 J0.9884
G1 X198.0713 Y17.2498
G3 X198.0729 Y17.25 I-0.1533 J0.9882
G1 X199.3555 Y17.4511
G3 X199.3579 Y17.4515 I-0.1549 J0.9879
G1 X201.6017 Y17.8088
G3 X201.604 Y17.8092 I-0.1573 J0.9876
G1 X202.4451 Y17.9452
G3 X202.4465 Y17.9454 I-0.1597 J0.9872
G1 X203.1823 Y18.0655
G3 X203.1835 Y18.0657 I-0.161 J0.987
G1 X203.8272 Y18.1715
G3 X203.8283 Y18.1717 I-0.1622 J0.9868
G1 X204.3914 Y18.2649
G3 X204.3929 Y18.2652 I-0.1633 J0.9866
G1 X205.3781 Y18.4298
G3 X205.3806 Y18.4302 I-0.1648 J0.9863
G1 X206.8578 Y18.681
G3 X206.8611 Y18.6816 I-0.1674 J0.9859
G1 X208.3373 Y18.9373
G3 X208.3405 Y18.9378 I-0.1707 J0.9853
G1 X209.5911 Y19.1585
G3 X209.593 Y19.1589 I-0.1738 J0.9848
G1 X210.179 Y19.2635
G3 X210.1793 I-0.1757 J0.9844
G3 X214.7241 Y20.0923 I-119.5236 J668.2948
G1 X216.4248 Y20.4067
G3 X216.4282 Y20.4074 I-0.1818 J0.9833
G2 X216.7938 Y20.475 I10.4092 J-55.2475
G3 X216.802 Y20.4765 I-0.1786 J0.9839
G2 X217.1526 Y20.5414 I6.6145 J-34.7861
G3 X217.1636 Y20.5434 I-0.1769 J0.9842
G2 X217.5006 Y20.6057 I5.1964 J-27.1692
G3 X217.5058 Y20.6066 I-0.1757 J0.9844
G1 X220.2129 Y21.1045
G3 X220.2219 Y21.1062 I-0.1809 J0.9835
G2 X220.455 Y21.1488 I2.1271 J-10.995
G3 X220.4757 Y21.1525 I-0.1691 J0.9856
G2 X220.7005 Y21.1935 I2.0224 J-10.4633
G3 X220.7214 Y21.1973 I-0.1687 J0.9857
G2 X220.9384 Y21.2368 I1.9277 J-9.9841
G3 X220.9595 Y21.2406 I-0.1682 J0.9857
G2 X221.1688 Y21.2786 I1.8414 J-9.5489
G3 X221.1901 Y21.2825 I-0.1678 J0.9858
G2 X221.3921 Y21.3191 I1.7623 J-9.1513
G3 X221.4135 Y21.3229 I-0.1674 J0.9859
G2 X221.6084 Y21.3582 I1.6894 J-8.7859
G3 X221.6299 Y21.3621 I-0.167 J0.986
G2 X221.8179 Y21.396 I1.6218 J-8.4482
G3 X221.8395 Y21.3999 I-0.1667 J0.986
G2 X222.0209 Y21.4326 I1.559 J-8.135
G3 X222.0425 Y21.4364 I-0.1663 J0.9861
G2 X222.2176 Y21.4679 I1.5003 J-7.8432
G3 X222.2392 Y21.4718 I-0.166 J0.9861
G2 X222.4081 Y21.5021 I1.4454 J-7.5704
G3 X222.4297 Y21.506 I-0.1656 J0.9862
G2 X222.5927 Y21.5352 I1.3938 J-7.3144
G3 X222.6143 Y21.539 I-0.1653 J0.9862
G2 X222.7716 Y21.5671 I1.3452 J-7.0736
G3 X222.793 Y21.571 I-0.165 J0.9863
G2 X222.9448 Y21.598 I1.2993 J-6.8463
G3 X222.9662 Y21.6018 I-0.1647 J0.9863
G2 X223.1127 Y21.6279 I1.2559 J-6.6315
G3 X223.134 Y21.6317 I-0.1644 J0.9864
G2 X223.2753 Y21.6568 I1.2147 J-6.4279
G3 X223.2965 Y21.6606 I-0.1641 J0.9864
G2 X223.4329 Y21.6847 I1.1756 J-6.2343
G3 X223.4539 Y21.6885 I-0.1638 J0.9865
G2 X223.5855 Y21.7117 I1.1384 J-6.05
G3 X223.5984 Y21.714 I-0.1635 J0.9865
G2 X224.7761 Y21.9205 I27.9956 J-156.1867
G3 X224.792 Y21.9234 I-0.169 J0.9856
G2 X224.9865 Y21.9571 I1.2895 J-6.8525
G3 X225.0135 Y21.9618 I-0.1571 J0.9876
G2 X225.1946 Y21.9931 I1.2216 J-6.5226
G3 X225.2058 Y21.995 I-0.1568 J0.9876
G1 X226.7696 Y22.2614
G3 X226.7812 Y22.2635 I-0.168 J0.9858
G2 X226.9482 Y22.2915 I1.0495 J-5.7475
G3 X226.9599 Y22.2934 I-0.151 J0.9885
G1 X228.3294 Y22.5193
G3 X228.3393 Y22.521 I-0.1628 J0.9867
G2 X228.4834 Y22.5443 I0.9881 J-5.637
G3 X228.4945 Y22.5461 I-0.1475 J0.9891
G1 X229.1655 Y22.6539
G1 X229.4897 Y22.7054
G1 X229.8089 Y22.7559
G1 X230.4386 Y22.8545
G1 X230.7429 Y22.9017
G1 X231.9451 Y23.0864
G1 X232.5082 Y23.1719
G1 X233.6009 Y23.3367
G1 X235.6516 Y23.6433
G1 X235.6515
G1 X235.6516
G1 X236.549 Y23.7774
G3 X236.5498 Y23.7775 I-0.1478 J0.989
G1 X238.2324 Y24.0303
G3 X238.2342 Y24.0306 I-0.1486 J0.9889
G1 X239.706 Y24.2545
G3 X239.7078 Y24.2548 I-0.1504 J0.9886
G1 X240.3516 Y24.3539
G3 X240.3534 Y24.3542 I-0.1522 J0.9884
G1 X241.5601 Y24.5423
G3 X241.5607 Y24.5424 I-0.154 J0.9881
G3 X245.7921 Y25.2327 I-50.6338 J323.6746
G3 X245.7936 Y25.233 I-0.1675 J0.9859
G1 X246.8469 Y25.4136
G3 X246.85 Y25.4141 I-0.169 J0.9856
G1 X247.6394 Y25.5521
G3 X247.6413 Y25.5524 I-0.1721 J0.9851
G1 X247.9373 Y25.6047
G3 X247.9396 Y25.6051 I-0.174 J0.9847
G1 X248.975 Y25.7906
G3 X248.9787 Y25.7913 I-0.1763 J0.9843
G1 X250.0134 Y25.9806
G3 X250.0158 Y25.9811 I-0.18 J0.9837
G1 X250.3163 Y26.0368
G3 X250.3189 Y26.0373 I-0.1825 J0.9832
G1 X251.5108 Y26.2617
G3 X251.5145 Y26.2624 I-0.185 J0.9827
G1 X252.6684 Y26.4841
G3 X252.6707 Y26.4845 I-0.1887 J0.982
G1 X253.2294 Y26.5933
G3 X253.2314 Y26.5936 I-0.191 J0.9816
G1 X254.3309 Y26.8099
G3 X254.3321 Y26.8102 I-0.193 J0.9812
G1 X254.3987 Y26.8234
G1 X254.3989
G1 X254.4653 Y26.8366
G3 X254.466 Y26.8367 I-0.1944 J0.9809
G3 X258.711 Y27.6942 I-143.6425 J722.0202
G3 X258.7116 Y27.6943 I-0.2009 J0.9796
G1 X260.5649 Y28.0755
G3 X260.5663 Y28.0758 I-0.2015 J0.9795
G1 X264.0403 Y28.7954
G3 X264.0407 Y28.7955 I-0.2028 J0.9792
G1 X270.1191 Y30.0575
G1 X274.6783 Y30.9989
G1 X275.533 Y31.1746
G1 X275.9335 Y31.2568
G1 X279.0403 Y31.8925
G2 X281.3694 Y32.3664 I287.6141 J-1407.63
G1 X284.8659 Y33.0734
G1 X288.3635 Y33.7755
G3 X289.1667 Y34.756 I-0.1968 J0.9804
G1 Y93.756
G3 X288.3633 Y94.7364 I-1.0 J0.0
G1 X285.9662 Y95.2171
G2 X276.9857 Y97.0394 I413.5976 J2061.2919
G1 X273.6186 Y97.7311
G1 X270.6734 Y98.3395
G1 X268.0965 Y98.8738
G1 X263.5865 Y99.8107
G3 X263.5861 Y99.8108 I-0.2034 J-0.9791
G1 X261.8946 Y100.1615
G3 X261.894 Y100.1616 I-0.203 J-0.9792
G1 X260.4138 Y100.4676
G3 X260.4123 Y100.4679 I-0.2024 J-0.9793
G1 X257.8212 Y100.9996
G3 X257.8187 Y101.0001 I-0.201 J-0.9796
G1 X255.8744 Y101.3939
G3 X255.8717 Y101.3944 I-0.1985 J-0.9801
G1 X254.4126 Y101.6858
G3 X254.4106 Y101.6862 I-0.1958 J-0.9806
G1 X253.8632 Y101.7943
G3 X253.8621 Y101.7946 I-0.1938 J-0.981
G1 X253.383 Y101.8886
G3 X253.3814 Y101.8889 I-0.1927 J-0.9813
G1 X252.5427 Y102.0522
G3 X250.0145 Y102.5311 I-49.0432 J-251.9847
G3 X250.0128 Y102.5314 I-0.1812 J-0.9834
G1 X248.6637 Y102.7775
G3 X248.6607 Y102.778 I-0.1795 J-0.9838
G1 X248.3443 Y102.8348
G3 X248.3416 Y102.8353 I-0.1765 J-0.9843
G1 X247.0952 Y103.0552
G3 X247.0931 Y103.0555 I-0.1737 J-0.9848
G3 X245.9198 Y103.2575 I-51.5934 J-296.2285
G3 X245.9181 Y103.2578 I-0.1677 J-0.9858
G1 X244.8212 Y103.4424
G3 X244.818 Y103.4429 I-0.166 J-0.9861
G1 X243.789 Y103.6126
G3 X243.7868 Y103.6129 I-0.1627 J-0.9867
G1 X243.3043 Y103.6914
G3 X243.3024 Y103.6917 I-0.1605 J-0.987
G1 X242.3673 Y103.8418
G3 X242.3658 Y103.8421 I-0.1586 J-0.9874
G1 X242.1466 Y103.8769
G3 X242.146 Y103.877 I-0.1571 J-0.9876
G1 X241.9302 Y103.9112
G3 X241.9289 Y103.9114 I-0.1565 J-0.9877
G1 X241.079 Y104.045
G3 X241.0772 Y104.0453 I-0.1552 J-0.9879
G1 X240.2802 Y104.169
G3 X240.2787 Y104.1693 I-0.1534 J-0.9882
G1 X239.5435 Y104.2823
G3 X239.4736 Y104.293 I-0.2891 J-1.6564
G1 X238.0894 Y104.5032
G3 X238.0875 Y104.5035 I-0.1502 J-0.9887
G1 X235.6433 Y104.8698
G3 X235.6427 Y104.8699 I-0.1482 J-0.989
G1 X235.1844 Y104.9383
G3 X235.184 Y104.9384 I-0.1477 J-0.989
G2 X231.7516 Y105.455 I161.2136 J1082.7609
G1 X230.0372 Y105.7202
G1 X229.1821 Y105.8554
G1 X228.3269 Y105.993
G1 X227.7025 Y106.0952
G1 X227.0981 Y106.1954
G1 X225.926 Y106.3933
G1 X224.8276 Y106.5825
G1 X224.3133 Y106.6722
G1 X223.8155 Y106.7596
G1 X221.8824 Y107.1043
G1 X221.0378 Y107.2571
G1 X220.2456 Y107.4014
G1 X218.7596 Y107.674
G1 X217.4593 Y107.9139
G1 X216.3231 Y108.124
G3 X215.8243 Y108.2163 I-12.1876 J-64.4817
G3 X215.3568 Y108.3027 I-7.2797 J-38.0569
G3 X214.9187 Y108.3837 I-5.6585 J-29.3958
G3 X214.508 Y108.4595 I-4.7654 J-24.6651
G3 X214.1229 Y108.5305 I-4.1736 J-21.5577
G3 X213.7618 Y108.597 I-3.7411 J-19.3066
G3 X213.4233 Y108.6592 I-3.4051 J-17.5722
G3 X213.1059 Y108.7174 I-3.1332 J-16.1791
G3 X212.8083 Y108.772 I-2.9065 J-15.025
G3 X212.5241 Y108.8239 I-2.7131 J-14.0466
G3 X208.3399 Y109.5742 I-115.6135 J-632.7156
G3 X208.3392 Y109.5743 I-0.1732 J-0.9849
G3 X205.8386 Y110.0044 I-71.167 J-406.2503
G3 X201.4599 Y110.7259 I-89.507 J-529.5808
G3 X201.4589 Y110.726 I-0.1585 J-0.9874
G1 X199.8185 Y110.9877
G3 X199.8164 Y110.988 I-0.1575 J-0.9875
G1 X198.3806 Y111.2138
G3 X198.3782 Y111.2142 I-0.1554 J-0.9879
G1 X195.8647 Y111.6035
G3 X195.8626 Y111.6038 I-0.1531 J-0.9882
G1 X193.9768 Y111.8918
G3 X193.9753 Y111.8921 I-0.151 J-0.9885
G1 X191.1484 Y112.3194
G3 X190.7911 Y112.3732 I-4.8627 J-31.0989
G3 X190.4823 Y112.4196 I-4.8364 J-31.1196
G3 X189.9393 Y112.5012 I-7.0558 J-45.1209
G3 X189.5337 Y112.562 I-6.9894 J-45.1777
G3 X188.9234 Y112.6536 I-10.6069 J-68.6113
G3 X188.3135 Y112.7451 I-18.1939 J-119.2161
G1 X185.4047 Y113.1802
G3 X185.4036 Y113.1803 I-0.1479 J-0.989
G1 X184.7669 Y113.2748
G3 X184.7659 Y113.275 I-0.1468 J-0.9892
G1 X183.5322 Y113.4568
G3 X183.5314 Y113.4569 I-0.1458 J-0.9893
G1 X183.3872 Y113.478
G3 X174.1763 Y114.7466 I-72.2098 J-490.2319
G3 X174.1746 Y114.7468 I-0.1271 J-0.9919
G1 X173.0239 Y114.8923
G3 X173.022 Y114.8925 I-0.1254 J-0.9921
G3 X164.9411 Y115.8335 I-63.3932 J-509.2552
G3 X164.9405 I-0.1078 J-0.9942
G1 X164.3687 Y115.8952
G3 X164.3672 Y115.8953 I-0.1072 J-0.9942
G1 X163.2414 Y116.015
G3 X163.2387 Y116.0153 I-0.1057 J-0.9944
G1 X161.0567 Y116.2414
G3 X161.0547 Y116.2416 I-0.1031 J-0.9947
G1 X160.5432 Y116.2936
G3 X160.5423 Y116.2937 I-0.1011 J-0.9949
G3 X157.0616 Y116.6372 I-88.5536 J-879.4858
G1 F20.0 Z-3.0
G3 F150.0 X152.4728 Y117.0688 I-85.0729 J-879.8293
G3 X152.4719 Y117.0689 I-0.0911 J-0.9958
G1 X151.6102 Y117.147
G1 X150.9598 Y117.2059 Z-2.5647
G3 X150.9586 Y117.206 Z-2.5638 I-0.0902 J-0.9959
G3 X150.1162 Y117.2809 Z-2.0 I-101.3297 J-1134.2986
G3 X148.1238 Y117.4556 I-100.4873 J-1134.3736
G3 X146.6294 Y117.5844 Z-3.0 I-98.495 J-1134.5483
G3 X139.6018 Y118.1632 I-97.0005 J-1134.6771
G3 X139.6013 Y118.1633 I-0.079 J-0.9969
G1 X138.8918 Y118.2191
G3 X138.8903 Y118.2193 I-0.0785 J-0.9969
G1 X136.2293 Y118.4247
G3 X136.2277 Y118.4248 I-0.077 J-0.997
G1 X135.2297 Y118.5003
G3 X135.2291 I-0.0754 J-0.9972
G1 X134.7924 Y118.533
G3 X134.792 Y118.5331 I-0.0747 J-0.9972
G1 X134.3826 Y118.5636
G3 X134.3817 I-0.0743 J-0.9972
G1 X132.8466 Y118.6767
G3 X132.8458 Y118.6768 I-0.0735 J-0.9973
G1 X132.5579 Y118.6978
G3 X132.5568 Y118.6979 I-0.0727 J-0.9974
G1 X130.3976 Y118.8528
G3 X130.3957 Y118.8529 I-0.0716 J-0.9974
G1 X128.2363 Y119.0035
G3 X128.2346 Y119.0036 I-0.0696 J-0.9976
G1 X126.8819 Y119.0958
G3 X126.88 Y119.0959 I-0.068 J-0.9977
G1 X124.2586 Y119.2695
G3 X124.2572 Y119.2696 I-0.0661 J-0.9978
G1 X123.95 Y119.2895
G3 X123.9487 Y119.2896 I-0.0647 J-0.9979
G1 X121.5099 Y119.4446
G3 X121.5082 Y119.4447 I-0.0634 J-0.998
G1 X120.365 Y119.5154
G3 X120.3634 Y119.5155 I-0.0617 J-0.9981
G1 X118.1481 Y119.6489
G3 X118.1466 Y119.649 I-0.0601 J-0.9982
G1 X117.108 Y119.71
G3 X117.1073 Y119.7101 I-0.0586 J-0.9983
G3 X100.99 Y120.5351 I-68.6108 J-1182.5564
G3 X100.9896 I-0.0443 J-0.999
G1 X98.9759 Y120.6236
G3 X98.9746 Y120.6237 I-0.0439 J-0.999
G1 X97.2126 Y120.6988
G3 X97.211 Y120.6989 I-0.0426 J-0.9991
G1 X94.1271 Y120.8255
G3 X94.126 I-0.041 J-0.9992
G1 X93.5477 Y120.8486
G3 X93.5472 I-0.0399 J-0.9992
G1 X92.4629 Y120.8913
G3 X92.4623 I-0.0394 J-0.9992
G1 X91.5135 Y120.9281
G3 X91.5123 Y120.9282 I-0.0388 J-0.9992
G1 X88.1917 Y121.053
G3 X88.1907 I-0.0375 J-0.9993
G1 X87.9831 Y121.0606
G3 X87.9823 I-0.0366 J-0.9993
G1 X84.8691 Y121.172
G3 X84.868 I-0.0357 J-0.9994
G1 X83.6705 Y121.2136
G3 X83.6699 I-0.0347 J-0.9994
G1 X82.4911 Y121.2538
G3 X82.4905 I-0.0341 J-0.9994
G1 X81.3301 Y121.2928
G3 X81.3295 I-0.0335 J-0.9994
G1 X80.1872 Y121.3304
G3 X80.1866 I-0.0329 J-0.9995
G1 X79.0621 Y121.3668
G3 X79.0617 I-0.0323 J-0.9995
G1 X78.5082 Y121.3845
G3 X78.5075 I-0.0319 J-0.9995
G1 X76.3109 Y121.4531
G3 X76.3102 I-0.0312 J-0.9995
G1 X75.7782 Y121.4694
G3 X75.7778 I-0.0305 J-0.9995
G1 X74.7221 Y121.5012
G3 X74.7215 I-0.0301 J-0.9995
G1 X73.6823 Y121.5319
G3 X73.6819 I-0.0296 J-0.9996
G1 X73.1704 Y121.5469
G3 X73.1701 I-0.0292 J-0.9996
G1 X72.6626 Y121.5616
G3 X72.6615 I-0.0289 J-0.9996
G1 X68.6334 Y121.6737
G3 X66.7421 Y121.7237 I-13.9296 J-490.9892
G1 X66.2854 Y121.7355
G3 X66.2845 Y121.7356 I-0.0259 J-0.9997
G1 X62.6543 Y121.8265
G3 X62.6528 I-0.025 J-0.9997
G1 X59.2494 Y121.9068
G3 X59.2484 Y121.9069 I-0.0236 J-0.9997
G1 X57.653 Y121.943
G3 X57.6522 I-0.0227 J-0.9997
G1 X54.561 Y122.0105
G3 X54.5603 I-0.0218 J-0.9998
G1 X53.1112 Y122.0411
G3 X53.1109 I-0.0211 J-0.9998
G1 X52.409 Y122.0557
G3 X52.4087 I-0.0207 J-0.9998
G1 X51.7191 Y122.0698
G3 X51.0359 Y122.0837 I-2.8133 J-121.658
G1 X49.6981 Y122.1105
G3 X49.6972 I-0.02 J-0.9998
G1 X44.5086 Y122.2096
G3 X44.5074 Y122.2097 I-0.0191 J-0.9998
G1 X39.9672 Y122.2909
G3 X39.9667 I-0.0179 J-0.9998
G1 X39.8425 Y122.293
G3 X39.8421 I-0.0173 J-0.9998
G1 X35.8849 Y122.36
G3 X35.8842 I-0.0169 J-0.9999
G1 X32.4215 Y122.416
G3 X32.4211 I-0.0162 J-0.9999
G1 X31.6637 Y122.428
G3 X31.6631 I-0.0158 J-0.9999
G1 X25.7929 Y122.5173
G3 X25.7921 I-0.0152 J-0.9999
G1 X21.3893 Y122.5807
G3 X21.389 I-0.0144 J-0.9999
G1 X20.5634 Y122.5923
G1 X20.5633
G1 X19.7894 Y122.6031
G3 X19.7889 I-0.0139 J-0.9999
G1 X17.5223 Y122.6337
G1 X16.0224 Y122.654 Z-2.0
G1 X14.0226 Y122.681
G1 X13.9846 Y122.6815 Z-2.0254
G3 X13.9841 Z-2.0257 I-0.0135 J-0.9999
G1 X12.5227 Y122.7004 Z-3.0
G1 X11.0818 Y122.7191
G3 X11.0815 I-0.013 J-0.9999
G1 X8.1793 Y122.7559
G3 X7.1667 Y121.756 I-0.0127 J-0.9999
G1 Y6.756
G3 X8.1794 Y5.756 I1.0 J0.0
G1 X12.9718 Y5.8172
G3 X12.9723 I-0.0128 J0.9999
G1 X13.5021 Y5.8242
G1 X15.002 Y5.8442 Z-2.0
G1 X17.0018 Y5.8707
G1 X17.4651 Y5.8769 Z-2.3089
G3 X17.4656 Z-2.3092 I-0.0133 J0.9999
G1 X18.5017 Y5.8911 Z-3.0
G1 X19.5716 Y5.9058
G3 X19.572 I-0.0137 J0.9999
G1 X23.6524 Y5.9634
G3 X23.6529 I-0.0141 J0.9999
G1 X27.4782 Y6.0197
G3 X27.4788 I-0.0147 J0.9999
G1 X31.065 Y6.0746
G3 X31.0656 I-0.0153 J0.9999
G1 X34.4276 Y6.1281
G3 X34.4281 I-0.0159 J0.9999
G1 X36.004 Y6.1539
G3 X36.0044 I-0.0164 J0.9999
G1 X37.531 Y6.1794
G3 X43.4485 Y6.2829 I-58.1927 J3496.6412
G3 X43.449 I-0.0183 J0.9998
G1 X48.6251 Y6.3803
G3 X48.626 I-0.0188 J0.9998
G1 X49.7583 Y6.4026
G3 X49.7588 I-0.0197 J0.9998
G1 X51.9526 Y6.4469
G3 X51.953 I-0.0202 J0.9998
G1 X52.9814 Y6.4681
G3 X52.9822 I-0.0206 J0.9998
G1 X56.9646 Y6.5536
G3 X57.4062 Y6.5634 I-0.7265 J42.6634
G1 X59.1199 Y6.6021
G3 X59.1208 I-0.0226 J0.9997
G1 X62.3383 Y6.6778
G3 X62.3392 I-0.0235 J0.9997
G1 X63.7276 Y6.7117
G3 X63.8297 Y6.7137 I0.0147 J1.8654
G3 X63.9315 Y6.7168 I-0.0051 J1.8638
G1 X66.5311 Y6.7827
G3 X66.5314 I-0.0253 J0.9997
G3 X84.8684 Y7.3399 I-49.9975 J1947.4558
G1 X84.8685
G1 X85.546 Y7.3637
G3 X85.5465 I-0.0351 J0.9994
G1 X86.8804 Y7.4113
G3 X86.8811 I-0.0356 J0.9994
G1 X88.1733 Y7.4583
G3 X88.1743 I-0.0363 J0.9993
G1 X90.6639 Y7.5513
G3 X90.7519 Y7.5543 I-0.0283 J2.0923
G3 X90.8396 Y7.558 I-0.043 J2.0913
G1 X93.1635 Y7.6481
G3 X93.1645 I-0.0388 J0.9992
G1 X94.2603 Y7.6918
G3 X94.2614 I-0.0398 J0.9992
G1 X96.3843 Y7.7785
G3 X96.3856 I-0.0408 J0.9992
G1 X98.3758 Y7.8625
G3 X98.3768 I-0.0421 J0.9991
G1 X99.3097 Y7.9028
G3 X99.3102 I-0.0431 J0.9991
G1 X99.7621 Y7.9225
G3 X99.7624 I-0.0436 J0.999
G1 X100.2072 Y7.9421
G3 X100.208 I-0.0439 J0.999
G1 X101.9438 Y8.0198
G3 X102.0628 Y8.0248 I-0.0416 J2.4058
G3 X102.1651 Y8.0295 I-0.0582 J2.4043
G3 X102.2671 Y8.0341 I-0.0586 J2.4032
G3 X102.3845 Y8.0399 I-0.0589 J2.4021
G1 X103.9853 Y8.114
G3 X103.9871 Y8.1141 I-0.0463 J0.9989
G1 X107.0171 Y8.26
G3 X107.0189 Y8.2601 I-0.0481 J0.9988
G1 X108.3444 Y8.3262
G3 X108.3455 Y8.3263 I-0.0498 J0.9988
G1 X109.5881 Y8.3896
G3 X109.5891 Y8.3897 I-0.0509 J0.9987
G1 X110.754 Y8.4502
G3 X110.7555 Y8.4503 I-0.0519 J0.9987
G1 X112.9394 Y8.5671
G3 X112.9402 I-0.0534 J0.9986
G3 X120.5895 Y9.0103 I-56.6163 J1043.4629
G3 X120.5903 Y9.0104 I-0.0615 J0.9981
G1 X122.5003 Y9.1296
G3 X122.5026 Y9.1297 I-0.0623 J0.9981
G1 X125.3671 Y9.315
G3 X125.3692 Y9.3151 I-0.0645 J0.9979
G1 X126.7962 Y9.4103
G3 X126.9819 Y9.4228 I-0.5071 J8.9341
G3 X127.1371 Y9.4333 I-0.5333 J9.0363
G3 X127.4139 Y9.4521 I-0.747 J13.0542
G3 X127.619 Y9.4661 I-0.8265 J13.6363
G3 X128.2382 Y9.5085 I-3.0979 J49.7671
G3 X144.5125 Y10.7476 I-75.3013 J1096.5311
G3 X146.0072 Y10.8736 Z-2.0 I-91.5756 J1095.292
G3 X146.5998 Y10.9241 I-93.0703 J1095.166
G3 X146.6008 Y10.9242 I-0.0852 J0.9964
G1 X147.9998 Y11.0453
G1 X148.8914 Y11.1225 Z-2.5966
G3 X149.4942 Y11.1747 Z-3.0 I-10.8122 J128.3437
G3 X149.8994 Y11.2114 I-11.415 J128.2915
G1 X151.7777 Y11.3798
G3 X151.779 Y11.3799 I-0.0893 J0.996
G1 X152.6013 Y11.4548
G3 X152.6025 Y11.4549 I-0.0907 J0.9959
G1 X154.1438 Y11.5973
G3 X154.145 Y11.5974 I-0.092 J0.9958
G1 X154.8193 Y11.6605
G3 X154.8204 Y11.6606 I-0.0932 J0.9957
G1 X156.0846 Y11.7803
G3 X156.0856 Y11.7804 I-0.0943 J0.9955
G1 X156.6386 Y11.8334
G3 X156.6396 Y11.8335 I-0.0953 J0.9954
G1 X157.6764 Y11.9338
G3 X157.6776 Y11.9339 I-0.0963 J0.9954
G1 X158.5847 Y12.0227
G3 X158.5858 Y12.0228 I-0.0975 J0.9952
G1 X159.3794 Y12.1015
G3 X159.3804 Y12.1016 I-0.0986 J0.9951
G1 X160.0748 Y12.1711
G3 X160.0757 I-0.0996 J0.995
G1 X160.6832 Y12.2325
G3 X160.6852 Y12.2327 I-0.1005 J0.9949
G1 X162.8109 Y12.4517
G3 X162.8143 Y12.452 I-0.1025 J0.9947
G1 X164.9326 Y12.6775
G3 X165.125 Y12.6983 I-0.6352 J6.7867
G3 X165.3122 Y12.7188 I-0.7139 J7.3964
G3 X168.1907 Y13.0406 I-41.5718 J384.8641
G1 X168.5052 Y13.0767
G3 X168.5068 Y13.0769 I-0.1142 J0.9935
G1 X169.7458 Y13.2214
G3 X169.7473 Y13.2216 I-0.1158 J0.9933
G3 X179.0464 Y14.4142 I-55.2371 J467.5351
G3 X179.0478 Y14.4144 I-0.1371 J0.9906
G1 X180.206 Y14.5763
G3 X180.209 Y14.5768 I-0.1385 J0.9904
G1 X182.2349 Y14.8662
G3 X182.2378 Y14.8666 I-0.1414 J0.9899
G1 X183.7566 Y15.0881
G3 X183.7588 Y15.0884 I-0.1443 J0.9895
G1 X186.0363 Y15.4258
G3 X186.0378 Y15.426 I-0.1466 J0.9892
G1 X188.3147 Y15.767
G3 X188.3151 I-0.1481 J0.989
G1 X190.8183 Y16.1428
G3 X190.8189 Y16.1429 I-0.1485 J0.9889
G1 X193.009 Y16.4733
G3 X193.0101 Y16.4734 I-0.1491 J0.9888
G1 X194.9261 Y16.7647
G3 X194.9275 Y16.7649 I-0.1503 J0.9886
G1 X196.6035 Y17.0221
G3 X196.6051 Y17.0224 I-0.1517 J0.9884
G1 X198.0713 Y17.2498
G3 X198.0729 Y17.25 I-0.1533 J0.9882
G1 X199.3555 Y17.4511
G3 X199.3579 Y17.4515 I-0.1549 J0.9879
G1 X201.6017 Y17.8088
G3 X201.604 Y17.8092 I-0.1573 J0.9876
G1 X202.4451 Y17.9452
G3 X202.4465 Y17.9454 I-0.1597 J0.9872
G1 X203.1823 Y18.0655
G3 X203.1835 Y18.0657 I-0.161 J0.987
G1 X203.8272 Y18.1715
G3 X203.8283 Y18.1717 I-0.1622 J0.9868
G1 X204.3914 Y18.2649
G3 X204.3929 Y18.2652 I-0.1633 J0.9866
G1 X205.3781 Y18.4298
G3 X205.3806 Y18.4302 I-0.1648 J0.9863
G1 X206.8578 Y18.681
G3 X206.8611 Y18.6816 I-0.1674 J0.9859
G1 X208.3373 Y18.9373
G3 X208.3405 Y18.9378 I-0.1707 J0.9853
G1 X209.5911 Y19.1585
G3 X209.593 Y19.1589 I-0.1738 J0.9848
G1 X210.179 Y19.2635
G3 X210.1793 I-0.1757 J0.9844
G3 X214.7241 Y20.0923 I-119.5236 J668.2948
G1 X216.4248 Y20.4067
G3 X216.4282 Y20.4074 I-0.1818 J0.9833
G2 X216.7938 Y20.475 I10.4092 J-55.2475
G3 X216.802 Y20.4765 I-0.1786 J0.9839
G2 X217.1526 Y20.5414 I6.6145 J-34.7861
G3 X217.1636 Y20.5434 I-0.1769 J0.9842
G2 X217.5006 Y20.6057 I5.1964 J-27.1692
G3 X217.5058 Y20.6066 I-0.1757 J0.9844
G1 X220.2129 Y21.1045
G3 X220.2219 Y21.1062 I-0.1809 J0.9835
G2 X220.455 Y21.1488 I2.1271 J-10.995
G3 X220.4757 Y21.1525 I-0.1691 J0.9856
G2 X220.7005 Y21.1935 I2.0224 J-10.4633
G3 X220.7214 Y21.1973 I-0.1687 J0.9857
G2 X220.9384 Y21.2368 I1.9277 J-9.9841
G3 X220.9595 Y21.2406 I-0.1682 J0.9857
G2 X221.1688 Y21.2786 I1.8414 J-9.5489
G3 X221.1901 Y21.2825 I-0.1678 J0.9858
G2 X221.3921 Y21.3191 I1.7623 J-9.1513
G3 X221.4135 Y21.3229 I-0.1674 J0.9859
G2 X221.6084 Y21.3582 I1.6894 J-8.7859
G3 X221.6299 Y21.3621 I-0.167 J0.986
G2 X221.8179 Y21.396 I1.6218 J-8.4482
G3 X221.8395 Y21.3999 I-0.1667 J0.986
G2 X222.0209 Y21.4326 I1.559 J-8.135
G3 X222.0425 Y21.4364 I-0.1663 J0.9861
G2 X222.2176 Y21.4679 I1.5003 J-7.8432
G3 X222.2392 Y21.4718 I-0.166 J0.9861
G2 X222.4081 Y21.5021 I1.4454 J-7.5704
G3 X222.4297 Y21.506 I-0.1656 J0.9862
G2 X222.5927 Y21.5352 I1.3938 J-7.3144
G3 X222.6143 Y21.539 I-0.1653 J0.9862
G2 X222.7716 Y21.5671 I1.3452 J-7.0736
G3 X222.793 Y21.571 I-0.165 J0.9863
G2 X222.9448 Y21.598 I1.2993 J-6.8463
G3 X222.9662 Y21.6018 I-0.1647 J0.9863
G2 X223.1127 Y21.6279 I1.2559 J-6.6315
G3 X223.134 Y21.6317 I-0.1644 J0.9864
G2 X223.2753 Y21.6568 I1.2147 J-6.4279
G3 X223.2965 Y21.6606 I-0.1641 J0.9864
G2 X223.4329 Y21.6847 I1.1756 J-6.2343
G3 X223.4539 Y21.6885 I-0.1638 J0.9865
G2 X223.5855 Y21.7117 I1.1384 J-6.05
G3 X223.5984 Y21.714 I-0.1635 J0.9865
G2 X224.7761 Y21.9205 I27.9956 J-156.1867
G3 X224.792 Y21.9234 I-0.169 J0.9856
G2 X224.9865 Y21.9571 I1.2895 J-6.8525
G3 X225.0135 Y21.9618 I-0.1571 J0.9876
G2 X225.1946 Y21.9931 I1.2216 J-6.5226
G3 X225.2058 Y21.995 I-0.1568 J0.9876
G1 X226.7696 Y22.2614
G3 X226.7812 Y22.2635 I-0.168 J0.9858
G2 X226.9482 Y22.2915 I1.0495 J-5.7475
G3 X226.9599 Y22.2934 I-0.151 J0.9885
G1 X228.3294 Y22.5193
G3 X228.3393 Y22.521 I-0.1628 J0.9867
G2 X228.4834 Y22.5443 I0.9881 J-5.637
G3 X228.4945 Y22.5461 I-0.1475 J0.9891
G1 X229.1655 Y22.6539
G1 X229.4897 Y22.7054
G1 X229.8089 Y22.7559
G1 X230.4386 Y22.8545
G1 X230.7429 Y22.9017
G1 X231.9451 Y23.0864
G1 X232.5082 Y23.1719
G1 X233.6009 Y23.3367
G1 X235.6516 Y23.6433
G1 X235.6515
G1 X235.6516
G1 X236.549 Y23.7774
G3 X236.5498 Y23.7775 I-0.1478 J0.989
G1 X238.2324 Y24.0303
G3 X238.2342 Y24.0306 I-0.1486 J0.9889
G1 X239.706 Y24.2545
G3 X239.7078 Y24.2548 I-0.1504 J0.9886
G1 X240.3516 Y24.3539
G3 X240.3534 Y24.3542 I-0.1522 J0.9884
G1 X241.5601 Y24.5423
G3 X241.5607 Y24.5424 I-0.154 J0.9881
G3 X245.7921 Y25.2327 I-50.6338 J323.6746
G3 X245.7936 Y25.233 I-0.1675 J0.9859
G1 X246.8469 Y25.4136
G3 X246.85 Y25.4141 I-0.169 J0.9856
G1 X247.6394 Y25.5521
G3 X247.6413 Y25.5524 I-0.1721 J0.9851
G1 X247.9373 Y25.6047
G3 X247.9396 Y25.6051 I-0.174 J0.9847
G1 X248.975 Y25.7906
G3 X248.9787 Y25.7913 I-0.1763 J0.9843
G1 X250.0134 Y25.9806
G3 X250.0158 Y25.9811 I-0.18 J0.9837
G1 X250.3163 Y26.0368
G3 X250.3189 Y26.0373 I-0.1825 J0.9832
G1 X251.5108 Y26.2617
G3 X251.5145 Y26.2624 I-0.185 J0.9827
G1 X252.6684 Y26.4841
G3 X252.6707 Y26.4845 I-0.1887 J0.982
G1 X253.2294 Y26.5933
G3 X253.2314 Y26.5936 I-0.191 J0.9816
G1 X254.3309 Y26.8099
G3 X254.3321 Y26.8102 I-0.193 J0.9812
G1 X254.3987 Y26.8234
G1 X254.3989
G1 X254.4653 Y26.8366
G3 X254.466 Y26.8367 I-0.1944 J0.9809
G3 X258.711 Y27.6942 I-143.6425 J722.0202
G3 X258.7116 Y27.6943 I-0.2009 J0.9796
G1 X260.5649 Y28.0755
G3 X260.5663 Y28.0758 I-0.2015 J0.9795
G1 X264.0403 Y28.7954
G3 X264.0407 Y28.7955 I-0.2028 J0.9792
G1 X269.0675 Y29.8392
G1 X270.1191 Y30.0575 Z-2.284
G1 X270.5363 Y30.1437 Z-2.0
G1 X272.495 Y30.5481
G1 X273.964 Y30.8514 Z-3.0
G1 X274.6783 Y30.9989
G1 X275.533 Y31.1746
G1 X275.9335 Y31.2568
G1 X279.0403 Y31.8925
G2 X281.3694 Y32.3664 I287.6141 J-1407.63
G1 X284.8659 Y33.0734
G1 X288.3635 Y33.7755
G3 X289.1667 Y34.756 I-0.1968 J0.9804
G1 Y93.756
G3 X288.3633 Y94.7364 I-1.0 J0.0
G1 X285.9662 Y95.2171
G2 X276.9857 Y97.0394 I413.5976 J2061.2919
G1 X273.6186 Y97.7311
G1 X271.348 Y98.2002
G1 X270.6734 Y98.3395 Z-2.5408
G1 X269.8792 Y98.5042 Z-2.0
G1 X268.0965 Y98.8738
G1 X267.9208 Y98.9103
G1 X266.4522 Y99.2154 Z-3.0
G1 X263.5865 Y99.8107
G3 X263.5861 Y99.8108 I-0.2034 J-0.9791
G1 X261.8946 Y100.1615
G3 X261.894 Y100.1616 I-0.203 J-0.9792
G1 X260.4138 Y100.4676
G3 X260.4123 Y100.4679 I-0.2024 J-0.9793
G1 X257.8212 Y100.9996
G3 X257.8187 Y101.0001 I-0.201 J-0.9796
G1 X255.8744 Y101.3939
G3 X255.8717 Y101.3944 I-0.1985 J-0.9801
G1 X254.4126 Y101.6858
G3 X254.4106 Y101.6862 I-0.1958 J-0.9806
G1 X253.8632 Y101.7943
G3 X253.8621 Y101.7946 I-0.1938 J-0.981
G1 X253.383 Y101.8886
G3 X253.3814 Y101.8889 I-0.1927 J-0.9813
G1 X252.5427 Y102.0522
G3 X250.0145 Y102.5311 I-49.0432 J-251.9847
G3 X250.0128 Y102.5314 I-0.1812 J-0.9834
G1 X248.6637 Y102.7775
G3 X248.6607 Y102.778 I-0.1795 J-0.9838
G1 X248.3443 Y102.8348
G3 X248.3416 Y102.8353 I-0.1765 J-0.9843
G1 X247.0952 Y103.0552
G3 X247.0931 Y103.0555 I-0.1737 J-0.9848
G3 X245.9198 Y103.2575 I-51.5934 J-296.2285
G3 X245.9181 Y103.2578 I-0.1677 J-0.9858
G1 X244.8212 Y103.4424
G3 X244.818 Y103.4429 I-0.166 J-0.9861
G1 X243.789 Y103.6126
G3 X243.7868 Y103.6129 I-0.1627 J-0.9867
G1 X243.3043 Y103.6914
G3 X243.3024 Y103.6917 I-0.1605 J-0.987
G1 X242.3673 Y103.8418
G3 X242.3658 Y103.8421 I-0.1586 J-0.9874
G1 X242.1466 Y103.8769
G3 X242.146 Y103.877 I-0.1571 J-0.9876
G1 X241.9302 Y103.9112
G3 X241.9289 Y103.9114 I-0.1565 J-0.9877
G1 X241.079 Y104.045
G3 X241.0772 Y104.0453 I-0.1552 J-0.9879
G1 X240.2802 Y104.169
G3 X240.2787 Y104.1693 I-0.1534 J-0.9882
G1 X239.5435 Y104.2823
G3 X239.4736 Y104.293 I-0.2891 J-1.6564
G1 X238.0894 Y104.5032
G3 X238.0875 Y104.5035 I-0.1502 J-0.9887
G1 X235.6433 Y104.8698
G3 X235.6427 Y104.8699 I-0.1482 J-0.989
G1 X235.1844 Y104.9383
G3 X235.184 Y104.9384 I-0.1477 J-0.989
G2 X231.7516 Y105.455 I161.2136 J1082.7609
G1 X230.0372 Y105.7202
G1 X229.1821 Y105.8554
G1 X228.3269 Y105.993
G1 X227.7025 Y106.0952
G1 X227.0981 Y106.1954
G1 X225.926 Y106.3933
G1 X224.8276 Y106.5825
G1 X224.3133 Y106.6722
G1 X223.8155 Y106.7596
G1 X221.8824 Y107.1043
G1 X221.0378 Y107.2571
G1 X220.2456 Y107.4014
G1 X218.7596 Y107.674
G1 X217.4593 Y107.9139
G1 X216.3231 Y108.124
G3 X215.8243 Y108.2163 I-12.1876 J-64.4817
G3 X215.3568 Y108.3027 I-7.2797 J-38.0569
G3 X214.9187 Y108.3837 I-5.6585 J-29.3958
G3 X214.508 Y108.4595 I-4.7654 J-24.6651
G3 X214.1229 Y108.5305 I-4.1736 J-21.5577
G3 X213.7618 Y108.597 I-3.7411 J-19.3066
G3 X213.4233 Y108.6592 I-3.4051 J-17.5722
G3 X213.1059 Y108.7174 I-3.1332 J-16.1791
G3 X212.8083 Y108.772 I-2.9065 J-15.025
G3 X212.5241 Y108.8239 I-2.7131 J-14.0466
G3 X208.3399 Y109.5742 I-115.6135 J-632.7156
G3 X208.3392 Y109.5743 I-0.1732 J-0.9849
G3 X205.8386 Y110.0044 I-71.167 J-406.2503
G3 X201.4599 Y110.7259 I-89.507 J-529.5808
G3 X201.4589 Y110.726 I-0.1585 J-0.9874
G1 X199.8185 Y110.9877
G3 X199.8164 Y110.988 I-0.1575 J-0.9875
G1 X198.3806 Y111.2138
G3 X198.3782 Y111.2142 I-0.1554 J-0.9879
G1 X195.8647 Y111.6035
G3 X195.8626 Y111.6038 I-0.1531 J-0.9882
G1 X193.9768 Y111.8918
G3 X193.9753 Y111.8921 I-0.151 J-0.9885
G1 X191.1484 Y112.3194
G3 X190.7911 Y112.3732 I-4.8627 J-31.0989
G3 X190.4823 Y112.4196 I-4.8364 J-31.1196
G3 X189.9393 Y112.5012 I-7.0558 J-45.1209
G3 X189.5337 Y112.562 I-6.9894 J-45.1777
G3 X188.9234 Y112.6536 I-10.6069 J-68.6113
G3 X188.3135 Y112.7451 I-18.1939 J-119.2161
G1 X185.4047 Y113.1802
G3 X185.4036 Y113.1803 I-0.1479 J-0.989
G1 X184.7669 Y113.2748
G3 X184.7659 Y113.275 I-0.1468 J-0.9892
G1 X183.5322 Y113.4568
G3 X183.5314 Y113.4569 I-0.1458 J-0.9893
G1 X183.3872 Y113.478
G3 X174.1763 Y114.7466 I-72.2098 J-490.2319
G3 X174.1746 Y114.7468 I-0.1271 J-0.9919
G1 X173.0239 Y114.8923
G3 X173.022 Y114.8925 I-0.1254 J-0.9921
G3 X164.9411 Y115.8335 I-63.3932 J-509.2552
G3 X164.9405 I-0.1078 J-0.9942
G1 X164.3687 Y115.8952
G3 X164.3672 Y115.8953 I-0.1072 J-0.9942
G1 X163.2414 Y116.015
G3 X163.2387 Y116.0153 I-0.1057 J-0.9944
G1 X161.0567 Y116.2414
G3 X161.0547 Y116.2416 I-0.1031 J-0.9947
G1 X160.5432 Y116.2936
G3 X160.5423 Y116.2937 I-0.1011 J-0.9949
G3 X157.0616 Y116.6372 I-88.5536 J-879.4858
G1 F20.0 Z-4.0
G3 F150.0 X152.4728 Y117.0688 I-85.0729 J-879.8293
G3 X152.4719 Y117.0689 I-0.0911 J-0.9958
G1 X151.6102 Y117.147
G1 X150.9598 Y117.2059 Z-3.1293
G3 X150.9586 Y117.206 Z-3.1277 I-0.0902 J-0.9959
G3 X150.1162 Y117.2809 Z-2.0 I-101.3297 J-1134.2986
G3 X148.1238 Y117.4556 I-100.4873 J-1134.3736
G3 X146.6294 Y117.5844 Z-4.0 I-98.495 J-1134.5483
G3 X139.6018 Y118.1632 I-97.0005 J-1134.6771
G3 X139.6013 Y118.1633 I-0.079 J-0.9969
G1 X138.8918 Y118.2191
G3 X138.8903 Y118.2193 I-0.0785 J-0.9969
G1 X136.2293 Y118.4247
G3 X136.2277 Y118.4248 I-0.077 J-0.997
G1 X135.2297 Y118.5003
G3 X135.2291 I-0.0754 J-0.9972
G1 X134.7924 Y118.533
G3 X134.792 Y118.5331 I-0.0747 J-0.9972
G1 X134.3826 Y118.5636
G3 X134.3817 I-0.0743 J-0.9972
G1 X132.8466 Y118.6767
G3 X132.8458 Y118.6768 I-0.0735 J-0.9973
G1 X132.5579 Y118.6978
G3 X132.5568 Y118.6979 I-0.0727 J-0.9974
G1 X130.3976 Y118.8528
G3 X130.3957 Y118.8529 I-0.0716 J-0.9974
G1 X128.2363 Y119.0035
G3 X128.2346 Y119.0036 I-0.0696 J-0.9976
G1 X126.8819 Y119.0958
G3 X126.88 Y119.0959 I-0.068 J-0.9977
G1 X124.2586 Y119.2695
G3 X124.2572 Y119.2696 I-0.0661 J-0.9978
G1 X123.95 Y119.2895
G3 X123.9487 Y119.2896 I-0.0647 J-0.9979
G1 X121.5099 Y119.4446
G3 X121.5082 Y119.4447 I-0.0634 J-0.998
G1 X120.365 Y119.5154
G3 X120.3634 Y119.5155 I-0.0617 J-0.9981
G1 X118.1481 Y119.6489
G3 X118.1466 Y119.649 I-0.0601 J-0.9982
G1 X117.108 Y119.71
G3 X117.1073 Y119.7101 I-0.0586 J-0.9983
G3 X100.99 Y120.5351 I-68.6108 J-1182.5564
G3 X100.9896 I-0.0443 J-0.999
G1 X98.9759 Y120.6236
G3 X98.9746 Y120.6237 I-0.0439 J-0.999
G1 X97.2126 Y120.6988
G3 X97.211 Y120.6989 I-0.0426 J-0.9991
G1 X94.1271 Y120.8255
G3 X94.126 I-0.041 J-0.9992
G1 X93.5477 Y120.8486
G3 X93.5472 I-0.0399 J-0.9992
G1 X92.4629 Y120.8913
G3 X92.4623 I-0.0394 J-0.9992
G1 X91.5135 Y120.9281
G3 X91.5123 Y120.9282 I-0.0388 J-0.9992
G1 X88.1917 Y121.053
G3 X88.1907 I-0.0375 J-0.9993
G1 X87.9831 Y121.0606
G3 X87.9823 I-0.0366 J-0.9993
G1 X84.8691 Y121.172
G3 X84.868 I-0.0357 J-0.9994
G1 X83.6705 Y121.2136
G3 X83.6699 I-0.0347 J-0.9994
G1 X82.4911 Y121.2538
G3 X82.4905 I-0.0341 J-0.9994
G1 X81.3301 Y121.2928
G3 X81.3295 I-0.0335 J-0.9994
G1 X80.1872 Y121.3304
G3 X80.1866 I-0.0329 J-0.9995
G1 X79.0621 Y121.3668
G3 X79.0617 I-0.0323 J-0.9995
G1 X78.5082 Y121.3845
G3 X78.5075 I-0.0319 J-0.9995
G1 X76.3109 Y121.4531
G3 X76.3102 I-0.0312 J-0.9995
G1 X75.7782 Y121.4694
G3 X75.7778 I-0.0305 J-0.9995
G1 X74.7221 Y121.5012
G3 X74.7215 I-0.0301 J-0.9995
G1 X73.6823 Y121.5319
G3 X73.6819 I-0.0296 J-0.9996
G1 X73.1704 Y121.5469
G3 X73.1701 I-0.0292 J-0.9996
G1 X72.6626 Y121.5616
G3 X72.6615 I-0.0289 J-0.9996
G1 X68.6334 Y121.6737
G3 X66.7421 Y121.7237 I-13.9296 J-490.9892
G1 X66.2854 Y121.7355
G3 X66.2845 Y121.7356 I-0.0259 J-0.9997
G1 X62.6543 Y121.8265
G3 X62.6528 I-0.025 J-0.9997
G1 X59.2494 Y121.9068
G3 X59.2484 Y121.9069 I-0.0236 J-0.9997
G1 X57.653 Y121.943
G3 X57.6522 I-0.0227 J-0.9997
G1 X54.561 Y122.0105
G3 X54.5603 I-0.0218 J-0.9998
G1 X53.1112 Y122.0411
G3 X53.1109 I-0.0211 J-0.9998
G1 X52.409 Y122.0557
G3 X52.4087 I-0.0207 J-0.9998
G1 X51.7191 Y122.0698
G3 X51.0359 Y122.0837 I-2.8133 J-121.658
G1 X49.6981 Y122.1105
G3 X49.6972 I-0.02 J-0.9998
G1 X44.5086 Y122.2096
G3 X44.5074 Y122.2097 I-0.0191 J-0.9998
G1 X39.9672 Y122.2909
G3 X39.9667 I-0.0179 J-0.9998
G1 X39.8425 Y122.293
G3 X39.8421 I-0.0173 J-0.9998
G1 X35.8849 Y122.36
G3 X35.8842 I-0.0169 J-0.9999
G1 X32.4215 Y122.416
G3 X32.4211 I-0.0162 J-0.9999
G1 X31.6637 Y122.428
G3 X31.6631 I-0.0158 J-0.9999
G1 X25.7929 Y122.5173
G3 X25.7921 I-0.0152 J-0.9999
G1 X21.3893 Y122.5807
G3 X21.389 I-0.0144 J-0.9999
G1 X20.5634 Y122.5923
G1 X20.5633
G1 X19.7894 Y122.6031
G3 X19.7889 I-0.0139 J-0.9999
G1 X17.5223 Y122.6337
G1 X16.0224 Y122.654 Z-2.0
G1 X14.0226 Y122.681
G1 X13.9846 Y122.6815 Z-2.0507
G3 X13.9841 Z-2.0514 I-0.0135 J-0.9999
G1 X12.5227 Y122.7004 Z-4.0
G1 X11.0818 Y122.7191
G3 X11.0815 I-0.013 J-0.9999
G1 X8.1793 Y122.7559
G3 X7.1667 Y121.756 I-0.0127 J-0.9999
G1 Y6.756
G3 X8.1794 Y5.756 I1.0 J0.0
G1 X12.9718 Y5.8172
G3 X12.9723 I-0.0128 J0.9999
G1 X13.5021 Y5.8242
G1 X15.002 Y5.8442 Z-2.0
G1 X17.0018 Y5.8707
G1 X17.4651 Y5.8769 Z-2.6178
G3 X17.4656 Z-2.6184 I-0.0133 J0.9999
G1 X18.5017 Y5.8911 Z-4.0
G1 X19.5716 Y5.9058
G3 X19.572 I-0.0137 J0.9999
G1 X23.6524 Y5.9634
G3 X23.6529 I-0.0141 J0.9999
G1 X27.4782 Y6.0197
G3 X27.4788 I-0.0147 J0.9999
G1 X31.065 Y6.0746
G3 X31.0656 I-0.0153 J0.9999
G1 X34.4276 Y6.1281
G3 X34.4281 I-0.0159 J0.9999
G1 X36.004 Y6.1539
G3 X36.0044 I-0.0164 J0.9999
G1 X37.531 Y6.1794
G3 X43.4485 Y6.2829 I-58.1927 J3496.6412
G3 X43.449 I-0.0183 J0.9998
G1 X48.6251 Y6.3803
G3 X48.626 I-0.0188 J0.9998
G1 X49.7583 Y6.4026
G3 X49.7588 I-0.0197 J0.9998
G1 X51.9526 Y6.4469
G3 X51.953 I-0.0202 J0.9998
G1 X52.9814 Y6.4681
G3 X52.9822 I-0.0206 J0.9998
G1 X56.9646 Y6.5536
G3 X57.4062 Y6.5634 I-0.7265 J42.6634
G1 X59.1199 Y6.6021
G3 X59.1208 I-0.0226 J0.9997
G1 X62.3383 Y6.6778
G3 X62.3392 I-0.0235 J0.9997
G1 X63.7276 Y6.7117
G3 X63.8297 Y6.7137 I0.0147 J1.8654
G3 X63.9315 Y6.7168 I-0.0051 J1.8638
G1 X66.5311 Y6.7827
G3 X66.5314 I-0.0253 J0.9997
G3 X84.8684 Y7.3399 I-49.9975 J1947.4558
G1 X84.8685
G1 X85.546 Y7.3637
G3 X85.5465 I-0.0351 J0.9994
G1 X86.8804 Y7.4113
G3 X86.8811 I-0.0356 J0.9994
G1 X88.1733 Y7.4583
G3 X88.1743 I-0.0363 J0.9993
G1 X90.6639 Y7.5513
G3 X90.7519 Y7.5543 I-0.0283 J2.0923
G3 X90.8396 Y7.558 I-0.043 J2.0913
G1 X93.1635 Y7.6481
G3 X93.1645 I-0.0388 J0.9992
G1 X94.2603 Y7.6918
G3 X94.2614 I-0.0398 J0.9992
G1 X96.3843 Y7.7785
G3 X96.3856 I-0.0408 J0.9992
G1 X98.3758 Y7.8625
G3 X98.3768 I-0.0421 J0.9991
G1 X99.3097 Y7.9028
G3 X99.3102 I-0.0431 J0.9991
G1 X99.7621 Y7.9225
G3 X99.7624 I-0.0436 J0.999
G1 X100.2072 Y7.9421
G3 X100.208 I-0.0439 J0.999
G1 X101.9438 Y8.0198
G3 X102.0628 Y8.0248 I-0.0416 J2.4058
G3 X102.1651 Y8.0295 I-0.0582 J2.4043
G3 X102.2671 Y8.0341 I-0.0586 J2.4032
G3 X102.3845 Y8.0399 I-0.0589 J2.4021
G1 X103.9853 Y8.114
G3 X103.9871 Y8.1141 I-0.0463 J0.9989
G1 X107.0171 Y8.26
G3 X107.0189 Y8.2601 I-0.0481 J0.9988
G1 X108.3444 Y8.3262
G3 X108.3455 Y8.3263 I-0.0498 J0.9988
G1 X109.5881 Y8.3896
G3 X109.5891 Y8.3897 I-0.0509 J0.9987
G1 X110.754 Y8.4502
G3 X110.7555 Y8.4503 I-0.0519 J0.9987
G1 X112.9394 Y8.5671
G3 X112.9402 I-0.0534 J0.9986
G3 X120.5895 Y9.0103 I-56.6163 J1043.4629
G3 X120.5903 Y9.0104 I-0.0615 J0.9981
G1 X122.5003 Y9.1296
G3 X122.5026 Y9.1297 I-0.0623 J0.9981
G1 X125.3671 Y9.315
G3 X125.3692 Y9.3151 I-0.0645 J0.9979
G1 X126.7962 Y9.4103
G3 X126.9819 Y9.4228 I-0.5071 J8.9341
G3 X127.1371 Y9.4333 I-0.5333 J9.0363
G3 X127.4139 Y9.4521 I-0.747 J13.0542
G3 X127.619 Y9.4661 I-0.8265 J13.6363
G3 X128.2382 Y9.5085 I-3.0979 J49.7671
G3 X144.5125 Y10.7476 I-75.3013 J1096.5311
G3 X146.0072 Y10.8736 Z-2.0 I-91.5756 J1095.292
G3 X146.5998 Y10.9241 I-93.0703 J1095.166
G3 X146.6008 Y10.9242 I-0.0852 J0.9964
G1 X147.9998 Y11.0453
G1 X148.8914 Y11.1225 Z-3.1933
G3 X149.4942 Y11.1747 Z-4.0 I-10.8122 J128.3437
G3 X149.8994 Y11.2114 I-11.415 J128.2915
G1 X151.7777 Y11.3798
G3 X151.779 Y11.3799 I-0.0893 J0.996
G1 X152.6013 Y11.4548
G3 X152.6025 Y11.4549 I-0.0907 J0.9959
G1 X154.1438 Y11.5973
G3 X154.145 Y11.5974 I-0.092 J0.9958
G1 X154.8193 Y11.6605
G3 X154.8204 Y11.6606 I-0.0932 J0.9957
G1 X156.0846 Y11.7803
G3 X156.0856 Y11.7804 I-0.0943 J0.9955
G1 X156.6386 Y11.8334
G3 X156.6396 Y11.8335 I-0.0953 J0.9954
G1 X157.6764 Y11.9338
G3 X157.6776 Y11.9339 I-0.0963 J0.9954
G1 X158.5847 Y12.0227
G3 X158.5858 Y12.0228 I-0.0975 J0.9952
G1 X159.3794 Y12.1015
G3 X159.3804 Y12.1016 I-0.0986 J0.9951
G1 X160.0748 Y12.1711
G3 X160.0757 I-0.0996 J0.995
G1 X160.6832 Y12.2325
G3 X160.6852 Y12.2327 I-0.1005 J0.9949
G1 X162.8109 Y12.4517
G3 X162.8143 Y12.452 I-0.1025 J0.9947
G1 X164.9326 Y12.6775
G3 X165.125 Y12.6983 I-0.6352 J6.7867
G3 X165.3122 Y12.7188 I-0.7139 J7.3964
G3 X168.1907 Y13.0406 I-41.5718 J384.8641
G1 X168.5052 Y13.0767
G3 X168.5068 Y13.0769 I-0.1142 J0.9935
G1 X169.7458 Y13.2214
G3 X169.7473 Y13.2216 I-0.1158 J0.9933
G3 X179.0464 Y14.4142 I-55.2371 J467.5351
G3 X179.0478 Y14.4144 I-0.1371 J0.9906
G1 X180.206 Y14.5763
G3 X180.209 Y14.5768 I-0.1385 J0.9904
G1 X182.2349 Y14.8662
G3 X182.2378 Y14.8666 I-0.1414 J0.9899
G1 X183.7566 Y15.0881
G3 X183.7588 Y15.0884 I-0.1443 J0.9895
G1 X186.0363 Y15.4258
G3 X186.0378 Y15.426 I-0.1466 J0.9892
G1 X188.3147 Y15.767
G3 X188.3151 I-0.1481 J0.989
G1 X190.8183 Y16.1428
G3 X190.8189 Y16.1429 I-0.1485 J0.9889
G1 X193.009 Y16.4733
G3 X193.0101 Y16.4734 I-0.1491 J0.9888
G1 X194.9261 Y16.7647
G3 X194.9275 Y16.7649 I-0.1503 J0.9886
G1 X196.6035 Y17.0221
G3 X196.6051 Y17.0224 I-0.1517 J0.9884
G1 X198.0713 Y17.2498
G3 X198.0729 Y17.25 I-0.1533 J0.9882
G1 X199.3555 Y17.4511
G3 X199.3579 Y17.4515 I-0.1549 J0.9879
G1 X201.6017 Y17.8088
G3 X201.604 Y17.8092 I-0.1573 J0.9876
G1 X202.4451 Y17.9452
G3 X202.4465 Y17.9454 I-0.1597 J0.9872
G1 X203.1823 Y18.0655
G3 X203.1835 Y18.0657 I-0.161 J0.987
G1 X203.8272 Y18.1715
G3 X203.8283 Y18.1717 I-0.1622 J0.9868
G1 X204.3914 Y18.2649
G3 X204.3929 Y18.2652 I-0.1633 J0.9866
G1 X205.3781 Y18.4298
G3 X205.3806 Y18.4302 I-0.1648 J0.9863
G1 X206.8578 Y18.681
G3 X206.8611 Y18.6816 I-0.1674 J0.9859
G1 X208.3373 Y18.9373
G3 X208.3405 Y18.9378 I-0.1707 J0.9853
G1 X209.5911 Y19.1585
G3 X209.593 Y19.1589 I-0.1738 J0.9848
G1 X210.179 Y19.2635
G3 X210.1793 I-0.1757 J0.9844
G3 X214.7241 Y20.0923 I-119.5236 J668.2948
G1 X216.4248 Y20.4067
G3 X216.4282 Y20.4074 I-0.1818 J0.9833
G2 X216.7938 Y20.475 I10.4092 J-55.2475
G3 X216.802 Y20.4765 I-0.1786 J0.9839
G2 X217.1526 Y20.5414 I6.6145 J-34.7861
G3 X217.1636 Y20.5434 I-0.1769 J0.9842
G2 X217.5006 Y20.6057 I5.1964 J-27.1692
G3 X217.5058 Y20.6066 I-0.1757 J0.9844
G1 X220.2129 Y21.1045
G3 X220.2219 Y21.1062 I-0.1809 J0.9835
G2 X220.455 Y21.1488 I2.1271 J-10.995
G3 X220.4757 Y21.1525 I-0.1691 J0.9856
G2 X220.7005 Y21.1935 I2.0224 J-10.4633
G3 X220.7214 Y21.1973 I-0.1687 J0.9857
G2 X220.9384 Y21.2368 I1.9277 J-9.9841
G3 X220.9595 Y21.2406 I-0.1682 J0.9857
G2 X221.1688 Y21.2786 I1.8414 J-9.5489
G3 X221.1901 Y21.2825 I-0.1678 J0.9858
G2 X221.3921 Y21.3191 I1.7623 J-9.1513
G3 X221.4135 Y21.3229 I-0.1674 J0.9859
G2 X221.6084 Y21.3582 I1.6894 J-8.7859
G3 X221.6299 Y21.3621 I-0.167 J0.986
G2 X221.8179 Y21.396 I1.6218 J-8.4482
G3 X221.8395 Y21.3999 I-0.1667 J0.986
G2 X222.0209 Y21.4326 I1.559 J-8.135
G3 X222.0425 Y21.4364 I-0.1663 J0.9861
G2 X222.2176 Y21.4679 I1.5003 J-7.8432
G3 X222.2392 Y21.4718 I-0.166 J0.9861
G2 X222.4081 Y21.5021 I1.4454 J-7.5704
G3 X222.4297 Y21.506 I-0.1656 J0.9862
G2 X222.5927 Y21.5352 I1.3938 J-7.3144
G3 X222.6143 Y21.539 I-0.1653 J0.9862
G2 X222.7716 Y21.5671 I1.3452 J-7.0736
G3 X222.793 Y21.571 I-0.165 J0.9863
G2 X222.9448 Y21.598 I1.2993 J-6.8463
G3 X222.9662 Y21.6018 I-0.1647 J0.9863
G2 X223.1127 Y21.6279 I1.2559 J-6.6315
G3 X223.134 Y21.6317 I-0.1644 J0.9864
G2 X223.2753 Y21.6568 I1.2147 J-6.4279
G3 X223.2965 Y21.6606 I-0.1641 J0.9864
G2 X223.4329 Y21.6847 I1.1756 J-6.2343
G3 X223.4539 Y21.6885 I-0.1638 J0.9865
G2 X223.5855 Y21.7117 I1.1384 J-6.05
G3 X223.5984 Y21.714 I-0.1635 J0.9865
G2 X224.7761 Y21.9205 I27.9956 J-156.1867
G3 X224.792 Y21.9234 I-0.169 J0.9856
G2 X224.9865 Y21.9571 I1.2895 J-6.8525
G3 X225.0135 Y21.9618 I-0.1571 J0.9876
G2 X225.1946 Y21.9931 I1.2216 J-6.5226
G3 X225.2058 Y21.995 I-0.1568 J0.9876
G1 X226.7696 Y22.2614
G3 X226.7812 Y22.2635 I-0.168 J0.9858
G2 X226.9482 Y22.2915 I1.0495 J-5.7475
G3 X226.9599 Y22.2934 I-0.151 J0.9885
G1 X228.3294 Y22.5193
G3 X228.3393 Y22.521 I-0.1628 J0.9867
G2 X228.4834 Y22.5443 I0.9881 J-5.637
G3 X228.4945 Y22.5461 I-0.1475 J0.9891
G1 X229.1655 Y22.6539
G1 X229.4897 Y22.7054
G1 X229.8089 Y22.7559
G1 X230.4386 Y22.8545
G1 X230.7429 Y22.9017
G1 X231.9451 Y23.0864
G1 X232.5082 Y23.1719
G1 X233.6009 Y23.3367
G1 X235.6516 Y23.6433
G1 X235.6515
G1 X235.6516
G1 X236.549 Y23.7774
G3 X236.5498 Y23.7775 I-0.1478 J0.989
G1 X238.2324 Y24.0303
G3 X238.2342 Y24.0306 I-0.1486 J0.9889
G1 X239.706 Y24.2545
G3 X239.7078 Y24.2548 I-0.1504 J0.9886
G1 X240.3516 Y24.3539
G3 X240.3534 Y24.3542 I-0.1522 J0.9884
G1 X241.5601 Y24.5423
G3 X241.5607 Y24.5424 I-0.154 J0.9881
G3 X245.7921 Y25.2327 I-50.6338 J323.6746
G3 X245.7936 Y25.233 I-0.1675 J0.9859
G1 X246.8469 Y25.4136
G3 X246.85 Y25.4141 I-0.169 J0.9856
G1 X247.6394 Y25.5521
G3 X247.6413 Y25.5524 I-0.1721 J0.9851
G1 X247.9373 Y25.6047
G3 X247.9396 Y25.6051 I-0.174 J0.9847
G1 X248.975 Y25.7906
G3 X248.9787 Y25.7913 I-0.1763 J0.9843
G1 X250.0134 Y25.9806
G3 X250.0158 Y25.9811 I-0.18 J0.9837
G1 X250.3163 Y26.0368
G3 X250.3189 Y26.0373 I-0.1825 J0.9832
G1 X251.5108 Y26.2617
G3 X251.5145 Y26.2624 I-0.185 J0.9827
G1 X252.6684 Y26.4841
G3 X252.6707 Y26.4845 I-0.1887 J0.982
G1 X253.2294 Y26.5933
G3 X253.2314 Y26.5936 I-0.191 J0.9816
G1 X254.3309 Y26.8099
G3 X254.3321 Y26.8102 I-0.193 J0.9812
G1 X254.3987 Y26.8234
G1 X254.3989
G1 X254.4653 Y26.8366
G3 X254.466 Y26.8367 I-0.1944 J0.9809
G3 X258.711 Y27.6942 I-143.6425 J722.0202
G3 X258.7116 Y27.6943 I-0.2009 J0.9796
G1 X260.5649 Y28.0755
G3 X260.5663 Y28.0758 I-0.2015 J0.9795
G1 X264.0403 Y28.7954
G3 X264.0407 Y28.7955 I-0.2028 J0.9792
G1 X269.0675 Y29.8392
G1 X270.1191 Y30.0575 Z-2.568
G1 X270.5363 Y30.1437 Z-2.0
G1 X272.495 Y30.5481
G1 X273.964 Y30.8514 Z-4.0
G1 X274.6783 Y30.9989
G1 X275.533 Y31.1746
G1 X275.9335 Y31.2568
G1 X279.0403 Y31.8925
G2 X281.3694 Y32.3664 I287.6141 J-1407.63
G1 X284.8659 Y33.0734
G1 X288.3635 Y33.7755
G3 X289.1667 Y34.756 I-0.1968 J0.9804
G1 Y93.756
G3 X288.3633 Y94.7364 I-1.0 J0.0
G1 X285.9662 Y95.2171
G2 X276.9857 Y97.0394 I413.5976 J2061.2919
G1 X273.6186 Y97.7311
G1 X271.348 Y98.2002
G1 X270.6734 Y98.3395 Z-3.0816
G1 X269.8792 Y98.5042 Z-2.0
G1 X268.0965 Y98.8738
G1 X267.9208 Y98.9103
G1 X266.4522 Y99.2154 Z-4.0
G1 X263.5865 Y99.8107
G3 X263.5861 Y99.8108 I-0.2034 J-0.9791
G1 X261.8946 Y100.1615
G3 X261.894 Y100.1616 I-0.203 J-0.9792
G1 X260.4138 Y100.4676
G3 X260.4123 Y100.4679 I-0.2024 J-0.9793
G1 X257.8212 Y100.9996
G3 X257.8187 Y101.0001 I-0.201 J-0.9796
G1 X255.8744 Y101.3939
G3 X255.8717 Y101.3944 I-0.1985 J-0.9801
G1 X254.4126 Y101.6858
G3 X254.4106 Y101.6862 I-0.1958 J-0.9806
G1 X253.8632 Y101.7943
G3 X253.8621 Y101.7946 I-0.1938 J-0.981
G1 X253.383 Y101.8886
G3 X253.3814 Y101.8889 I-0.1927 J-0.9813
G1 X252.5427 Y102.0522
G3 X250.0145 Y102.5311 I-49.0432 J-251.9847
G3 X250.0128 Y102.5314 I-0.1812 J-0.9834
G1 X248.6637 Y102.7775
G3 X248.6607 Y102.778 I-0.1795 J-0.9838
G1 X248.3443 Y102.8348
G3 X248.3416 Y102.8353 I-0.1765 J-0.9843
G1 X247.0952 Y103.0552
G3 X247.0931 Y103.0555 I-0.1737 J-0.9848
G3 X245.9198 Y103.2575 I-51.5934 J-296.2285
G3 X245.9181 Y103.2578 I-0.1677 J-0.9858
G1 X244.8212 Y103.4424
G3 X244.818 Y103.4429 I-0.166 J-0.9861
G1 X243.789 Y103.6126
G3 X243.7868 Y103.6129 I-0.1627 J-0.9867
G1 X243.3043 Y103.6914
G3 X243.3024 Y103.6917 I-0.1605 J-0.987
G1 X242.3673 Y103.8418
G3 X242.3658 Y103.8421 I-0.1586 J-0.9874
G1 X242.1466 Y103.8769
G3 X242.146 Y103.877 I-0.1571 J-0.9876
G1 X241.9302 Y103.9112
G3 X241.9289 Y103.9114 I-0.1565 J-0.9877
G1 X241.079 Y104.045
G3 X241.0772 Y104.0453 I-0.1552 J-0.9879
G1 X240.2802 Y104.169
G3 X240.2787 Y104.1693 I-0.1534 J-0.9882
G1 X239.5435 Y104.2823
G3 X239.4736 Y104.293 I-0.2891 J-1.6564
G1 X238.0894 Y104.5032
G3 X238.0875 Y104.5035 I-0.1502 J-0.9887
G1 X235.6433 Y104.8698
G3 X235.6427 Y104.8699 I-0.1482 J-0.989
G1 X235.1844 Y104.9383
G3 X235.184 Y104.9384 I-0.1477 J-0.989
G2 X231.7516 Y105.455 I161.2136 J1082.7609
G1 X230.0372 Y105.7202
G1 X229.1821 Y105.8554
G1 X228.3269 Y105.993
G1 X227.7025 Y106.0952
G1 X227.0981 Y106.1954
G1 X225.926 Y106.3933
G1 X224.8276 Y106.5825
G1 X224.3133 Y106.6722
G1 X223.8155 Y106.7596
G1 X221.8824 Y107.1043
G1 X221.0378 Y107.2571
G1 X220.2456 Y107.4014
G1 X218.7596 Y107.674
G1 X217.4593 Y107.9139
G1 X216.3231 Y108.124
G3 X215.8243 Y108.2163 I-12.1876 J-64.4817
G3 X215.3568 Y108.3027 I-7.2797 J-38.0569
G3 X214.9187 Y108.3837 I-5.6585 J-29.3958
G3 X214.508 Y108.4595 I-4.7654 J-24.6651
G3 X214.1229 Y108.5305 I-4.1736 J-21.5577
G3 X213.7618 Y108.597 I-3.7411 J-19.3066
G3 X213.4233 Y108.6592 I-3.4051 J-17.5722
G3 X213.1059 Y108.7174 I-3.1332 J-16.1791
G3 X212.8083 Y108.772 I-2.9065 J-15.025
G3 X212.5241 Y108.8239 I-2.7131 J-14.0466
G3 X208.3399 Y109.5742 I-115.6135 J-632.7156
G3 X208.3392 Y109.5743 I-0.1732 J-0.9849
G3 X205.8386 Y110.0044 I-71.167 J-406.2503
G3 X201.4599 Y110.7259 I-89.507 J-529.5808
G3 X201.4589 Y110.726 I-0.1585 J-0.9874
G1 X199.8185 Y110.9877
G3 X199.8164 Y110.988 I-0.1575 J-0.9875
G1 X198.3806 Y111.2138
G3 X198.3782 Y111.2142 I-0.1554 J-0.9879
G1 X195.8647 Y111.6035
G3 X195.8626 Y111.6038 I-0.1531 J-0.9882
G1 X193.9768 Y111.8918
G3 X193.9753 Y111.8921 I-0.151 J-0.9885
G1 X191.1484 Y112.3194
G3 X190.7911 Y112.3732 I-4.8627 J-31.0989
G3 X190.4823 Y112.4196 I-4.8364 J-31.1196
G3 X189.9393 Y112.5012 I-7.0558 J-45.1209
G3 X189.5337 Y112.562 I-6.9894 J-45.1777
G3 X188.9234 Y112.6536 I-10.6069 J-68.6113
G3 X188.3135 Y112.7451 I-18.1939 J-119.2161
G1 X185.4047 Y113.1802
G3 X185.4036 Y113.1803 I-0.1479 J-0.989
G1 X184.7669 Y113.2748
G3 X184.7659 Y113.275 I-0.1468 J-0.9892
G1 X183.5322 Y113.4568
G3 X183.5314 Y113.4569 I-0.1458 J-0.9893
G1 X183.3872 Y113.478
G3 X174.1763 Y114.7466 I-72.2098 J-490.2319
G3 X174.1746 Y114.7468 I-0.1271 J-0.9919
G1 X173.0239 Y114.8923
G3 X173.022 Y114.8925 I-0.1254 J-0.9921
G3 X164.9411 Y115.8335 I-63.3932 J-509.2552
G3 X164.9405 I-0.1078 J-0.9942
G1 X164.3687 Y115.8952
G3 X164.3672 Y115.8953 I-0.1072 J-0.9942
G1 X163.2414 Y116.015
G3 X163.2387 Y116.0153 I-0.1057 J-0.9944
G1 X161.0567 Y116.2414
G3 X161.0547 Y116.2416 I-0.1031 J-0.9947
G1 X160.5432 Y116.2936
G3 X160.5423 Y116.2937 I-0.1011 J-0.9949
G3 X157.0616 Y116.6372 I-88.5536 J-879.4858
G1 F20.0 Z-5.0
G3 F150.0 X152.4728 Y117.0688 I-85.0729 J-879.8293
G3 X152.4719 Y117.0689 I-0.0911 J-0.9958
G1 X151.6102 Y117.147
G1 X150.9598 Y117.2059 Z-3.694
G3 X150.9586 Y117.206 Z-3.6915 I-0.0902 J-0.9959
G3 X150.1162 Y117.2809 Z-2.0 I-101.3297 J-1134.2986
G3 X148.1238 Y117.4556 I-100.4873 J-1134.3736
G3 X146.6294 Y117.5844 Z-5.0 I-98.495 J-1134.5483
G3 X139.6018 Y118.1632 I-97.0005 J-1134.6771
G3 X139.6013 Y118.1633 I-0.079 J-0.9969
G1 X138.8918 Y118.2191
G3 X138.8903 Y118.2193 I-0.0785 J-0.9969
G1 X136.2293 Y118.4247
G3 X136.2277 Y118.4248 I-0.077 J-0.997
G1 X135.2297 Y118.5003
G3 X135.2291 I-0.0754 J-0.9972
G1 X134.7924 Y118.533
G3 X134.792 Y118.5331 I-0.0747 J-0.9972
G1 X134.3826 Y118.5636
G3 X134.3817 I-0.0743 J-0.9972
G1 X132.8466 Y118.6767
G3 X132.8458 Y118.6768 I-0.0735 J-0.9973
G1 X132.5579 Y118.6978
G3 X132.5568 Y118.6979 I-0.0727 J-0.9974
G1 X130.3976 Y118.8528
G3 X130.3957 Y118.8529 I-0.0716 J-0.9974
G1 X128.2363 Y119.0035
G3 X128.2346 Y119.0036 I-0.0696 J-0.9976
G1 X126.8819 Y119.0958
G3 X126.88 Y119.0959 I-0.068 J-0.9977
G1 X124.2586 Y119.2695
G3 X124.2572 Y119.2696 I-0.0661 J-0.9978
G1 X123.95 Y119.2895
G3 X123.9487 Y119.2896 I-0.0647 J-0.9979
G1 X121.5099 Y119.4446
G3 X121.5082 Y119.4447 I-0.0634 J-0.998
G1 X120.365 Y119.5154
G3 X120.3634 Y119.5155 I-0.0617 J-0.9981
G1 X118.1481 Y119.6489
G3 X118.1466 Y119.649 I-0.0601 J-0.9982
G1 X117.108 Y119.71
G3 X117.1073 Y119.7101 I-0.0586 J-0.9983
G3 X100.99 Y120.5351 I-68.6108 J-1182.5564
G3 X100.9896 I-0.0443 J-0.999
G1 X98.9759 Y120.6236
G3 X98.9746 Y120.6237 I-0.0439 J-0.999
G1 X97.2126 Y120.6988
G3 X97.211 Y120.6989 I-0.0426 J-0.9991
G1 X94.1271 Y120.8255
G3 X94.126 I-0.041 J-0.9992
G1 X93.5477 Y120.8486
G3 X93.5472 I-0.0399 J-0.9992
G1 X92.4629 Y120.8913
G3 X92.4623 I-0.0394 J-0.9992
G1 X91.5135 Y120.9281
G3 X91.5123 Y120.9282 I-0.0388 J-0.9992
G1 X88.1917 Y121.053
G3 X88.1907 I-0.0375 J-0.9993
G1 X87.9831 Y121.0606
G3 X87.9823 I-0.0366 J-0.9993
G1 X84.8691 Y121.172
G3 X84.868 I-0.0357 J-0.9994
G1 X83.6705 Y121.2136
G3 X83.6699 I-0.0347 J-0.9994
G1 X82.4911 Y121.2538
G3 X82.4905 I-0.0341 J-0.9994
G1 X81.3301 Y121.2928
G3 X81.3295 I-0.0335 J-0.9994
G1 X80.1872 Y121.3304
G3 X80.1866 I-0.0329 J-0.9995
G1 X79.0621 Y121.3668
G3 X79.0617 I-0.0323 J-0.9995
G1 X78.5082 Y121.3845
G3 X78.5075 I-0.0319 J-0.9995
G1 X76.3109 Y121.4531
G3 X76.3102 I-0.0312 J-0.9995
G1 X75.7782 Y121.4694
G3 X75.7778 I-0.0305 J-0.9995
G1 X74.7221 Y121.5012
G3 X74.7215 I-0.0301 J-0.9995
G1 X73.6823 Y121.5319
G3 X73.6819 I-0.0296 J-0.9996
G1 X73.1704 Y121.5469
G3 X73.1701 I-0.0292 J-0.9996
G1 X72.6626 Y121.5616
G3 X72.6615 I-0.0289 J-0.9996
G1 X68.6334 Y121.6737
G3 X66.7421 Y121.7237 I-13.9296 J-490.9892
G1 X66.2854 Y121.7355
G3 X66.2845 Y121.7356 I-0.0259 J-0.9997
G1 X62.6543 Y121.8265
G3 X62.6528 I-0.025 J-0.9997
G1 X59.2494 Y121.9068
G3 X59.2484 Y121.9069 I-0.0236 J-0.9997
G1 X57.653 Y121.943
G3 X57.6522 I-0.0227 J-0.9997
G1 X54.561 Y122.0105
G3 X54.5603 I-0.0218 J-0.9998
G1 X53.1112 Y122.0411
G3 X53.1109 I-0.0211 J-0.9998
G1 X52.409 Y122.0557
G3 X52.4087 I-0.0207 J-0.9998
G1 X51.7191 Y122.0698
G3 X51.0359 Y122.0837 I-2.8133 J-121.658
G1 X49.6981 Y122.1105
G3 X49.6972 I-0.02 J-0.9998
G1 X44.5086 Y122.2096
G3 X44.5074 Y122.2097 I-0.0191 J-0.9998
G1 X39.9672 Y122.2909
G3 X39.9667 I-0.0179 J-0.9998
G1 X39.8425 Y122.293
G3 X39.8421 I-0.0173 J-0.9998
G1 X35.8849 Y122.36
G3 X35.8842 I-0.0169 J-0.9999
G1 X32.4215 Y122.416
G3 X32.4211 I-0.0162 J-0.9999
G1 X31.6637 Y122.428
G3 X31.6631 I-0.0158 J-0.9999
G1 X25.7929 Y122.5173
G3 X25.7921 I-0.0152 J-0.9999
G1 X21.3893 Y122.5807
G3 X21.389 I-0.0144 J-0.9999
G1 X20.5634 Y122.5923
G1 X20.5633
G1 X19.7894 Y122.6031
G3 X19.7889 I-0.0139 J-0.9999
G1 X17.5223 Y122.6337
G1 X16.0224 Y122.654 Z-2.0
G1 X14.0226 Y122.681
G1 X13.9846 Y122.6815 Z-2.0761
G3 X13.9841 Z-2.0771 I-0.0135 J-0.9999
G1 X12.5227 Y122.7004 Z-5.0
G1 X11.0818 Y122.7191
G3 X11.0815 I-0.013 J-0.9999
G1 X8.1793 Y122.7559
G3 X7.1667 Y121.756 I-0.0127 J-0.9999
G1 Y6.756
G3 X8.1794 Y5.756 I1.0 J0.0
G1 X12.9718 Y5.8172
G3 X12.9723 I-0.0128 J0.9999
G1 X13.5021 Y5.8242
G1 X15.002 Y5.8442 Z-2.0
G1 X17.0018 Y5.8707
G1 X17.4651 Y5.8769 Z-2.9267
G3 X17.4656 Z-2.9276 I-0.0133 J0.9999
G1 X18.5017 Y5.8911 Z-5.0
G1 X19.5716 Y5.9058
G3 X19.572 I-0.0137 J0.9999
G1 X23.6524 Y5.9634
G3 X23.6529 I-0.0141 J0.9999
G1 X27.4782 Y6.0197
G3 X27.4788 I-0.0147 J0.9999
G1 X31.065 Y6.0746
G3 X31.0656 I-0.0153 J0.9999
G1 X34.4276 Y6.1281
G3 X34.4281 I-0.0159 J0.9999
G1 X36.004 Y6.1539
G3 X36.0044 I-0.0164 J0.9999
G1 X37.531 Y6.1794
G3 X43.4485 Y6.2829 I-58.1927 J3496.6412
G3 X43.449 I-0.0183 J0.9998
G1 X48.6251 Y6.3803
G3 X48.626 I-0.0188 J0.9998
G1 X49.7583 Y6.4026
G3 X49.7588 I-0.0197 J0.9998
G1 X51.9526 Y6.4469
G3 X51.953 I-0.0202 J0.9998
G1 X52.9814 Y6.4681
G3 X52.9822 I-0.0206 J0.9998
G1 X56.9646 Y6.5536
G3 X57.4062 Y6.5634 I-0.7265 J42.6634
G1 X59.1199 Y6.6021
G3 X59.1208 I-0.0226 J0.9997
G1 X62.3383 Y6.6778
G3 X62.3392 I-0.0235 J0.9997
G1 X63.7276 Y6.7117
G3 X63.8297 Y6.7137 I0.0147 J1.8654
G3 X63.9315 Y6.7168 I-0.0051 J1.8638
G1 X66.5311 Y6.7827
G3 X66.5314 I-0.0253 J0.9997
G3 X84.8684 Y7.3399 I-49.9975 J1947.4558
G1 X84.8685
G1 X85.546 Y7.3637
G3 X85.5465 I-0.0351 J0.9994
G1 X86.8804 Y7.4113
G3 X86.8811 I-0.0356 J0.9994
G1 X88.1733 Y7.4583
G3 X88.1743 I-0.0363 J0.9993
G1 X90.6639 Y7.5513
G3 X90.7519 Y7.5543 I-0.0283 J2.0923
G3 X90.8396 Y7.558 I-0.043 J2.0913
G1 X93.1635 Y7.6481
G3 X93.1645 I-0.0388 J0.9992
G1 X94.2603 Y7.6918
G3 X94.2614 I-0.0398 J0.9992
G1 X96.3843 Y7.7785
G3 X96.3856 I-0.0408 J0.9992
G1 X98.3758 Y7.8625
G3 X98.3768 I-0.0421 J0.9991
G1 X99.3097 Y7.9028
G3 X99.3102 I-0.0431 J0.9991
G1 X99.7621 Y7.9225
G3 X99.7624 I-0.0436 J0.999
G1 X100.2072 Y7.9421
G3 X100.208 I-0.0439 J0.999
G1 X101.9438 Y8.0198
G3 X102.0628 Y8.0248 I-0.0416 J2.4058
G3 X102.1651 Y8.0295 I-0.0582 J2.4043
G3 X102.2671 Y8.0341 I-0.0586 J2.4032
G3 X102.3845 Y8.0399 I-0.0589 J2.4021
G1 X103.9853 Y8.114
G3 X103.9871 Y8.1141 I-0.0463 J0.9989
G1 X107.0171 Y8.26
G3 X107.0189 Y8.2601 I-0.0481 J0.9988
G1 X108.3444 Y8.3262
G3 X108.3455 Y8.3263 I-0.0498 J0.9988
G1 X109.5881 Y8.3896
G3 X109.5891 Y8.3897 I-0.0509 J0.9987
G1 X110.754 Y8.4502
G3 X110.7555 Y8.4503 I-0.0519 J0.9987
G1 X112.9394 Y8.5671
G3 X112.9402 I-0.0534 J0.9986
G3 X120.5895 Y9.0103 I-56.6163 J1043.4629
G3 X120.5903 Y9.0104 I-0.0615 J0.9981
G1 X122.5003 Y9.1296
G3 X122.5026 Y9.1297 I-0.0623 J0.9981
G1 X125.3671 Y9.315
G3 X125.3692 Y9.3151 I-0.0645 J0.9979
G1 X126.7962 Y9.4103
G3 X126.9819 Y9.4228 I-0.5071 J8.9341
G3 X127.1371 Y9.4333 I-0.5333 J9.0363
G3 X127.4139 Y9.4521 I-0.747 J13.0542
G3 X127.619 Y9.4661 I-0.8265 J13.6363
G3 X128.2382 Y9.5085 I-3.0979 J49.7671
G3 X144.5125 Y10.7476 I-75.3013 J1096.5311
G3 X146.0072 Y10.8736 Z-2.0 I-91.5756 J1095.292
G3 X146.5998 Y10.9241 I-93.0703 J1095.166
G3 X146.6008 Y10.9242 I-0.0852 J0.9964
G1 X147.9998 Y11.0453
G1 X148.8914 Y11.1225 Z-3.7899
G3 X149.4942 Y11.1747 Z-5.0 I-10.8122 J128.3437
G3 X149.8994 Y11.2114 I-11.415 J128.2915
G1 X151.7777 Y11.3798
G3 X151.779 Y11.3799 I-0.0893 J0.996
G1 X152.6013 Y11.4548
G3 X152.6025 Y11.4549 I-0.0907 J0.9959
G1 X154.1438 Y11.5973
G3 X154.145 Y11.5974 I-0.092 J0.9958
G1 X154.8193 Y11.6605
G3 X154.8204 Y11.6606 I-0.0932 J0.9957
G1 X156.0846 Y11.7803
G3 X156.0856 Y11.7804 I-0.0943 J0.9955
G1 X156.6386 Y11.8334
G3 X156.6396 Y11.8335 I-0.0953 J0.9954
G1 X157.6764 Y11.9338
G3 X157.6776 Y11.9339 I-0.0963 J0.9954
G1 X158.5847 Y12.0227
G3 X158.5858 Y12.0228 I-0.0975 J0.9952
G1 X159.3794 Y12.1015
G3 X159.3804 Y12.1016 I-0.0986 J0.9951
G1 X160.0748 Y12.1711
G3 X160.0757 I-0.0996 J0.995
G1 X160.6832 Y12.2325
G3 X160.6852 Y12.2327 I-0.1005 J0.9949
G1 X162.8109 Y12.4517
G3 X162.8143 Y12.452 I-0.1025 J0.9947
G1 X164.9326 Y12.6775
G3 X165.125 Y12.6983 I-0.6352 J6.7867
G3 X165.3122 Y12.7188 I-0.7139 J7.3964
G3 X168.1907 Y13.0406 I-41.5718 J384.8641
G1 X168.5052 Y13.0767
G3 X168.5068 Y13.0769 I-0.1142 J0.9935
G1 X169.7458 Y13.2214
G3 X169.7473 Y13.2216 I-0.1158 J0.9933
G3 X179.0464 Y14.4142 I-55.2371 J467.5351
G3 X179.0478 Y14.4144 I-0.1371 J0.9906
G1 X180.206 Y14.5763
G3 X180.209 Y14.5768 I-0.1385 J0.9904
G1 X182.2349 Y14.8662
G3 X182.2378 Y14.8666 I-0.1414 J0.9899
G1 X183.7566 Y15.0881
G3 X183.7588 Y15.0884 I-0.1443 J0.9895
G1 X186.0363 Y15.4258
G3 X186.0378 Y15.426 I-0.1466 J0.9892
G1 X188.3147 Y15.767
G3 X188.3151 I-0.1481 J0.989
G1 X190.8183 Y16.1428
G3 X190.8189 Y16.1429 I-0.1485 J0.9889
G1 X193.009 Y16.4733
G3 X193.0101 Y16.4734 I-0.1491 J0.9888
G1 X194.9261 Y16.7647
G3 X194.9275 Y16.7649 I-0.1503 J0.9886
G1 X196.6035 Y17.0221
G3 X196.6051 Y17.0224 I-0.1517 J0.9884
G1 X198.0713 Y17.2498
G3 X198.0729 Y17.25 I-0.1533 J0.9882
G1 X199.3555 Y17.4511
G3 X199.3579 Y17.4515 I-0.1549 J0.9879
G1 X201.6017 Y17.8088
G3 X201.604 Y17.8092 I-0.1573 J0.9876
G1 X202.4451 Y17.9452
G3 X202.4465 Y17.9454 I-0.1597 J0.9872
G1 X203.1823 Y18.0655
G3 X203.1835 Y18.0657 I-0.161 J0.987
G1 X203.8272 Y18.1715
G3 X203.8283 Y18.1717 I-0.1622 J0.9868
G1 X204.3914 Y18.2649
G3 X204.3929 Y18.2652 I-0.1633 J0.9866
G1 X205.3781 Y18.4298
G3 X205.3806 Y18.4302 I-0.1648 J0.9863
G1 X206.8578 Y18.681
G3 X206.8611 Y18.6816 I-0.1674 J0.9859
G1 X208.3373 Y18.9373
G3 X208.3405 Y18.9378 I-0.1707 J0.9853
G1 X209.5911 Y19.1585
G3 X209.593 Y19.1589 I-0.1738 J0.9848
G1 X210.179 Y19.2635
G3 X210.1793 I-0.1757 J0.9844
G3 X214.7241 Y20.0923 I-119.5236 J668.2948
G1 X216.4248 Y20.4067
G3 X216.4282 Y20.4074 I-0.1818 J0.9833
G2 X216.7938 Y20.475 I10.4092 J-55.2475
G3 X216.802 Y20.4765 I-0.1786 J0.9839
G2 X217.1526 Y20.5414 I6.6145 J-34.7861
G3 X217.1636 Y20.5434 I-0.1769 J0.9842
G2 X217.5006 Y20.6057 I5.1964 J-27.1692
G3 X217.5058 Y20.6066 I-0.1757 J0.9844
G1 X220.2129 Y21.1045
G3 X220.2219 Y21.1062 I-0.1809 J0.9835
G2 X220.455 Y21.1488 I2.1271 J-10.995
G3 X220.4757 Y21.1525 I-0.1691 J0.9856
G2 X220.7005 Y21.1935 I2.0224 J-10.4633
G3 X220.7214 Y21.1973 I-0.1687 J0.9857
G2 X220.9384 Y21.2368 I1.9277 J-9.9841
G3 X220.9595 Y21.2406 I-0.1682 J0.9857
G2 X221.1688 Y21.2786 I1.8414 J-9.5489
G3 X221.1901 Y21.2825 I-0.1678 J0.9858
G2 X221.3921 Y21.3191 I1.7623 J-9.1513
G3 X221.4135 Y21.3229 I-0.1674 J0.9859
G2 X221.6084 Y21.3582 I1.6894 J-8.7859
G3 X221.6299 Y21.3621 I-0.167 J0.986
G2 X221.8179 Y21.396 I1.6218 J-8.4482
G3 X221.8395 Y21.3999 I-0.1667 J0.986
G2 X222.0209 Y21.4326 I1.559 J-8.135
G3 X222.0425 Y21.4364 I-0.1663 J0.9861
G2 X222.2176 Y21.4679 I1.5003 J-7.8432
G3 X222.2392 Y21.4718 I-0.166 J0.9861
G2 X222.4081 Y21.5021 I1.4454 J-7.5704
G3 X222.4297 Y21.506 I-0.1656 J0.9862
G2 X222.5927 Y21.5352 I1.3938 J-7.3144
G3 X222.6143 Y21.539 I-0.1653 J0.9862
G2 X222.7716 Y21.5671 I1.3452 J-7.0736
G3 X222.793 Y21.571 I-0.165 J0.9863
G2 X222.9448 Y21.598 I1.2993 J-6.8463
G3 X222.9662 Y21.6018 I-0.1647 J0.9863
G2 X223.1127 Y21.6279 I1.2559 J-6.6315
G3 X223.134 Y21.6317 I-0.1644 J0.9864
G2 X223.2753 Y21.6568 I1.2147 J-6.4279
G3 X223.2965 Y21.6606 I-0.1641 J0.9864
G2 X223.4329 Y21.6847 I1.1756 J-6.2343
G3 X223.4539 Y21.6885 I-0.1638 J0.9865
G2 X223.5855 Y21.7117 I1.1384 J-6.05
G3 X223.5984 Y21.714 I-0.1635 J0.9865
G2 X224.7761 Y21.9205 I27.9956 J-156.1867
G3 X224.792 Y21.9234 I-0.169 J0.9856
G2 X224.9865 Y21.9571 I1.2895 J-6.8525
G3 X225.0135 Y21.9618 I-0.1571 J0.9876
G2 X225.1946 Y21.9931 I1.2216 J-6.5226
G3 X225.2058 Y21.995 I-0.1568 J0.9876
G1 X226.7696 Y22.2614
G3 X226.7812 Y22.2635 I-0.168 J0.9858
G2 X226.9482 Y22.2915 I1.0495 J-5.7475
G3 X226.9599 Y22.2934 I-0.151 J0.9885
G1 X228.3294 Y22.5193
G3 X228.3393 Y22.521 I-0.1628 J0.9867
G2 X228.4834 Y22.5443 I0.9881 J-5.637
G3 X228.4945 Y22.5461 I-0.1475 J0.9891
G1 X229.1655 Y22.6539
G1 X229.4897 Y22.7054
G1 X229.8089 Y22.7559
G1 X230.4386 Y22.8545
G1 X230.7429 Y22.9017
G1 X231.9451 Y23.0864
G1 X232.5082 Y23.1719
G1 X233.6009 Y23.3367
G1 X235.6516 Y23.6433
G1 X235.6515
G1 X235.6516
G1 X236.549 Y23.7774
G3 X236.5498 Y23.7775 I-0.1478 J0.989
G1 X238.2324 Y24.0303
G3 X238.2342 Y24.0306 I-0.1486 J0.9889
G1 X239.706 Y24.2545
G3 X239.7078 Y24.2548 I-0.1504 J0.9886
G1 X240.3516 Y24.3539
G3 X240.3534 Y24.3542 I-0.1522 J0.9884
G1 X241.5601 Y24.5423
G3 X241.5607 Y24.5424 I-0.154 J0.9881
G3 X245.7921 Y25.2327 I-50.6338 J323.6746
G3 X245.7936 Y25.233 I-0.1675 J0.9859
G1 X246.8469 Y25.4136
G3 X246.85 Y25.4141 I-0.169 J0.9856
G1 X247.6394 Y25.5521
G3 X247.6413 Y25.5524 I-0.1721 J0.9851
G1 X247.9373 Y25.6047
G3 X247.9396 Y25.6051 I-0.174 J0.9847
G1 X248.975 Y25.7906
G3 X248.9787 Y25.7913 I-0.1763 J0.9843
G1 X250.0134 Y25.9806
G3 X250.0158 Y25.9811 I-0.18 J0.9837
G1 X250.3163 Y26.0368
G3 X250.3189 Y26.0373 I-0.1825 J0.9832
G1 X251.5108 Y26.2617
G3 X251.5145 Y26.2624 I-0.185 J0.9827
G1 X252.6684 Y26.4841
G3 X252.6707 Y26.4845 I-0.1887 J0.982
G1 X253.2294 Y26.5933
G3 X253.2314 Y26.5936 I-0.191 J0.9816
G1 X254.3309 Y26.8099
G3 X254.3321 Y26.8102 I-0.193 J0.9812
G1 X254.3987 Y26.8234
G1 X254.3989
G1 X254.4653 Y26.8366
G3 X254.466 Y26.8367 I-0.1944 J0.9809
G3 X258.711 Y27.6942 I-143.6425 J722.0202
G3 X258.7116 Y27.6943 I-0.2009 J0.9796
G1 X260.5649 Y28.0755
G3 X260.5663 Y28.0758 I-0.2015 J0.9795
G1 X264.0403 Y28.7954
G3 X264.0407 Y28.7955 I-0.2028 J0.9792
G1 X269.0675 Y29.8392
G1 X270.1191 Y30.0575 Z-2.852
G1 X270.5363 Y30.1437 Z-2.0
G1 X272.495 Y30.5481
G1 X273.964 Y30.8514 Z-5.0
G1 X274.6783 Y30.9989
G1 X275.533 Y31.1746
G1 X275.9335 Y31.2568
G1 X279.0403 Y31.8925
G2 X281.3694 Y32.3664 I287.6141 J-1407.63
G1 X284.8659 Y33.0734
G1 X288.3635 Y33.7755
G3 X289.1667 Y34.756 I-0.1968 J0.9804
G1 Y93.756
G3 X288.3633 Y94.7364 I-1.0 J0.0
G1 X285.9662 Y95.2171
G2 X276.9857 Y97.0394 I413.5976 J2061.2919
G1 X273.6186 Y97.7311
G1 X271.348 Y98.2002
G1 X270.6734 Y98.3395 Z-3.6223
G1 X269.8792 Y98.5042 Z-2.0
G1 X268.0965 Y98.8738
G1 X267.9208 Y98.9103
G1 X266.4522 Y99.2154 Z-5.0
G1 X263.5865 Y99.8107
G3 X263.5861 Y99.8108 I-0.2034 J-0.9791
G1 X261.8946 Y100.1615
G3 X261.894 Y100.1616 I-0.203 J-0.9792
G1 X260.4138 Y100.4676
G3 X260.4123 Y100.4679 I-0.2024 J-0.9793
G1 X257.8212 Y100.9996
G3 X257.8187 Y101.0001 I-0.201 J-0.9796
G1 X255.8744 Y101.3939
G3 X255.8717 Y101.3944 I-0.1985 J-0.9801
G1 X254.4126 Y101.6858
G3 X254.4106 Y101.6862 I-0.1958 J-0.9806
G1 X253.8632 Y101.7943
G3 X253.8621 Y101.7946 I-0.1938 J-0.981
G1 X253.383 Y101.8886
G3 X253.3814 Y101.8889 I-0.1927 J-0.9813
G1 X252.5427 Y102.0522
G3 X250.0145 Y102.5311 I-49.0432 J-251.9847
G3 X250.0128 Y102.5314 I-0.1812 J-0.9834
G1 X248.6637 Y102.7775
G3 X248.6607 Y102.778 I-0.1795 J-0.9838
G1 X248.3443 Y102.8348
G3 X248.3416 Y102.8353 I-0.1765 J-0.9843
G1 X247.0952 Y103.0552
G3 X247.0931 Y103.0555 I-0.1737 J-0.9848
G3 X245.9198 Y103.2575 I-51.5934 J-296.2285
G3 X245.9181 Y103.2578 I-0.1677 J-0.9858
G1 X244.8212 Y103.4424
G3 X244.818 Y103.4429 I-0.166 J-0.9861
G1 X243.789 Y103.6126
G3 X243.7868 Y103.6129 I-0.1627 J-0.9867
G1 X243.3043 Y103.6914
G3 X243.3024 Y103.6917 I-0.1605 J-0.987
G1 X242.3673 Y103.8418
G3 X242.3658 Y103.8421 I-0.1586 J-0.9874
G1 X242.1466 Y103.8769
G3 X242.146 Y103.877 I-0.1571 J-0.9876
G1 X241.9302 Y103.9112
G3 X241.9289 Y103.9114 I-0.1565 J-0.9877
G1 X241.079 Y104.045
G3 X241.0772 Y104.0453 I-0.1552 J-0.9879
G1 X240.2802 Y104.169
G3 X240.2787 Y104.1693 I-0.1534 J-0.9882
G1 X239.5435 Y104.2823
G3 X239.4736 Y104.293 I-0.2891 J-1.6564
G1 X238.0894 Y104.5032
G3 X238.0875 Y104.5035 I-0.1502 J-0.9887
G1 X235.6433 Y104.8698
G3 X235.6427 Y104.8699 I-0.1482 J-0.989
G1 X235.1844 Y104.9383
G3 X235.184 Y104.9384 I-0.1477 J-0.989
G2 X231.7516 Y105.455 I161.2136 J1082.7609
G1 X230.0372 Y105.7202
G1 X229.1821 Y105.8554
G1 X228.3269 Y105.993
G1 X227.7025 Y106.0952
G1 X227.0981 Y106.1954
G1 X225.926 Y106.3933
G1 X224.8276 Y106.5825
G1 X224.3133 Y106.6722
G1 X223.8155 Y106.7596
G1 X221.8824 Y107.1043
G1 X221.0378 Y107.2571
G1 X220.2456 Y107.4014
G1 X218.7596 Y107.674
G1 X217.4593 Y107.9139
G1 X216.3231 Y108.124
G3 X215.8243 Y108.2163 I-12.1876 J-64.4817
G3 X215.3568 Y108.3027 I-7.2797 J-38.0569
G3 X214.9187 Y108.3837 I-5.6585 J-29.3958
G3 X214.508 Y108.4595 I-4.7654 J-24.6651
G3 X214.1229 Y108.5305 I-4.1736 J-21.5577
G3 X213.7618 Y108.597 I-3.7411 J-19.3066
G3 X213.4233 Y108.6592 I-3.4051 J-17.5722
G3 X213.1059 Y108.7174 I-3.1332 J-16.1791
G3 X212.8083 Y108.772 I-2.9065 J-15.025
G3 X212.5241 Y108.8239 I-2.7131 J-14.0466
G3 X208.3399 Y109.5742 I-115.6135 J-632.7156
G3 X208.3392 Y109.5743 I-0.1732 J-0.9849
G3 X205.8386 Y110.0044 I-71.167 J-406.2503
G3 X201.4599 Y110.7259 I-89.507 J-529.5808
G3 X201.4589 Y110.726 I-0.1585 J-0.9874
G1 X199.8185 Y110.9877
G3 X199.8164 Y110.988 I-0.1575 J-0.9875
G1 X198.3806 Y111.2138
G3 X198.3782 Y111.2142 I-0.1554 J-0.9879
G1 X195.8647 Y111.6035
G3 X195.8626 Y111.6038 I-0.1531 J-0.9882
G1 X193.9768 Y111.8918
G3 X193.9753 Y111.8921 I-0.151 J-0.9885
G1 X191.1484 Y112.3194
G3 X190.7911 Y112.3732 I-4.8627 J-31.0989
G3 X190.4823 Y112.4196 I-4.8364 J-31.1196
G3 X189.9393 Y112.5012 I-7.0558 J-45.1209
G3 X189.5337 Y112.562 I-6.9894 J-45.1777
G3 X188.9234 Y112.6536 I-10.6069 J-68.6113
G3 X188.3135 Y112.7451 I-18.1939 J-119.2161
G1 X185.4047 Y113.1802
G3 X185.4036 Y113.1803 I-0.1479 J-0.989
G1 X184.7669 Y113.2748
G3 X184.7659 Y113.275 I-0.1468 J-0.9892
G1 X183.5322 Y113.4568
G3 X183.5314 Y113.4569 I-0.1458 J-0.9893
G1 X183.3872 Y113.478
G3 X174.1763 Y114.7466 I-72.2098 J-490.2319
G3 X174.1746 Y114.7468 I-0.1271 J-0.9919
G1 X173.0239 Y114.8923
G3 X173.022 Y114.8925 I-0.1254 J-0.9921
G3 X164.9411 Y115.8335 I-63.3932 J-509.2552
G3 X164.9405 I-0.1078 J-0.9942
G1 X164.3687 Y115.8952
G3 X164.3672 Y115.8953 I-0.1072 J-0.9942
G1 X163.2414 Y116.015
G3 X163.2387 Y116.0153 I-0.1057 J-0.9944
G1 X161.0567 Y116.2414
G3 X161.0547 Y116.2416 I-0.1031 J-0.9947
G1 X160.5432 Y116.2936
G3 X160.5423 Y116.2937 I-0.1011 J-0.9949
G3 X157.0616 Y116.6372 I-88.5536 J-879.4858
G0 F200
G0 Z3.0
M5
M30
