( Made using CamBam - http://www.cambam.co.uk )
( Calpinage Fixation d'aile 4/27/2025 12:55:07 PM )
( Post-pro: GRBL )
( T0 : 2.0 )
G21 G90 G40
G0 Z3.0
( T0 : 2.0 )
T0 M6
( Contour1 )
G17
M3 S1000
G0 X28.8967 Y5.0589
G0 Z1.0
G1 F300.0 Z-1.0
G1 F800.0 X32.8967
G3X33.8967Y6.0589I0.0J1.0
G1 Y23.0589
G3X32.7387Y24.0463I-1.0J0.0
G1 X7.7387 Y20.0463
G3X6.8967Y19.0589I0.158J-0.9874
G1 Y6.0589
G3X7.8967Y5.0589I1.0J0.0
G1 X11.8967
G3X12.8967Y6.0589I0.0J1.0
G1 Y8.0589
G1 X27.8967
G1 Y6.0589
G3X28.8967Y5.0589I1.0J0.0
G1 F300.0 Z-2.0
G1 F800.0 X32.8967
G3X33.8967Y6.0589I0.0J1.0
G1 Y11.5
G1 Y13.0 Z-1.7
G1 Y15.0
G1 Y16.5 Z-2.0
G1 Y23.0589
G3X32.7387Y24.0463I-1.0J0.0
G1 X7.7387 Y20.0463
G3X6.8967Y19.0589I0.158J-0.9874
G1 Y17.5
G1 Y16.0 Z-1.7
G1 Y14.0
G1 Y12.5 Z-2.0
G1 Y6.0589
G3X7.8967Y5.0589I1.0J0.0
G1 X11.8967
G3X12.8967Y6.0589I0.0J1.0
G1 Y8.0589
G1 X17.5
G1 X19.0 Z-1.7
G1 X21.0
G1 X22.5 Z-2.0
G1 X27.8967
G1 Y6.0589
G3X28.8967Y5.0589I1.0J0.0
G1 F300.0 Z-3.0
G1 F800.0 X32.8967
G3X33.8967Y6.0589I0.0J1.0
G1 Y11.5
G1 Y13.0 Z-1.7
G1 Y15.0
G1 Y16.5 Z-3.0
G1 Y23.0589
G3X32.7387Y24.0463I-1.0J0.0
G1 X7.7387 Y20.0463
G3X6.8967Y19.0589I0.158J-0.9874
G1 Y17.5
G1 Y16.0 Z-1.7
G1 Y14.0
G1 Y12.5 Z-3.0
G1 Y6.0589
G3X7.8967Y5.0589I1.0J0.0
G1 X11.8967
G3X12.8967Y6.0589I0.0J1.0
G1 Y8.0589
G1 X17.5
G1 X19.0 Z-1.7
G1 X21.0
G1 X22.5 Z-3.0
G1 X27.8967
G1 Y6.0589
G3X28.8967Y5.0589I1.0J0.0
G1 F300.0 Z-4.0
G1 F800.0 X32.8967
G3X33.8967Y6.0589I0.0J1.0
G1 Y11.5
G1 Y13.0 Z-1.7
G1 Y15.0
G1 Y16.5 Z-4.0
G1 Y23.0589
G3X32.7387Y24.0463I-1.0J0.0
G1 X7.7387 Y20.0463
G3X6.8967Y19.0589I0.158J-0.9874
G1 Y17.5
G1 Y16.0 Z-1.7
G1 Y14.0
G1 Y12.5 Z-4.0
G1 Y6.0589
G3X7.8967Y5.0589I1.0J0.0
G1 X11.8967
G3X12.8967Y6.0589I0.0J1.0
G1 Y8.0589
G1 X17.5
G1 X19.0 Z-1.7
G1 X21.0
G1 X22.5 Z-4.0
G1 X27.8967
G1 Y6.0589
G3X28.8967Y5.0589I1.0J0.0
G1 F300.0 Z-4.7
G1 F800.0 X32.8967
G3X33.8967Y6.0589I0.0J1.0
G1 Y11.5
G1 Y13.0 Z-1.7
G1 Y15.0
G1 Y16.5 Z-4.7
G1 Y23.0589
G3X32.7387Y24.0463I-1.0J0.0
G1 X7.7387 Y20.0463
G3X6.8967Y19.0589I0.158J-0.9874
G1 Y17.5
G1 Y16.0 Z-1.7
G1 Y14.0
G1 Y12.5 Z-4.7
G1 Y6.0589
G3X7.8967Y5.0589I1.0J0.0
G1 X11.8967
G3X12.8967Y6.0589I0.0J1.0
G1 Y8.0589
G1 X17.5
G1 X19.0 Z-1.7
G1 X21.0
G1 X22.5 Z-4.7
G1 X27.8967
G1 Y6.0589
G3X28.8967Y5.0589I1.0J0.0
G0 Z3.0
G0 X25.5566 Y25.9345
G0 Z1.0
G1 F300.0 Z-1.0
G1 F800.0 X32.8568 Y27.1025
G3X33.6988Y28.09I-0.158J0.9874
G1 Y41.09
G3X32.6988Y42.09I-1.0J0.0
G1 X28.6988
G3X27.6988Y41.09I0.0J-1.0
G1 Y39.09
G1 X12.6988
G1 Y41.09
G3X11.6988Y42.09I-1.0J0.0
G1 X7.6988
G3X6.6988Y41.09I0.0J-1.0
G1 Y24.09
G3X7.8568Y23.1025I1.0J0.0
G1 X25.5566 Y25.9345
G1 F300.0 Z-2.0
G1 F800.0 X32.8568 Y27.1025
G3X33.6988Y28.09I-0.158J0.9874
G1 Y31.5
G1 Y33.0 Z-1.7
G1 Y35.0
G1 Y36.5 Z-2.0
G1 Y41.09
G3X32.6988Y42.09I-1.0J0.0
G1 X28.6988
G3X27.6988Y41.09I0.0J-1.0
G1 Y39.09
G1 X22.5
G1 X21.0 Z-1.7
G1 X19.0
G1 X17.5 Z-2.0
G1 X12.6988
G1 Y41.09
G3X11.6988Y42.09I-1.0J0.0
G1 X7.6988
G3X6.6988Y41.09I0.0J-1.0
G1 Y34.5
G1 Y33.0 Z-1.7
G1 Y31.0
G1 Y29.5 Z-2.0
G1 Y24.09
G3X7.8568Y23.1025I1.0J0.0
G1 X25.5566 Y25.9345
G1 F300.0 Z-3.0
G1 F800.0 X32.8568 Y27.1025
G3X33.6988Y28.09I-0.158J0.9874
G1 Y31.5
G1 Y33.0 Z-1.7
G1 Y35.0
G1 Y36.5 Z-3.0
G1 Y41.09
G3X32.6988Y42.09I-1.0J0.0
G1 X28.6988
G3X27.6988Y41.09I0.0J-1.0
G1 Y39.09
G1 X22.5
G1 X21.0 Z-1.7
G1 X19.0
G1 X17.5 Z-3.0
G1 X12.6988
G1 Y41.09
G3X11.6988Y42.09I-1.0J0.0
G1 X7.6988
G3X6.6988Y41.09I0.0J-1.0
G1 Y34.5
G1 Y33.0 Z-1.7
G1 Y31.0
G1 Y29.5 Z-3.0
G1 Y24.09
G3X7.8568Y23.1025I1.0J0.0
G1 X25.5566 Y25.9345
G1 F300.0 Z-4.0
G1 F800.0 X32.8568 Y27.1025
G3X33.6988Y28.09I-0.158J0.9874
G1 Y31.5
G1 Y33.0 Z-1.7
G1 Y35.0
G1 Y36.5 Z-4.0
G1 Y41.09
G3X32.6988Y42.09I-1.0J0.0
G1 X28.6988
G3X27.6988Y41.09I0.0J-1.0
G1 Y39.09
G1 X22.5
G1 X21.0 Z-1.7
G1 X19.0
G1 X17.5 Z-4.0
G1 X12.6988
G1 Y41.09
G3X11.6988Y42.09I-1.0J0.0
G1 X7.6988
G3X6.6988Y41.09I0.0J-1.0
G1 Y34.5
G1 Y33.0 Z-1.7
G1 Y31.0
G1 Y29.5 Z-4.0
G1 Y24.09
G3X7.8568Y23.1025I1.0J0.0
G1 X25.5566 Y25.9345
G1 F300.0 Z-4.7
G1 F800.0 X32.8568 Y27.1025
G3X33.6988Y28.09I-0.158J0.9874
G1 Y31.5
G1 Y33.0 Z-1.7
G1 Y35.0
G1 Y36.5 Z-4.7
G1 Y41.09
G3X32.6988Y42.09I-1.0J0.0
G1 X28.6988
G3X27.6988Y41.09I0.0J-1.0
G1 Y39.09
G1 X22.5
G1 X21.0 Z-1.7
G1 X19.0
G1 X17.5 Z-4.7
G1 X12.6988
G1 Y41.09
G3X11.6988Y42.09I-1.0J0.0
G1 X7.6988
G3X6.6988Y41.09I0.0J-1.0
G1 Y34.5
G1 Y33.0 Z-1.7
G1 Y31.0
G1 Y29.5 Z-4.7
G1 Y24.09
G3X7.8568Y23.1025I1.0J0.0
G1 X25.5566 Y25.9345
G0 Z3.0
G0 X28.5101 Y45.4816
G0 Z1.0
G1 F300.0 Z-1.0
F800.0
G3X28.6595Y45.4704I0.1494J0.9888
G1 X32.6595
G3X33.6595Y46.4704I0.0J1.0
G1 Y63.4704
G3X32.5015Y64.4578I-1.0J0.0
G1 X7.5015 Y60.4578
G3X6.6595Y59.4704I0.158J-0.9874
G1 Y46.4704
G3X7.6595Y45.4704I1.0J0.0
G1 X11.6595
G3X12.6595Y46.4704I0.0J1.0
G1 Y48.4704
G1 X27.6595
G1 Y46.4704
G3X28.5101Y45.4816I1.0J0.0
G1 F300.0 Z-2.0
F800.0
G3X28.6595Y45.4704I0.1494J0.9888
G1 X32.6595
G3X33.6595Y46.4704I0.0J1.0
G1 Y52.5
G1 Y54.0 Z-1.7
G1 Y56.0
G1 Y57.5 Z-2.0
G1 Y63.4704
G3X32.5015Y64.4578I-1.0J0.0
G1 X7.5015 Y60.4578
G3X6.6595Y59.4704I0.158J-0.9874
G1 Y57.5
G1 Y56.0 Z-1.7
G1 Y54.0
G1 Y52.5 Z-2.0
G1 Y46.4704
G3X7.6595Y45.4704I1.0J0.0
G1 X11.6595
G3X12.6595Y46.4704I0.0J1.0
G1 Y48.4704
G1 X17.5
G1 X19.0 Z-1.7
G1 X21.0
G1 X22.5 Z-2.0
G1 X27.6595
G1 Y46.4704
G3X28.5101Y45.4816I1.0J0.0
G1 F300.0 Z-3.0
F800.0
G3X28.6595Y45.4704I0.1494J0.9888
G1 X32.6595
G3X33.6595Y46.4704I0.0J1.0
G1 Y52.5
G1 Y54.0 Z-1.7
G1 Y56.0
G1 Y57.5 Z-3.0
G1 Y63.4704
G3X32.5015Y64.4578I-1.0J0.0
G1 X7.5015 Y60.4578
G3X6.6595Y59.4704I0.158J-0.9874
G1 Y57.5
G1 Y56.0 Z-1.7
G1 Y54.0
G1 Y52.5 Z-3.0
G1 Y46.4704
G3X7.6595Y45.4704I1.0J0.0
G1 X11.6595
G3X12.6595Y46.4704I0.0J1.0
G1 Y48.4704
G1 X17.5
G1 X19.0 Z-1.7
G1 X21.0
G1 X22.5 Z-3.0
G1 X27.6595
G1 Y46.4704
G3X28.5101Y45.4816I1.0J0.0
G1 F300.0 Z-4.0
F800.0
G3X28.6595Y45.4704I0.1494J0.9888
G1 X32.6595
G3X33.6595Y46.4704I0.0J1.0
G1 Y52.5
G1 Y54.0 Z-1.7
G1 Y56.0
G1 Y57.5 Z-4.0
G1 Y63.4704
G3X32.5015Y64.4578I-1.0J0.0
G1 X7.5015 Y60.4578
G3X6.6595Y59.4704I0.158J-0.9874
G1 Y57.5
G1 Y56.0 Z-1.7
G1 Y54.0
G1 Y52.5 Z-4.0
G1 Y46.4704
G3X7.6595Y45.4704I1.0J0.0
G1 X11.6595
G3X12.6595Y46.4704I0.0J1.0
G1 Y48.4704
G1 X17.5
G1 X19.0 Z-1.7
G1 X21.0
G1 X22.5 Z-4.0
G1 X27.6595
G1 Y46.4704
G3X28.5101Y45.4816I1.0J0.0
G1 F300.0 Z-4.7
F800.0
G3X28.6595Y45.4704I0.1494J0.9888
G1 X32.6595
G3X33.6595Y46.4704I0.0J1.0
G1 Y52.5
G1 Y54.0 Z-1.7
G1 Y56.0
G1 Y57.5 Z-4.7
G1 Y63.4704
G3X32.5015Y64.4578I-1.0J0.0
G1 X7.5015 Y60.4578
G3X6.6595Y59.4704I0.158J-0.9874
G1 Y57.5
G1 Y56.0 Z-1.7
G1 Y54.0
G1 Y52.5 Z-4.7
G1 Y46.4704
G3X7.6595Y45.4704I1.0J0.0
G1 X11.6595
G3X12.6595Y46.4704I0.0J1.0
G1 Y48.4704
G1 X17.5
G1 X19.0 Z-1.7
G1 X21.0
G1 X22.5 Z-4.7
G1 X27.6595
G1 Y46.4704
G3X28.5101Y45.4816I1.0J0.0
G0 Z3.0
G0 X25.1755 Y66.323
G0 Z1.0
G1 F300.0 Z-1.0
G1 F800.0 X32.6196 Y67.514
G3X33.4616Y68.5015I-0.158J0.9874
G1 Y81.5015
G3X32.4616Y82.5015I-1.0J0.0
G1 X28.4616
G3X27.4616Y81.5015I0.0J-1.0
G1 Y79.5015
G1 X12.4616
G1 Y81.5015
G3X11.4616Y82.5015I-1.0J0.0
G1 X7.4616
G3X6.4616Y81.5015I0.0J-1.0
G1 Y64.5015
G3X7.6196Y63.514I1.0J0.0
G1 X25.1755 Y66.323
G1 F300.0 Z-2.0
G1 F800.0 X32.6196 Y67.514
G3X33.4616Y68.5015I-0.158J0.9874
G1 Y70.5
G1 Y72.0 Z-1.7
G1 Y74.0
G1 Y75.5 Z-2.0
G1 Y81.5015
G3X32.4616Y82.5015I-1.0J0.0
G1 X28.4616
G3X27.4616Y81.5015I0.0J-1.0
G1 Y79.5015
G1 X22.5
G1 X21.0 Z-1.7
G1 X19.0
G1 X17.5 Z-2.0
G1 X12.4616
G1 Y81.5015
G3X11.4616Y82.5015I-1.0J0.0
G1 X7.4616
G3X6.4616Y81.5015I0.0J-1.0
G1 Y75.5
G1 Y74.0 Z-1.7
G1 Y72.0
G1 Y70.5 Z-2.0
G1 Y64.5015
G3X7.6196Y63.514I1.0J0.0
G1 X25.1755 Y66.323
G1 F300.0 Z-3.0
G1 F800.0 X32.6196 Y67.514
G3X33.4616Y68.5015I-0.158J0.9874
G1 Y70.5
G1 Y72.0 Z-1.7
G1 Y74.0
G1 Y75.5 Z-3.0
G1 Y81.5015
G3X32.4616Y82.5015I-1.0J0.0
G1 X28.4616
G3X27.4616Y81.5015I0.0J-1.0
G1 Y79.5015
G1 X22.5
G1 X21.0 Z-1.7
G1 X19.0
G1 X17.5 Z-3.0
G1 X12.4616
G1 Y81.5015
G3X11.4616Y82.5015I-1.0J0.0
G1 X7.4616
G3X6.4616Y81.5015I0.0J-1.0
G1 Y75.5
G1 Y74.0 Z-1.7
G1 Y72.0
G1 Y70.5 Z-3.0
G1 Y64.5015
G3X7.6196Y63.514I1.0J0.0
G1 X25.1755 Y66.323
G1 F300.0 Z-4.0
G1 F800.0 X32.6196 Y67.514
G3X33.4616Y68.5015I-0.158J0.9874
G1 Y70.5
G1 Y72.0 Z-1.7
G1 Y74.0
G1 Y75.5 Z-4.0
G1 Y81.5015
G3X32.4616Y82.5015I-1.0J0.0
G1 X28.4616
G3X27.4616Y81.5015I0.0J-1.0
G1 Y79.5015
G1 X22.5
G1 X21.0 Z-1.7
G1 X19.0
G1 X17.5 Z-4.0
G1 X12.4616
G1 Y81.5015
G3X11.4616Y82.5015I-1.0J0.0
G1 X7.4616
G3X6.4616Y81.5015I0.0J-1.0
G1 Y75.5
G1 Y74.0 Z-1.7
G1 Y72.0
G1 Y70.5 Z-4.0
G1 Y64.5015
G3X7.6196Y63.514I1.0J0.0
G1 X25.1755 Y66.323
G1 F300.0 Z-4.7
G1 F800.0 X32.6196 Y67.514
G3X33.4616Y68.5015I-0.158J0.9874
G1 Y70.5
G1 Y72.0 Z-1.7
G1 Y74.0
G1 Y75.5 Z-4.7
G1 Y81.5015
G3X32.4616Y82.5015I-1.0J0.0
G1 X28.4616
G3X27.4616Y81.5015I0.0J-1.0
G1 Y79.5015
G1 X22.5
G1 X21.0 Z-1.7
G1 X19.0
G1 X17.5 Z-4.7
G1 X12.4616
G1 Y81.5015
G3X11.4616Y82.5015I-1.0J0.0
G1 X7.4616
G3X6.4616Y81.5015I0.0J-1.0
G1 Y75.5
G1 Y74.0 Z-1.7
G1 Y72.0
G1 Y70.5 Z-4.7
G1 Y64.5015
G3X7.6196Y63.514I1.0J0.0
G1 X25.1755 Y66.323
G0 Z3.0
G0 X28.1675 Y85.5076
G0 Z1.0
G1 F300.0 Z-1.0
F800.0
G3X28.3216Y85.4957I0.1541J0.9881
G1 X32.3216
G3X33.3216Y86.4957I0.0J1.0
G1 Y103.4957
G3X32.1636Y104.4831I-1.0J0.0
G1 X7.1636 Y100.4831
G3X6.3216Y99.4957I0.158J-0.9874
G1 Y86.4957
G3X7.3216Y85.4957I1.0J0.0
G1 X11.3216
G3X12.3216Y86.4957I0.0J1.0
G1 Y88.4957
G1 X27.3216
G1 Y86.4957
G3X28.1675Y85.5076I1.0J0.0
G1 F300.0 Z-2.0
F800.0
G3X28.3216Y85.4957I0.1541J0.9881
G1 X32.3216
G3X33.3216Y86.4957I0.0J1.0
G1 Y91.5
G1 Y93.0 Z-1.7
G1 Y95.0
G1 Y96.5 Z-2.0
G1 Y103.4957
G3X32.1636Y104.4831I-1.0J0.0
G1 X7.1636 Y100.4831
G3X6.3216Y99.4957I0.158J-0.9874
G1 Y97.5
G1 Y96.0 Z-1.7
G1 Y94.0
G1 Y92.5 Z-2.0
G1 Y86.4957
G3X7.3216Y85.4957I1.0J0.0
G1 X11.3216
G3X12.3216Y86.4957I0.0J1.0
G1 Y88.4957
G1 X17.5
G1 X19.0 Z-1.7
G1 X21.0
G1 X22.5 Z-2.0
G1 X27.3216
G1 Y86.4957
G3X28.1675Y85.5076I1.0J0.0
G1 F300.0 Z-3.0
F800.0
G3X28.3216Y85.4957I0.1541J0.9881
G1 X32.3216
G3X33.3216Y86.4957I0.0J1.0
G1 Y91.5
G1 Y93.0 Z-1.7
G1 Y95.0
G1 Y96.5 Z-3.0
G1 Y103.4957
G3X32.1636Y104.4831I-1.0J0.0
G1 X7.1636 Y100.4831
G3X6.3216Y99.4957I0.158J-0.9874
G1 Y97.5
G1 Y96.0 Z-1.7
G1 Y94.0
G1 Y92.5 Z-3.0
G1 Y86.4957
G3X7.3216Y85.4957I1.0J0.0
G1 X11.3216
G3X12.3216Y86.4957I0.0J1.0
G1 Y88.4957
G1 X17.5
G1 X19.0 Z-1.7
G1 X21.0
G1 X22.5 Z-3.0
G1 X27.3216
G1 Y86.4957
G3X28.1675Y85.5076I1.0J0.0
G1 F300.0 Z-4.0
F800.0
G3X28.3216Y85.4957I0.1541J0.9881
G1 X32.3216
G3X33.3216Y86.4957I0.0J1.0
G1 Y91.5
G1 Y93.0 Z-1.7
G1 Y95.0
G1 Y96.5 Z-4.0
G1 Y103.4957
G3X32.1636Y104.4831I-1.0J0.0
G1 X7.1636 Y100.4831
G3X6.3216Y99.4957I0.158J-0.9874
G1 Y97.5
G1 Y96.0 Z-1.7
G1 Y94.0
G1 Y92.5 Z-4.0
G1 Y86.4957
G3X7.3216Y85.4957I1.0J0.0
G1 X11.3216
G3X12.3216Y86.4957I0.0J1.0
G1 Y88.4957
G1 X17.5
G1 X19.0 Z-1.7
G1 X21.0
G1 X22.5 Z-4.0
G1 X27.3216
G1 Y86.4957
G3X28.1675Y85.5076I1.0J0.0
G1 F300.0 Z-4.7
F800.0
G3X28.3216Y85.4957I0.1541J0.9881
G1 X32.3216
G3X33.3216Y86.4957I0.0J1.0
G1 Y91.5
G1 Y93.0 Z-1.7
G1 Y95.0
G1 Y96.5 Z-4.7
G1 Y103.4957
G3X32.1636Y104.4831I-1.0J0.0
G1 X7.1636 Y100.4831
G3X6.3216Y99.4957I0.158J-0.9874
G1 Y97.5
G1 Y96.0 Z-1.7
G1 Y94.0
G1 Y92.5 Z-4.7
G1 Y86.4957
G3X7.3216Y85.4957I1.0J0.0
G1 X11.3216
G3X12.3216Y86.4957I0.0J1.0
G1 Y88.4957
G1 X17.5
G1 X19.0 Z-1.7
G1 X21.0
G1 X22.5 Z-4.7
G1 X27.3216
G1 Y86.4957
G3X28.1675Y85.5076I1.0J0.0
( Contour2 )
S1000
G0 Z3.0
G0 X42.4253 Y91.9346
G0 Z1.0
G1 F300.0 Z-1.0
G1 F800.0 X57.4253
G1 Y90.9346
G1 X42.4253
G1 Y91.9346
G1 F300.0 Z-2.0
G1 F800.0 X57.4253
G1 Y90.9346
G1 X42.4253
G1 Y91.9346
G1 F300.0 Z-3.0
G1 F800.0 X57.4253
G1 Y90.9346
G1 X42.4253
G1 Y91.9346
G1 F300.0 Z-4.0
G1 F800.0 X57.4253
G1 Y90.9346
G1 X42.4253
G1 Y91.9346
G1 F300.0 Z-4.7
G1 F800.0 X57.4253
G1 Y90.9346
G1 X42.4253
G1 Y91.9346
G0 Z3.0
G0 X42.7632 Y77.6973
G0 Z1.0
G1 F300.0 Z-1.0
G1 F800.0 X57.7632
G1 Y76.6973
G1 X42.7632
G1 Y77.6973
G1 F300.0 Z-2.0
G1 F800.0 X57.7632
G1 Y76.6973
G1 X42.7632
G1 Y77.6973
G1 F300.0 Z-3.0
G1 F800.0 X57.7632
G1 Y76.6973
G1 X42.7632
G1 Y77.6973
G1 F300.0 Z-4.0
G1 F800.0 X57.7632
G1 Y76.6973
G1 X42.7632
G1 Y77.6973
G1 F300.0 Z-4.7
G1 F800.0 X57.7632
G1 Y76.6973
G1 X42.7632
G1 Y77.6973
G0 Z3.0
G0 Y51.9093
G0 Z1.0
G1 F300.0 Z-1.0
G1 F800.0 X57.7632
G1 Y50.9093
G1 X42.7632
G1 Y51.9093
G1 F300.0 Z-2.0
G1 F800.0 X57.7632
G1 Y50.9093
G1 X42.7632
G1 Y51.9093
G1 F300.0 Z-3.0
G1 F800.0 X57.7632
G1 Y50.9093
G1 X42.7632
G1 Y51.9093
G1 F300.0 Z-4.0
G1 F800.0 X57.7632
G1 Y50.9093
G1 X42.7632
G1 Y51.9093
G1 F300.0 Z-4.7
G1 F800.0 X57.7632
G1 Y50.9093
G1 X42.7632
G1 Y51.9093
G0 Z3.0
G0 X43.0004 Y37.2858
G0 Z1.0
G1 F300.0 Z-1.0
G1 F800.0 X58.0004
G1 Y36.2858
G1 X43.0004
G1 Y37.2858
G1 F300.0 Z-2.0
G1 F800.0 X58.0004
G1 Y36.2858
G1 X43.0004
G1 Y37.2858
G1 F300.0 Z-3.0
G1 F800.0 X58.0004
G1 Y36.2858
G1 X43.0004
G1 Y37.2858
G1 F300.0 Z-4.0
G1 F800.0 X58.0004
G1 Y36.2858
G1 X43.0004
G1 Y37.2858
G1 F300.0 Z-4.7
G1 F800.0 X58.0004
G1 Y36.2858
G1 X43.0004
G1 Y37.2858
G0 Z3.0
G0 Y11.4978
G0 Z1.0
G1 F300.0 Z-1.0
G1 F800.0 X58.0004
G1 Y10.4978
G1 X43.0004
G1 Y11.4978
G1 F300.0 Z-2.0
G1 F800.0 X58.0004
G1 Y10.4978
G1 X43.0004
G1 Y11.4978
G1 F300.0 Z-3.0
G1 F800.0 X58.0004
G1 Y10.4978
G1 X43.0004
G1 Y11.4978
G1 F300.0 Z-4.0
G1 F800.0 X58.0004
G1 Y10.4978
G1 X43.0004
G1 Y11.4978
G1 F300.0 Z-4.7
G1 F800.0 X58.0004
G1 Y10.4978
G1 X43.0004
G1 Y11.4978
( Contour3 )
S1000
G0 Z3.0
G0 X38.0004 Y5.2978
G0 Z1.0
G1 F300.0 Z-1.0
G1 F800.0 X63.0004
G3X64.0004Y6.2978I0.0J1.0
G1 Y23.2978
G3X62.8424Y24.2853I-1.0J0.0
G1 X37.8424 Y20.2853
G3X37.0004Y19.2978I0.158J-0.9874
G1 Y6.2978
G3X38.0004Y5.2978I1.0J0.0
G1 F300.0 Z-2.0
G1 F800.0 X48.5
G1 X50.0 Z-1.7
G1 X52.0
G1 X53.5 Z-2.0
G1 X63.0004
G3X64.0004Y6.2978I0.0J1.0
G1 Y12.5
G1 Y14.0 Z-1.7
G1 Y16.0
G1 Y17.5 Z-2.0
G1 Y23.2978
G3X62.8424Y24.2853I-1.0J0.0
G1 X37.8424 Y20.2853
G3X37.0004Y19.2978I0.158J-0.9874
G1 Y16.5
G1 Y15.0 Z-1.7
G1 Y13.0
G1 Y11.5 Z-2.0
G1 Y6.2978
G3X38.0004Y5.2978I1.0J0.0
G1 F300.0 Z-3.0
G1 F800.0 X48.5
G1 X50.0 Z-1.7
G1 X52.0
G1 X53.5 Z-3.0
G1 X63.0004
G3X64.0004Y6.2978I0.0J1.0
G1 Y12.5
G1 Y14.0 Z-1.7
G1 Y16.0
G1 Y17.5 Z-3.0
G1 Y23.2978
G3X62.8424Y24.2853I-1.0J0.0
G1 X37.8424 Y20.2853
G3X37.0004Y19.2978I0.158J-0.9874
G1 Y16.5
G1 Y15.0 Z-1.7
G1 Y13.0
G1 Y11.5 Z-3.0
G1 Y6.2978
G3X38.0004Y5.2978I1.0J0.0
G1 F300.0 Z-4.0
G1 F800.0 X48.5
G1 X50.0 Z-1.7
G1 X52.0
G1 X53.5 Z-4.0
G1 X63.0004
G3X64.0004Y6.2978I0.0J1.0
G1 Y12.5
G1 Y14.0 Z-1.7
G1 Y16.0
G1 Y17.5 Z-4.0
G1 Y23.2978
G3X62.8424Y24.2853I-1.0J0.0
G1 X37.8424 Y20.2853
G3X37.0004Y19.2978I0.158J-0.9874
G1 Y16.5
G1 Y15.0 Z-1.7
G1 Y13.0
G1 Y11.5 Z-4.0
G1 Y6.2978
G3X38.0004Y5.2978I1.0J0.0
G1 F300.0 Z-4.7
G1 F800.0 X48.5
G1 X50.0 Z-1.7
G1 X52.0
G1 X53.5 Z-4.7
G1 X63.0004
G3X64.0004Y6.2978I0.0J1.0
G1 Y12.5
G1 Y14.0 Z-1.7
G1 Y16.0
G1 Y17.5 Z-4.7
G1 Y23.2978
G3X62.8424Y24.2853I-1.0J0.0
G1 X37.8424 Y20.2853
G3X37.0004Y19.2978I0.158J-0.9874
G1 Y16.5
G1 Y15.0 Z-1.7
G1 Y13.0
G1 Y11.5 Z-4.7
G1 Y6.2978
G3X38.0004Y5.2978I1.0J0.0
G0 Z3.0
G0 Y23.4858
G0 Z1.0
G1 F300.0 Z-1.0
F800.0
G3X38.1584Y23.4984I0.0J1.0
G1 X63.1584 Y27.4984
G3X64.0004Y28.4858I-0.158J0.9874
G1 Y41.4858
G3X63.0004Y42.4858I-1.0J0.0
G1 X38.0004
G3X37.0004Y41.4858I0.0J-1.0
G1 Y24.4858
G3X38.0004Y23.4858I1.0J0.0
G1 F300.0 Z-2.0
F800.0
G3X38.1584Y23.4984I0.0J1.0
G1 X63.1584 Y27.4984
G3X64.0004Y28.4858I-0.158J0.9874
G1 Y31.5
G1 Y33.0 Z-1.7
G1 Y35.0
G1 Y36.5 Z-2.0
G1 Y41.4858
G3X63.0004Y42.4858I-1.0J0.0
G1 X53.5
G1 X52.0 Z-1.7
G1 X50.0
G1 X48.5 Z-2.0
G1 X38.0004
G3X37.0004Y41.4858I0.0J-1.0
G1 Y36.5
G1 Y35.0 Z-1.7
G1 Y33.0
G1 Y31.5 Z-2.0
G1 Y24.4858
G3X38.0004Y23.4858I1.0J0.0
G1 F300.0 Z-3.0
F800.0
G3X38.1584Y23.4984I0.0J1.0
G1 X63.1584 Y27.4984
G3X64.0004Y28.4858I-0.158J0.9874
G1 Y31.5
G1 Y33.0 Z-1.7
G1 Y35.0
G1 Y36.5 Z-3.0
G1 Y41.4858
G3X63.0004Y42.4858I-1.0J0.0
G1 X53.5
G1 X52.0 Z-1.7
G1 X50.0
G1 X48.5 Z-3.0
G1 X38.0004
G3X37.0004Y41.4858I0.0J-1.0
G1 Y36.5
G1 Y35.0 Z-1.7
G1 Y33.0
G1 Y31.5 Z-3.0
G1 Y24.4858
G3X38.0004Y23.4858I1.0J0.0
G1 F300.0 Z-4.0
F800.0
G3X38.1584Y23.4984I0.0J1.0
G1 X63.1584 Y27.4984
G3X64.0004Y28.4858I-0.158J0.9874
G1 Y31.5
G1 Y33.0 Z-1.7
G1 Y35.0
G1 Y36.5 Z-4.0
G1 Y41.4858
G3X63.0004Y42.4858I-1.0J0.0
G1 X53.5
G1 X52.0 Z-1.7
G1 X50.0
G1 X48.5 Z-4.0
G1 X38.0004
G3X37.0004Y41.4858I0.0J-1.0
G1 Y36.5
G1 Y35.0 Z-1.7
G1 Y33.0
G1 Y31.5 Z-4.0
G1 Y24.4858
G3X38.0004Y23.4858I1.0J0.0
G1 F300.0 Z-4.7
F800.0
G3X38.1584Y23.4984I0.0J1.0
G1 X63.1584 Y27.4984
G3X64.0004Y28.4858I-0.158J0.9874
G1 Y31.5
G1 Y33.0 Z-1.7
G1 Y35.0
G1 Y36.5 Z-4.7
G1 Y41.4858
G3X63.0004Y42.4858I-1.0J0.0
G1 X53.5
G1 X52.0 Z-1.7
G1 X50.0
G1 X48.5 Z-4.7
G1 X38.0004
G3X37.0004Y41.4858I0.0J-1.0
G1 Y36.5
G1 Y35.0 Z-1.7
G1 Y33.0
G1 Y31.5 Z-4.7
G1 Y24.4858
G3X38.0004Y23.4858I1.0J0.0
G0 Z3.0
G0 Y45.7093
G0 Z1.0
G1 F300.0 Z-1.0
G1 F800.0 X62.7632
G3X63.7632Y46.7093I0.0J1.0
G1 Y63.7093
G3X62.6052Y64.6967I-1.0J0.0
G1 X37.6052 Y60.6967
G3X36.7632Y59.7093I0.158J-0.9874
G1 Y46.7093
G3X37.7632Y45.7093I1.0J0.0
G1 X38.0004
G1 F300.0 Z-2.0
G1 F800.0 X48.6495
G1 X50.1495 Z-1.7
G1 X52.1495
G1 X53.6495 Z-2.0
G1 X62.7632
G3X63.7632Y46.7093I0.0J1.0
G1 Y53.5
G1 Y55.0 Z-1.7
G1 Y57.0
G1 Y58.5 Z-2.0
G1 Y63.7093
G3X62.6052Y64.6967I-1.0J0.0
G1 X37.6052 Y60.6967
G3X36.7632Y59.7093I0.158J-0.9874
G1 Y57.5
G1 Y56.0 Z-1.7
G1 Y54.0
G1 Y52.5 Z-2.0
G1 Y46.7093
G3X37.7632Y45.7093I1.0J0.0
G1 X38.0004
G1 F300.0 Z-3.0
G1 F800.0 X48.6495
G1 X50.1495 Z-1.7
G1 X52.1495
G1 X53.6495 Z-3.0
G1 X62.7632
G3X63.7632Y46.7093I0.0J1.0
G1 Y53.5
G1 Y55.0 Z-1.7
G1 Y57.0
G1 Y58.5 Z-3.0
G1 Y63.7093
G3X62.6052Y64.6967I-1.0J0.0
G1 X37.6052 Y60.6967
G3X36.7632Y59.7093I0.158J-0.9874
G1 Y57.5
G1 Y56.0 Z-1.7
G1 Y54.0
G1 Y52.5 Z-3.0
G1 Y46.7093
G3X37.7632Y45.7093I1.0J0.0
G1 X38.0004
G1 F300.0 Z-4.0
G1 F800.0 X48.6495
G1 X50.1495 Z-1.7
G1 X52.1495
G1 X53.6495 Z-4.0
G1 X62.7632
G3X63.7632Y46.7093I0.0J1.0
G1 Y53.5
G1 Y55.0 Z-1.7
G1 Y57.0
G1 Y58.5 Z-4.0
G1 Y63.7093
G3X62.6052Y64.6967I-1.0J0.0
G1 X37.6052 Y60.6967
G3X36.7632Y59.7093I0.158J-0.9874
G1 Y57.5
G1 Y56.0 Z-1.7
G1 Y54.0
G1 Y52.5 Z-4.0
G1 Y46.7093
G3X37.7632Y45.7093I1.0J0.0
G1 X38.0004
G1 F300.0 Z-4.7
G1 F800.0 X48.6495
G1 X50.1495 Z-1.7
G1 X52.1495
G1 X53.6495 Z-4.7
G1 X62.7632
G3X63.7632Y46.7093I0.0J1.0
G1 Y53.5
G1 Y55.0 Z-1.7
G1 Y57.0
G1 Y58.5 Z-4.7
G1 Y63.7093
G3X62.6052Y64.6967I-1.0J0.0
G1 X37.6052 Y60.6967
G3X36.7632Y59.7093I0.158J-0.9874
G1 Y57.5
G1 Y56.0 Z-1.7
G1 Y54.0
G1 Y52.5 Z-4.7
G1 Y46.7093
G3X37.7632Y45.7093I1.0J0.0
G1 X38.0004
G0 Z3.0
G0 X37.7756 Y63.8974
G0 Z1.0
G1 F300.0 Z-1.0
F800.0
G3X37.9212Y63.9099I-0.0124J0.9999
G1 X62.9212 Y67.9099
G3X63.7632Y68.8973I-0.158J0.9874
G1 Y81.8973
G3X62.7632Y82.8973I-1.0J0.0
G1 X37.7632
G3X36.7632Y81.8973I0.0J-1.0
G1 Y64.8973
G3X37.7756Y63.8974I1.0J0.0
G1 F300.0 Z-2.0
F800.0
G3X37.9212Y63.9099I-0.0124J0.9999
G1 X62.9212 Y67.9099
G3X63.7632Y68.8973I-0.158J0.9874
G1 Y72.5
G1 Y74.0 Z-1.7
G1 Y76.0
G1 Y77.5 Z-2.0
G1 Y81.8973
G3X62.7632Y82.8973I-1.0J0.0
G1 X52.5
G1 X51.0 Z-1.7
G1 X49.0
G1 X47.5 Z-2.0
G1 X37.7632
G3X36.7632Y81.8973I0.0J-1.0
G1 Y75.5
G1 Y74.0 Z-1.7
G1 Y72.0
G1 Y70.5 Z-2.0
G1 Y64.8973
G3X37.7756Y63.8974I1.0J0.0
G1 F300.0 Z-3.0
F800.0
G3X37.9212Y63.9099I-0.0124J0.9999
G1 X62.9212 Y67.9099
G3X63.7632Y68.8973I-0.158J0.9874
G1 Y72.5
G1 Y74.0 Z-1.7
G1 Y76.0
G1 Y77.5 Z-3.0
G1 Y81.8973
G3X62.7632Y82.8973I-1.0J0.0
G1 X52.5
G1 X51.0 Z-1.7
G1 X49.0
G1 X47.5 Z-3.0
G1 X37.7632
G3X36.7632Y81.8973I0.0J-1.0
G1 Y75.5
G1 Y74.0 Z-1.7
G1 Y72.0
G1 Y70.5 Z-3.0
G1 Y64.8973
G3X37.7756Y63.8974I1.0J0.0
G1 F300.0 Z-4.0
F800.0
G3X37.9212Y63.9099I-0.0124J0.9999
G1 X62.9212 Y67.9099
G3X63.7632Y68.8973I-0.158J0.9874
G1 Y72.5
G1 Y74.0 Z-1.7
G1 Y76.0
G1 Y77.5 Z-4.0
G1 Y81.8973
G3X62.7632Y82.8973I-1.0J0.0
G1 X52.5
G1 X51.0 Z-1.7
G1 X49.0
G1 X47.5 Z-4.0
G1 X37.7632
G3X36.7632Y81.8973I0.0J-1.0
G1 Y75.5
G1 Y74.0 Z-1.7
G1 Y72.0
G1 Y70.5 Z-4.0
G1 Y64.8973
G3X37.7756Y63.8974I1.0J0.0
G1 F300.0 Z-4.7
F800.0
G3X37.9212Y63.9099I-0.0124J0.9999
G1 X62.9212 Y67.9099
G3X63.7632Y68.8973I-0.158J0.9874
G1 Y72.5
G1 Y74.0 Z-1.7
G1 Y76.0
G1 Y77.5 Z-4.7
G1 Y81.8973
G3X62.7632Y82.8973I-1.0J0.0
G1 X52.5
G1 X51.0 Z-1.7
G1 X49.0
G1 X47.5 Z-4.7
G1 X37.7632
G3X36.7632Y81.8973I0.0J-1.0
G1 Y75.5
G1 Y74.0 Z-1.7
G1 Y72.0
G1 Y70.5 Z-4.7
G1 Y64.8973
G3X37.7756Y63.8974I1.0J0.0
G0 Z3.0
G0 Y85.7346
G0 Z1.0
G1 F300.0 Z-1.0
G1 F800.0 X62.4253
G3X63.4253Y86.7346I0.0J1.0
G1 Y103.7346
G3X62.2673Y104.722I-1.0J0.0
G1 X37.2673 Y100.722
G3X36.4253Y99.7346I0.158J-0.9874
G1 Y86.7346
G3X37.4253Y85.7346I1.0J0.0
G1 X37.7756
G1 F300.0 Z-2.0
G1 F800.0 X47.5
G1 X49.0 Z-1.7
G1 X51.0
G1 X52.5 Z-2.0
G1 X62.4253
G3X63.4253Y86.7346I0.0J1.0
G1 Y96.5
G1 Y98.0 Z-1.7
G1 Y100.0
G1 Y101.5 Z-2.0
G1 Y103.7346
G3X62.2673Y104.722I-1.0J0.0
G1 X37.2673 Y100.722
G3X36.4253Y99.7346I0.158J-0.9874
G1 Y96.5
G1 Y95.0 Z-1.7
G1 Y93.0
G1 Y91.5 Z-2.0
G1 Y86.7346
G3X37.4253Y85.7346I1.0J0.0
G1 X37.7756
G1 F300.0 Z-3.0
G1 F800.0 X47.5
G1 X49.0 Z-1.7
G1 X51.0
G1 X52.5 Z-3.0
G1 X62.4253
G3X63.4253Y86.7346I0.0J1.0
G1 Y96.5
G1 Y98.0 Z-1.7
G1 Y100.0
G1 Y101.5 Z-3.0
G1 Y103.7346
G3X62.2673Y104.722I-1.0J0.0
G1 X37.2673 Y100.722
G3X36.4253Y99.7346I0.158J-0.9874
G1 Y96.5
G1 Y95.0 Z-1.7
G1 Y93.0
G1 Y91.5 Z-3.0
G1 Y86.7346
G3X37.4253Y85.7346I1.0J0.0
G1 X37.7756
G1 F300.0 Z-4.0
G1 F800.0 X47.5
G1 X49.0 Z-1.7
G1 X51.0
G1 X52.5 Z-4.0
G1 X62.4253
G3X63.4253Y86.7346I0.0J1.0
G1 Y96.5
G1 Y98.0 Z-1.7
G1 Y100.0
G1 Y101.5 Z-4.0
G1 Y103.7346
G3X62.2673Y104.722I-1.0J0.0
G1 X37.2673 Y100.722
G3X36.4253Y99.7346I0.158J-0.9874
G1 Y96.5
G1 Y95.0 Z-1.7
G1 Y93.0
G1 Y91.5 Z-4.0
G1 Y86.7346
G3X37.4253Y85.7346I1.0J0.0
G1 X37.7756
G1 F300.0 Z-4.7
G1 F800.0 X47.5
G1 X49.0 Z-1.7
G1 X51.0
G1 X52.5 Z-4.7
G1 X62.4253
G3X63.4253Y86.7346I0.0J1.0
G1 Y96.5
G1 Y98.0 Z-1.7
G1 Y100.0
G1 Y101.5 Z-4.7
G1 Y103.7346
G3X62.2673Y104.722I-1.0J0.0
G1 X37.2673 Y100.722
G3X36.4253Y99.7346I0.158J-0.9874
G1 Y96.5
G1 Y95.0 Z-1.7
G1 Y93.0
G1 Y91.5 Z-4.7
G1 Y86.7346
G3X37.4253Y85.7346I1.0J0.0
G1 X37.7756
( Contour4 )
S1000
G0 Z3.0
G0 X72.7598 Y112.0115
G0 Z1.0
G1 F300.0 Z-1.0
G1 F800.0 X68.7598
G3X67.7598Y111.0115I0.0J-1.0
G1 Y94.0115
G3X68.9178Y93.0241I1.0J0.0
G1 X93.9178 Y97.0241
G3X94.7598Y98.0115I-0.158J0.9874
G1 Y111.0115
G3X93.7598Y112.0115I-1.0J0.0
G1 X89.7598
G3X88.7598Y111.0115I0.0J-1.0
G1 Y109.0115
G1 X73.7598
G1 Y111.0115
G3X72.7598Y112.0115I-1.0J0.0
G1 F300.0 Z-2.0
G1 F800.0 X68.7598
G3X67.7598Y111.0115I0.0J-1.0
G1 Y101.5
G1 Y100.0 Z-1.7
G1 Y98.0
G1 Y96.5 Z-2.0
G1 Y94.0115
G3X68.9178Y93.0241I1.0J0.0
G1 X93.9178 Y97.0241
G3X94.7598Y98.0115I-0.158J0.9874
G1 Y99.5
G1 Y101.0 Z-1.7
G1 Y103.0
G1 Y104.5 Z-2.0
G1 Y111.0115
G3X93.7598Y112.0115I-1.0J0.0
G1 X89.7598
G3X88.7598Y111.0115I0.0J-1.0
G1 Y109.0115
G1 X84.5
G1 X83.0 Z-1.7
G1 X81.0
G1 X79.5 Z-2.0
G1 X73.7598
G1 Y111.0115
G3X72.7598Y112.0115I-1.0J0.0
G1 F300.0 Z-3.0
G1 F800.0 X68.7598
G3X67.7598Y111.0115I0.0J-1.0
G1 Y101.5
G1 Y100.0 Z-1.7
G1 Y98.0
G1 Y96.5 Z-3.0
G1 Y94.0115
G3X68.9178Y93.0241I1.0J0.0
G1 X93.9178 Y97.0241
G3X94.7598Y98.0115I-0.158J0.9874
G1 Y99.5
G1 Y101.0 Z-1.7
G1 Y103.0
G1 Y104.5 Z-3.0
G1 Y111.0115
G3X93.7598Y112.0115I-1.0J0.0
G1 X89.7598
G3X88.7598Y111.0115I0.0J-1.0
G1 Y109.0115
G1 X84.5
G1 X83.0 Z-1.7
G1 X81.0
G1 X79.5 Z-3.0
G1 X73.7598
G1 Y111.0115
G3X72.7598Y112.0115I-1.0J0.0
G1 F300.0 Z-4.0
G1 F800.0 X68.7598
G3X67.7598Y111.0115I0.0J-1.0
G1 Y101.5
G1 Y100.0 Z-1.7
G1 Y98.0
G1 Y96.5 Z-4.0
G1 Y94.0115
G3X68.9178Y93.0241I1.0J0.0
G1 X93.9178 Y97.0241
G3X94.7598Y98.0115I-0.158J0.9874
G1 Y99.5
G1 Y101.0 Z-1.7
G1 Y103.0
G1 Y104.5 Z-4.0
G1 Y111.0115
G3X93.7598Y112.0115I-1.0J0.0
G1 X89.7598
G3X88.7598Y111.0115I0.0J-1.0
G1 Y109.0115
G1 X84.5
G1 X83.0 Z-1.7
G1 X81.0
G1 X79.5 Z-4.0
G1 X73.7598
G1 Y111.0115
G3X72.7598Y112.0115I-1.0J0.0
G1 F300.0 Z-4.7
G1 F800.0 X68.7598
G3X67.7598Y111.0115I0.0J-1.0
G1 Y101.5
G1 Y100.0 Z-1.7
G1 Y98.0
G1 Y96.5 Z-4.7
G1 Y94.0115
G3X68.9178Y93.0241I1.0J0.0
G1 X93.9178 Y97.0241
G3X94.7598Y98.0115I-0.158J0.9874
G1 Y99.5
G1 Y101.0 Z-1.7
G1 Y103.0
G1 Y104.5 Z-4.7
G1 Y111.0115
G3X93.7598Y112.0115I-1.0J0.0
G1 X89.7598
G3X88.7598Y111.0115I0.0J-1.0
G1 Y109.0115
G1 X84.5
G1 X83.0 Z-1.7
G1 X81.0
G1 X79.5 Z-4.7
G1 X73.7598
G1 Y111.0115
G3X72.7598Y112.0115I-1.0J0.0
G0 Z3.0
G0 X72.6695 Y90.3118
G0 Z1.0
G1 F300.0 Z-1.0
F800.0
G3X72.6653I-0.0042J-1.0
G1 X68.6653
G3X67.6653Y89.3118I0.0J-1.0
G1 Y81.3118
G3X68.5073Y80.3243I1.0J0.0
G1 X93.5073 Y76.3243
G3X94.6653Y77.3118I0.158J0.9874
G1 Y89.3118
G3X93.6653Y90.3118I-1.0J0.0
G1 X89.6653
G3X88.6653Y89.3118I0.0J-1.0
G1 Y87.3118
G1 X73.6653
G1 Y89.3118
G3X72.6695Y90.3118I-1.0J0.0
G1 F300.0 Z-2.0
F800.0
G3X72.6653I-0.0042J-1.0
G1 X68.6653
G3X67.6653Y89.3118I0.0J-1.0
G1 Y87.5
G1 Y86.0 Z-1.7
G1 Y84.0
G1 Y82.5 Z-2.0
G1 Y81.3118
G3X68.5073Y80.3243I1.0J0.0
G1 X93.5073 Y76.3243
G3X94.6653Y77.3118I0.158J0.9874
G1 Y82.5
G1 Y84.0 Z-1.7
G1 Y86.0
G1 Y87.5 Z-2.0
G1 Y89.3118
G3X93.6653Y90.3118I-1.0J0.0
G1 X89.6653
G3X88.6653Y89.3118I0.0J-1.0
G1 Y87.3118
G1 X83.5
G1 X82.0 Z-1.7
G1 X80.0
G1 X78.5 Z-2.0
G1 X73.6653
G1 Y89.3118
G3X72.6695Y90.3118I-1.0J0.0
G1 F300.0 Z-3.0
F800.0
G3X72.6653I-0.0042J-1.0
G1 X68.6653
G3X67.6653Y89.3118I0.0J-1.0
G1 Y87.5
G1 Y86.0 Z-1.7
G1 Y84.0
G1 Y82.5 Z-3.0
G1 Y81.3118
G3X68.5073Y80.3243I1.0J0.0
G1 X93.5073 Y76.3243
G3X94.6653Y77.3118I0.158J0.9874
G1 Y82.5
G1 Y84.0 Z-1.7
G1 Y86.0
G1 Y87.5 Z-3.0
G1 Y89.3118
G3X93.6653Y90.3118I-1.0J0.0
G1 X89.6653
G3X88.6653Y89.3118I0.0J-1.0
G1 Y87.3118
G1 X83.5
G1 X82.0 Z-1.7
G1 X80.0
G1 X78.5 Z-3.0
G1 X73.6653
G1 Y89.3118
G3X72.6695Y90.3118I-1.0J0.0
G1 F300.0 Z-4.0
F800.0
G3X72.6653I-0.0042J-1.0
G1 X68.6653
G3X67.6653Y89.3118I0.0J-1.0
G1 Y87.5
G1 Y86.0 Z-1.7
G1 Y84.0
G1 Y82.5 Z-4.0
G1 Y81.3118
G3X68.5073Y80.3243I1.0J0.0
G1 X93.5073 Y76.3243
G3X94.6653Y77.3118I0.158J0.9874
G1 Y82.5
G1 Y84.0 Z-1.7
G1 Y86.0
G1 Y87.5 Z-4.0
G1 Y89.3118
G3X93.6653Y90.3118I-1.0J0.0
G1 X89.6653
G3X88.6653Y89.3118I0.0J-1.0
G1 Y87.3118
G1 X83.5
G1 X82.0 Z-1.7
G1 X80.0
G1 X78.5 Z-4.0
G1 X73.6653
G1 Y89.3118
G3X72.6695Y90.3118I-1.0J0.0
G1 F300.0 Z-4.7
F800.0
G3X72.6653I-0.0042J-1.0
G1 X68.6653
G3X67.6653Y89.3118I0.0J-1.0
G1 Y87.5
G1 Y86.0 Z-1.7
G1 Y84.0
G1 Y82.5 Z-4.7
G1 Y81.3118
G3X68.5073Y80.3243I1.0J0.0
G1 X93.5073 Y76.3243
G3X94.6653Y77.3118I0.158J0.9874
G1 Y82.5
G1 Y84.0 Z-1.7
G1 Y86.0
G1 Y87.5 Z-4.7
G1 Y89.3118
G3X93.6653Y90.3118I-1.0J0.0
G1 X89.6653
G3X88.6653Y89.3118I0.0J-1.0
G1 Y87.3118
G1 X83.5
G1 X82.0 Z-1.7
G1 X80.0
G1 X78.5 Z-4.7
G1 X73.6653
G1 Y89.3118
G3X72.6695Y90.3118I-1.0J0.0
G0 Z3.0
G0 X70.6336 Y77.5876
G0 Z1.0
G1 F300.0 Z-1.0
G1 F800.0 X68.8555 Y77.8721
G3X67.6975Y76.8846I-0.158J-0.9874
G1 Y64.8846
G3X68.6975Y63.8846I1.0J0.0
G1 X72.6975
G3X73.6975Y64.8846I0.0J1.0
G1 Y66.8846
G1 X88.6975
G1 Y64.8846
G3X89.6975Y63.8846I1.0J0.0
G1 X93.6975
G3X94.6975Y64.8846I0.0J1.0
G1 Y72.8846
G3X93.8555Y73.8721I-1.0J0.0
G1 X70.6336 Y77.5876
G1 F300.0 Z-2.0
G1 F800.0 X68.8555 Y77.8721
G3X67.6975Y76.8846I-0.158J-0.9874
G1 Y74.5
G1 Y73.0 Z-1.7
G1 Y71.0
G1 Y69.5 Z-2.0
G1 Y64.8846
G3X68.6975Y63.8846I1.0J0.0
G1 X72.6975
G3X73.6975Y64.8846I0.0J1.0
G1 Y66.8846
G1 X79.5
G1 X81.0 Z-1.7
G1 X83.0
G1 X84.5 Z-2.0
G1 X88.6975
G1 Y64.8846
G3X89.6975Y63.8846I1.0J0.0
G1 X93.6975
G3X94.6975Y64.8846I0.0J1.0
G1 Y66.5
G1 Y68.0 Z-1.7
G1 Y70.0
G1 Y71.5 Z-2.0
G1 Y72.8846
G3X93.8555Y73.8721I-1.0J0.0
G1 X70.6336 Y77.5876
G1 F300.0 Z-3.0
G1 F800.0 X68.8555 Y77.8721
G3X67.6975Y76.8846I-0.158J-0.9874
G1 Y74.5
G1 Y73.0 Z-1.7
G1 Y71.0
G1 Y69.5 Z-3.0
G1 Y64.8846
G3X68.6975Y63.8846I1.0J0.0
G1 X72.6975
G3X73.6975Y64.8846I0.0J1.0
G1 Y66.8846
G1 X79.5
G1 X81.0 Z-1.7
G1 X83.0
G1 X84.5 Z-3.0
G1 X88.6975
G1 Y64.8846
G3X89.6975Y63.8846I1.0J0.0
G1 X93.6975
G3X94.6975Y64.8846I0.0J1.0
G1 Y66.5
G1 Y68.0 Z-1.7
G1 Y70.0
G1 Y71.5 Z-3.0
G1 Y72.8846
G3X93.8555Y73.8721I-1.0J0.0
G1 X70.6336 Y77.5876
G1 F300.0 Z-4.0
G1 F800.0 X68.8555 Y77.8721
G3X67.6975Y76.8846I-0.158J-0.9874
G1 Y74.5
G1 Y73.0 Z-1.7
G1 Y71.0
G1 Y69.5 Z-4.0
G1 Y64.8846
G3X68.6975Y63.8846I1.0J0.0
G1 X72.6975
G3X73.6975Y64.8846I0.0J1.0
G1 Y66.8846
G1 X79.5
G1 X81.0 Z-1.7
G1 X83.0
G1 X84.5 Z-4.0
G1 X88.6975
G1 Y64.8846
G3X89.6975Y63.8846I1.0J0.0
G1 X93.6975
G3X94.6975Y64.8846I0.0J1.0
G1 Y66.5
G1 Y68.0 Z-1.7
G1 Y70.0
G1 Y71.5 Z-4.0
G1 Y72.8846
G3X93.8555Y73.8721I-1.0J0.0
G1 X70.6336 Y77.5876
G1 F300.0 Z-4.7
G1 F800.0 X68.8555 Y77.8721
G3X67.6975Y76.8846I-0.158J-0.9874
G1 Y74.5
G1 Y73.0 Z-1.7
G1 Y71.0
G1 Y69.5 Z-4.7
G1 Y64.8846
G3X68.6975Y63.8846I1.0J0.0
G1 X72.6975
G3X73.6975Y64.8846I0.0J1.0
G1 Y66.8846
G1 X79.5
G1 X81.0 Z-1.7
G1 X83.0
G1 X84.5 Z-4.7
G1 X88.6975
G1 Y64.8846
G3X89.6975Y63.8846I1.0J0.0
G1 X93.6975
G3X94.6975Y64.8846I0.0J1.0
G1 Y66.5
G1 Y68.0 Z-1.7
G1 Y70.0
G1 Y71.5 Z-4.7
G1 Y72.8846
G3X93.8555Y73.8721I-1.0J0.0
G1 X70.6336 Y77.5876
G0 Z3.0
G0 Y61.2676
G0 Z1.0
G1 F300.0 Z-1.0
G1 F800.0 X68.8342
G3X67.8342Y60.2676I0.0J-1.0
G1 Y52.2676
G3X68.6763Y51.2802I1.0J0.0
G1 X93.6763 Y47.2802
G3X94.8342Y48.2676I0.158J0.9874
G1 Y60.2676
G3X93.8342Y61.2676I-1.0J0.0
G1 X89.8342
G3X88.8342Y60.2676I0.0J-1.0
G1 Y58.2676
G1 X73.8342
G1 Y60.2676
G3X72.8342Y61.2676I-1.0J0.0
G1 X70.6336
G1 F300.0 Z-2.0
G1 F800.0 X68.8342
G3X67.8342Y60.2676I0.0J-1.0
G1 Y58.5
G1 Y57.0 Z-1.7
G1 Y55.0
G1 Y53.5 Z-2.0
G1 Y52.2676
G3X68.6763Y51.2802I1.0J0.0
G1 X93.6763 Y47.2802
G3X94.8342Y48.2676I0.158J0.9874
G1 Y53.5
G1 Y55.0 Z-1.7
G1 Y57.0
G1 Y58.5 Z-2.0
G1 Y60.2676
G3X93.8342Y61.2676I-1.0J0.0
G1 X89.8342
G3X88.8342Y60.2676I0.0J-1.0
G1 Y58.2676
G1 X83.5
G1 X82.0 Z-1.7
G1 X80.0
G1 X78.5 Z-2.0
G1 X73.8342
G1 Y60.2676
G3X72.8342Y61.2676I-1.0J0.0
G1 X70.6336
G1 F300.0 Z-3.0
G1 F800.0 X68.8342
G3X67.8342Y60.2676I0.0J-1.0
G1 Y58.5
G1 Y57.0 Z-1.7
G1 Y55.0
G1 Y53.5 Z-3.0
G1 Y52.2676
G3X68.6763Y51.2802I1.0J0.0
G1 X93.6763 Y47.2802
G3X94.8342Y48.2676I0.158J0.9874
G1 Y53.5
G1 Y55.0 Z-1.7
G1 Y57.0
G1 Y58.5 Z-3.0
G1 Y60.2676
G3X93.8342Y61.2676I-1.0J0.0
G1 X89.8342
G3X88.8342Y60.2676I0.0J-1.0
G1 Y58.2676
G1 X83.5
G1 X82.0 Z-1.7
G1 X80.0
G1 X78.5 Z-3.0
G1 X73.8342
G1 Y60.2676
G3X72.8342Y61.2676I-1.0J0.0
G1 X70.6336
G1 F300.0 Z-4.0
G1 F800.0 X68.8342
G3X67.8342Y60.2676I0.0J-1.0
G1 Y58.5
G1 Y57.0 Z-1.7
G1 Y55.0
G1 Y53.5 Z-4.0
G1 Y52.2676
G3X68.6763Y51.2802I1.0J0.0
G1 X93.6763 Y47.2802
G3X94.8342Y48.2676I0.158J0.9874
G1 Y53.5
G1 Y55.0 Z-1.7
G1 Y57.0
G1 Y58.5 Z-4.0
G1 Y60.2676
G3X93.8342Y61.2676I-1.0J0.0
G1 X89.8342
G3X88.8342Y60.2676I0.0J-1.0
G1 Y58.2676
G1 X83.5
G1 X82.0 Z-1.7
G1 X80.0
G1 X78.5 Z-4.0
G1 X73.8342
G1 Y60.2676
G3X72.8342Y61.2676I-1.0J0.0
G1 X70.6336
G1 F300.0 Z-4.7
G1 F800.0 X68.8342
G3X67.8342Y60.2676I0.0J-1.0
G1 Y58.5
G1 Y57.0 Z-1.7
G1 Y55.0
G1 Y53.5 Z-4.7
G1 Y52.2676
G3X68.6763Y51.2802I1.0J0.0
G1 X93.6763 Y47.2802
G3X94.8342Y48.2676I0.158J0.9874
G1 Y53.5
G1 Y55.0 Z-1.7
G1 Y57.0
G1 Y58.5 Z-4.7
G1 Y60.2676
G3X93.8342Y61.2676I-1.0J0.0
G1 X89.8342
G3X88.8342Y60.2676I0.0J-1.0
G1 Y58.2676
G1 X83.5
G1 X82.0 Z-1.7
G1 X80.0
G1 X78.5 Z-4.7
G1 X73.8342
G1 Y60.2676
G3X72.8342Y61.2676I-1.0J0.0
G1 X70.6336
G0 Z3.0
G0 X68.9969 Y48.8319
G0 Z1.0
G1 F300.0 Z-1.0
F800.0
G3X67.8664Y47.8405I-0.1305J-0.9914
G1 Y35.8405
G3X68.8664Y34.8405I1.0J0.0
G1 X72.8664
G3X73.8664Y35.8405I0.0J1.0
G1 Y37.8405
G1 X88.8664
G1 Y35.8405
G3X89.8664Y34.8405I1.0J0.0
G1 X93.8664
G3X94.8664Y35.8405I0.0J1.0
G1 Y43.8405
G3X94.0244Y44.8279I-1.0J0.0
G1 X69.0244 Y48.8279
G3X68.9969Y48.8319I-0.158J-0.9874
G1 F300.0 Z-2.0
F800.0
G3X67.8664Y47.8405I-0.1305J-0.9914
G1 Y45.5
G1 Y44.0 Z-1.7
G1 Y42.0
G1 Y40.5 Z-2.0
G1 Y35.8405
G3X68.8664Y34.8405I1.0J0.0
G1 X72.8664
G3X73.8664Y35.8405I0.0J1.0
G1 Y37.8405
G1 X77.6467
G1 X79.1467 Z-1.7
G1 X81.1467
G1 X82.6467 Z-2.0
G1 X88.8664
G1 Y35.8405
G3X89.8664Y34.8405I1.0J0.0
G1 X93.8664
G3X94.8664Y35.8405I0.0J1.0
G1 Y37.5
G1 Y39.0 Z-1.7
G1 Y41.0
G1 Y42.5 Z-2.0
G1 Y43.8405
G3X94.0244Y44.8279I-1.0J0.0
G1 X69.0244 Y48.8279
G3X68.9969Y48.8319I-0.158J-0.9874
G1 F300.0 Z-3.0
F800.0
G3X67.8664Y47.8405I-0.1305J-0.9914
G1 Y45.5
G1 Y44.0 Z-1.7
G1 Y42.0
G1 Y40.5 Z-3.0
G1 Y35.8405
G3X68.8664Y34.8405I1.0J0.0
G1 X72.8664
G3X73.8664Y35.8405I0.0J1.0
G1 Y37.8405
G1 X77.6467
G1 X79.1467 Z-1.7
G1 X81.1467
G1 X82.6467 Z-3.0
G1 X88.8664
G1 Y35.8405
G3X89.8664Y34.8405I1.0J0.0
G1 X93.8664
G3X94.8664Y35.8405I0.0J1.0
G1 Y37.5
G1 Y39.0 Z-1.7
G1 Y41.0
G1 Y42.5 Z-3.0
G1 Y43.8405
G3X94.0244Y44.8279I-1.0J0.0
G1 X69.0244 Y48.8279
G3X68.9969Y48.8319I-0.158J-0.9874
G1 F300.0 Z-4.0
F800.0
G3X67.8664Y47.8405I-0.1305J-0.9914
G1 Y45.5
G1 Y44.0 Z-1.7
G1 Y42.0
G1 Y40.5 Z-4.0
G1 Y35.8405
G3X68.8664Y34.8405I1.0J0.0
G1 X72.8664
G3X73.8664Y35.8405I0.0J1.0
G1 Y37.8405
G1 X77.6467
G1 X79.1467 Z-1.7
G1 X81.1467
G1 X82.6467 Z-4.0
G1 X88.8664
G1 Y35.8405
G3X89.8664Y34.8405I1.0J0.0
G1 X93.8664
G3X94.8664Y35.8405I0.0J1.0
G1 Y37.5
G1 Y39.0 Z-1.7
G1 Y41.0
G1 Y42.5 Z-4.0
G1 Y43.8405
G3X94.0244Y44.8279I-1.0J0.0
G1 X69.0244 Y48.8279
G3X68.9969Y48.8319I-0.158J-0.9874
G1 F300.0 Z-4.7
F800.0
G3X67.8664Y47.8405I-0.1305J-0.9914
G1 Y45.5
G1 Y44.0 Z-1.7
G1 Y42.0
G1 Y40.5 Z-4.7
G1 Y35.8405
G3X68.8664Y34.8405I1.0J0.0
G1 X72.8664
G3X73.8664Y35.8405I0.0J1.0
G1 Y37.8405
G1 X77.6467
G1 X79.1467 Z-1.7
G1 X81.1467
G1 X82.6467 Z-4.7
G1 X88.8664
G1 Y35.8405
G3X89.8664Y34.8405I1.0J0.0
G1 X93.8664
G3X94.8664Y35.8405I0.0J1.0
G1 Y37.5
G1 Y39.0 Z-1.7
G1 Y41.0
G1 Y42.5 Z-4.7
G1 Y43.8405
G3X94.0244Y44.8279I-1.0J0.0
G1 X69.0244 Y48.8279
G3X68.9969Y48.8319I-0.158J-0.9874
G0 Z3.0
G0 Y32.0047
G0 Z1.0
G1 F300.0 Z-1.0
G1 F800.0 X68.7059
G3X67.7059Y31.0047I0.0J-1.0
G1 Y23.0047
G3X68.5479Y22.0172I1.0J0.0
G1 X93.5479 Y18.0172
G3X94.7059Y19.0047I0.158J0.9874
G1 Y31.0047
G3X93.7059Y32.0047I-1.0J0.0
G1 X89.7059
G3X88.7059Y31.0047I0.0J-1.0
G1 Y29.0047
G1 X73.7059
G1 Y31.0047
G3X72.7059Y32.0047I-1.0J0.0
G1 X68.9969
G1 F300.0 Z-2.0
G1 F800.0 X68.7059
G3X67.7059Y31.0047I0.0J-1.0
G1 Y29.5
G1 Y28.0 Z-1.7
G1 Y26.0
G1 Y24.5 Z-2.0
G1 Y23.0047
G3X68.5479Y22.0172I1.0J0.0
G1 X93.5479 Y18.0172
G3X94.7059Y19.0047I0.158J0.9874
G1 Y24.5
G1 Y26.0 Z-1.7
G1 Y28.0
G1 Y29.5 Z-2.0
G1 Y31.0047
G3X93.7059Y32.0047I-1.0J0.0
G1 X89.7059
G3X88.7059Y31.0047I0.0J-1.0
G1 Y29.0047
G1 X83.5
G1 X82.0 Z-1.7
G1 X80.0
G1 X78.5 Z-2.0
G1 X73.7059
G1 Y31.0047
G3X72.7059Y32.0047I-1.0J0.0
G1 X68.9969
G1 F300.0 Z-3.0
G1 F800.0 X68.7059
G3X67.7059Y31.0047I0.0J-1.0
G1 Y29.5
G1 Y28.0 Z-1.7
G1 Y26.0
G1 Y24.5 Z-3.0
G1 Y23.0047
G3X68.5479Y22.0172I1.0J0.0
G1 X93.5479 Y18.0172
G3X94.7059Y19.0047I0.158J0.9874
G1 Y24.5
G1 Y26.0 Z-1.7
G1 Y28.0
G1 Y29.5 Z-3.0
G1 Y31.0047
G3X93.7059Y32.0047I-1.0J0.0
G1 X89.7059
G3X88.7059Y31.0047I0.0J-1.0
G1 Y29.0047
G1 X83.5
G1 X82.0 Z-1.7
G1 X80.0
G1 X78.5 Z-3.0
G1 X73.7059
G1 Y31.0047
G3X72.7059Y32.0047I-1.0J0.0
G1 X68.9969
G1 F300.0 Z-4.0
G1 F800.0 X68.7059
G3X67.7059Y31.0047I0.0J-1.0
G1 Y29.5
G1 Y28.0 Z-1.7
G1 Y26.0
G1 Y24.5 Z-4.0
G1 Y23.0047
G3X68.5479Y22.0172I1.0J0.0
G1 X93.5479 Y18.0172
G3X94.7059Y19.0047I0.158J0.9874
G1 Y24.5
G1 Y26.0 Z-1.7
G1 Y28.0
G1 Y29.5 Z-4.0
G1 Y31.0047
G3X93.7059Y32.0047I-1.0J0.0
G1 X89.7059
G3X88.7059Y31.0047I0.0J-1.0
G1 Y29.0047
G1 X83.5
G1 X82.0 Z-1.7
G1 X80.0
G1 X78.5 Z-4.0
G1 X73.7059
G1 Y31.0047
G3X72.7059Y32.0047I-1.0J0.0
G1 X68.9969
G1 F300.0 Z-4.7
G1 F800.0 X68.7059
G3X67.7059Y31.0047I0.0J-1.0
G1 Y29.5
G1 Y28.0 Z-1.7
G1 Y26.0
G1 Y24.5 Z-4.7
G1 Y23.0047
G3X68.5479Y22.0172I1.0J0.0
G1 X93.5479 Y18.0172
G3X94.7059Y19.0047I0.158J0.9874
G1 Y24.5
G1 Y26.0 Z-1.7
G1 Y28.0
G1 Y29.5 Z-4.7
G1 Y31.0047
G3X93.7059Y32.0047I-1.0J0.0
G1 X89.7059
G3X88.7059Y31.0047I0.0J-1.0
G1 Y29.0047
G1 X83.5
G1 X82.0 Z-1.7
G1 X80.0
G1 X78.5 Z-4.7
G1 X73.7059
G1 Y31.0047
G3X72.7059Y32.0047I-1.0J0.0
G1 X68.9969
G0 Z3.0
G0 X68.7574 Y19.5774
G0 Z1.0
G1 F300.0 Z-1.0
F800.0
G3X67.7381Y18.5776I-0.0193J-0.9998
G1 Y6.5776
G3X68.7381Y5.5776I1.0J0.0
G1 X72.7381
G3X73.7381Y6.5776I0.0J1.0
G1 Y8.5776
G1 X88.7381
G1 Y6.5776
G3X89.7381Y5.5776I1.0J0.0
G1 X93.7381
G3X94.7381Y6.5776I0.0J1.0
G1 Y14.5776
G3X93.8961Y15.565I-1.0J0.0
G1 X68.8961 Y19.565
G3X68.7574Y19.5774I-0.158J-0.9874
G1 F300.0 Z-2.0
F800.0
G3X67.7381Y18.5776I-0.0193J-0.9998
G1 Y17.5
G1 Y16.0 Z-1.7
G1 Y14.0
G1 Y12.5 Z-2.0
G1 Y6.5776
G3X68.7381Y5.5776I1.0J0.0
G1 X72.7381
G3X73.7381Y6.5776I0.0J1.0
G1 Y8.5776
G1 X78.5
G1 X80.0 Z-1.7
G1 X82.0
G1 X83.5 Z-2.0
G1 X88.7381
G1 Y6.5776
G3X89.7381Y5.5776I1.0J0.0
G1 X93.7381
G3X94.7381Y6.5776I0.0J1.0
G1 Y8.5
G1 Y10.0 Z-1.7
G1 Y12.0
G1 Y13.5 Z-2.0
G1 Y14.5776
G3X93.8961Y15.565I-1.0J0.0
G1 X68.8961 Y19.565
G3X68.7574Y19.5774I-0.158J-0.9874
G1 F300.0 Z-3.0
F800.0
G3X67.7381Y18.5776I-0.0193J-0.9998
G1 Y17.5
G1 Y16.0 Z-1.7
G1 Y14.0
G1 Y12.5 Z-3.0
G1 Y6.5776
G3X68.7381Y5.5776I1.0J0.0
G1 X72.7381
G3X73.7381Y6.5776I0.0J1.0
G1 Y8.5776
G1 X78.5
G1 X80.0 Z-1.7
G1 X82.0
G1 X83.5 Z-3.0
G1 X88.7381
G1 Y6.5776
G3X89.7381Y5.5776I1.0J0.0
G1 X93.7381
G3X94.7381Y6.5776I0.0J1.0
G1 Y8.5
G1 Y10.0 Z-1.7
G1 Y12.0
G1 Y13.5 Z-3.0
G1 Y14.5776
G3X93.8961Y15.565I-1.0J0.0
G1 X68.8961 Y19.565
G3X68.7574Y19.5774I-0.158J-0.9874
G1 F300.0 Z-4.0
F800.0
G3X67.7381Y18.5776I-0.0193J-0.9998
G1 Y17.5
G1 Y16.0 Z-1.7
G1 Y14.0
G1 Y12.5 Z-4.0
G1 Y6.5776
G3X68.7381Y5.5776I1.0J0.0
G1 X72.7381
G3X73.7381Y6.5776I0.0J1.0
G1 Y8.5776
G1 X78.5
G1 X80.0 Z-1.7
G1 X82.0
G1 X83.5 Z-4.0
G1 X88.7381
G1 Y6.5776
G3X89.7381Y5.5776I1.0J0.0
G1 X93.7381
G3X94.7381Y6.5776I0.0J1.0
G1 Y8.5
G1 Y10.0 Z-1.7
G1 Y12.0
G1 Y13.5 Z-4.0
G1 Y14.5776
G3X93.8961Y15.565I-1.0J0.0
G1 X68.8961 Y19.565
G3X68.7574Y19.5774I-0.158J-0.9874
G1 F300.0 Z-4.7
F800.0
G3X67.7381Y18.5776I-0.0193J-0.9998
G1 Y17.5
G1 Y16.0 Z-1.7
G1 Y14.0
G1 Y12.5 Z-4.7
G1 Y6.5776
G3X68.7381Y5.5776I1.0J0.0
G1 X72.7381
G3X73.7381Y6.5776I0.0J1.0
G1 Y8.5776
G1 X78.5
G1 X80.0 Z-1.7
G1 X82.0
G1 X83.5 Z-4.7
G1 X88.7381
G1 Y6.5776
G3X89.7381Y5.5776I1.0J0.0
G1 X93.7381
G3X94.7381Y6.5776I0.0J1.0
G1 Y8.5
G1 Y10.0 Z-1.7
G1 Y12.0
G1 Y13.5 Z-4.7
G1 Y14.5776
G3X93.8961Y15.565I-1.0J0.0
G1 X68.8961 Y19.565
G3X68.7574Y19.5774I-0.158J-0.9874
( Contour5 )
S1000
G0 Z3.0
G0 X104.1354 Y11.8897
G0 Z1.0
G1 F300.0 Z-1.0
G1 F800.0 X119.1354
G1 Y10.8897
G1 X104.1354
G1 Y11.8897
G1 F300.0 Z-2.0
G1 F800.0 X119.1354
G1 Y10.8897
G1 X104.1354
G1 Y11.8897
G1 F300.0 Z-3.0
G1 F800.0 X119.1354
G1 Y10.8897
G1 X104.1354
G1 Y11.8897
G1 F300.0 Z-4.0
G1 F800.0 X119.1354
G1 Y10.8897
G1 X104.1354
G1 Y11.8897
G1 F300.0 Z-4.7
G1 F800.0 X119.1354
G1 Y10.8897
G1 X104.1354
G1 Y11.8897
G0 Z3.0
G0 X104.1692 Y25.9246
G0 Z1.0
G1 F300.0 Z-1.0
G1 F800.0 Y26.9246
G1 X119.1692
G1 Y25.9246
G1 X104.1692
G1 F300.0 Z-2.0
G1 F800.0 Y26.9246
G1 X119.1692
G1 Y25.9246
G1 X104.1692
G1 F300.0 Z-3.0
G1 F800.0 Y26.9246
G1 X119.1692
G1 Y25.9246
G1 X104.1692
G1 F300.0 Z-4.0
G1 F800.0 Y26.9246
G1 X119.1692
G1 Y25.9246
G1 X104.1692
G1 F300.0 Z-4.7
G1 F800.0 Y26.9246
G1 X119.1692
G1 Y25.9246
G1 X104.1692
G0 Z3.0
G0 X104.2637 Y40.1527
G0 Z1.0
G1 F300.0 Z-1.0
G1 F800.0 Y41.1527
G1 X119.2637
G1 Y40.1527
G1 X104.2637
G1 F300.0 Z-2.0
G1 F800.0 Y41.1527
G1 X119.2637
G1 Y40.1527
G1 X104.2637
G1 F300.0 Z-3.0
G1 F800.0 Y41.1527
G1 X119.2637
G1 Y40.1527
G1 X104.2637
G1 F300.0 Z-4.0
G1 F800.0 Y41.1527
G1 X119.2637
G1 Y40.1527
G1 X104.2637
G1 F300.0 Z-4.7
G1 F800.0 Y41.1527
G1 X119.2637
G1 Y40.1527
G1 X104.2637
G0 Z3.0
G0 X104.2975 Y55.1875
G0 Z1.0
G1 F300.0 Z-1.0
G1 F800.0 Y56.1875
G1 X119.2975
G1 Y55.1875
G1 X104.2975
G1 F300.0 Z-2.0
G1 F800.0 Y56.1875
G1 X119.2975
G1 Y55.1875
G1 X104.2975
G1 F300.0 Z-3.0
G1 F800.0 Y56.1875
G1 X119.2975
G1 Y55.1875
G1 X104.2975
G1 F300.0 Z-4.0
G1 F800.0 Y56.1875
G1 X119.2975
G1 Y55.1875
G1 X104.2975
G1 F300.0 Z-4.7
G1 F800.0 Y56.1875
G1 X119.2975
G1 Y55.1875
G1 X104.2975
G0 Z3.0
G0 Y69.1968
G0 Z1.0
G1 F300.0 Z-1.0
G1 F800.0 X104.0948
G1 Y70.1968
G1 X119.0948
G1 Y69.1968
G1 X104.2975
G1 F300.0 Z-2.0
G1 F800.0 X104.0948
G1 Y70.1968
G1 X119.0948
G1 Y69.1968
G1 X104.2975
G1 F300.0 Z-3.0
G1 F800.0 X104.0948
G1 Y70.1968
G1 X119.0948
G1 Y69.1968
G1 X104.2975
G1 F300.0 Z-4.0
G1 F800.0 X104.0948
G1 Y70.1968
G1 X119.0948
G1 Y69.1968
G1 X104.2975
G1 F300.0 Z-4.7
G1 F800.0 X104.0948
G1 Y70.1968
G1 X119.0948
G1 Y69.1968
G1 X104.2975
G0 Z3.0
G0 Y84.2317
G0 Z1.0
G1 F300.0 Z-1.0
G1 F800.0 X104.1286
G1 Y85.2317
G1 X119.1286
G1 Y84.2317
G1 X104.2975
G1 F300.0 Z-2.0
G1 F800.0 X104.1286
G1 Y85.2317
G1 X119.1286
G1 Y84.2317
G1 X104.2975
G1 F300.0 Z-3.0
G1 F800.0 X104.1286
G1 Y85.2317
G1 X119.1286
G1 Y84.2317
G1 X104.2975
G1 F300.0 Z-4.0
G1 F800.0 X104.1286
G1 Y85.2317
G1 X119.1286
G1 Y84.2317
G1 X104.2975
G1 F300.0 Z-4.7
G1 F800.0 X104.1286
G1 Y85.2317
G1 X119.1286
G1 Y84.2317
G1 X104.2975
G0 Z3.0
G0 X104.3075 Y105.6426
G0 Z1.0
G1 F300.0 Z-1.0
G1 F800.0 Y106.6426
G1 X119.3075
G1 Y105.6426
G1 X104.3075
G1 F300.0 Z-2.0
G1 F800.0 Y106.6426
G1 X119.3075
G1 Y105.6426
G1 X104.3075
G1 F300.0 Z-3.0
G1 F800.0 Y106.6426
G1 X119.3075
G1 Y105.6426
G1 X104.3075
G1 F300.0 Z-4.0
G1 F800.0 Y106.6426
G1 X119.3075
G1 Y105.6426
G1 X104.3075
G1 F300.0 Z-4.7
G1 F800.0 Y106.6426
G1 X119.3075
G1 Y105.6426
G1 X104.3075
( Contour6 )
S1000
G0 Z3.0
G0 X124.3075 Y111.8426
G0 Z1.0
G1 F300.0 Z-1.0
G1 F800.0 X99.3075
G3X98.3075Y110.8426I0.0J-1.0
G1 Y93.8426
G3X99.4655Y92.8551I1.0J0.0
G1 X124.4655 Y96.8551
G3X125.3075Y97.8426I-0.158J0.9874
G1 Y110.8426
G3X124.3075Y111.8426I-1.0J0.0
G1 F300.0 Z-2.0
G1 F800.0 X114.5
G1 X113.0 Z-1.7
G1 X111.0
G1 X109.5 Z-2.0
G1 X99.3075
G3X98.3075Y110.8426I0.0J-1.0
G1 Y104.5
G1 Y103.0 Z-1.7
G1 Y101.0
G1 Y99.5 Z-2.0
G1 Y93.8426
G3X99.4655Y92.8551I1.0J0.0
G1 X124.4655 Y96.8551
G3X125.3075Y97.8426I-0.158J0.9874
G1 Y101.5
G1 Y103.0 Z-1.7
G1 Y105.0
G1 Y106.5 Z-2.0
G1 Y110.8426
G3X124.3075Y111.8426I-1.0J0.0
G1 F300.0 Z-3.0
G1 F800.0 X114.5
G1 X113.0 Z-1.7
G1 X111.0
G1 X109.5 Z-3.0
G1 X99.3075
G3X98.3075Y110.8426I0.0J-1.0
G1 Y104.5
G1 Y103.0 Z-1.7
G1 Y101.0
G1 Y99.5 Z-3.0
G1 Y93.8426
G3X99.4655Y92.8551I1.0J0.0
G1 X124.4655 Y96.8551
G3X125.3075Y97.8426I-0.158J0.9874
G1 Y101.5
G1 Y103.0 Z-1.7
G1 Y105.0
G1 Y106.5 Z-3.0
G1 Y110.8426
G3X124.3075Y111.8426I-1.0J0.0
G1 F300.0 Z-4.0
G1 F800.0 X114.5
G1 X113.0 Z-1.7
G1 X111.0
G1 X109.5 Z-4.0
G1 X99.3075
G3X98.3075Y110.8426I0.0J-1.0
G1 Y104.5
G1 Y103.0 Z-1.7
G1 Y101.0
G1 Y99.5 Z-4.0
G1 Y93.8426
G3X99.4655Y92.8551I1.0J0.0
G1 X124.4655 Y96.8551
G3X125.3075Y97.8426I-0.158J0.9874
G1 Y101.5
G1 Y103.0 Z-1.7
G1 Y105.0
G1 Y106.5 Z-4.0
G1 Y110.8426
G3X124.3075Y111.8426I-1.0J0.0
G1 F300.0 Z-4.7
G1 F800.0 X114.5
G1 X113.0 Z-1.7
G1 X111.0
G1 X109.5 Z-4.7
G1 X99.3075
G3X98.3075Y110.8426I0.0J-1.0
G1 Y104.5
G1 Y103.0 Z-1.7
G1 Y101.0
G1 Y99.5 Z-4.7
G1 Y93.8426
G3X99.4655Y92.8551I1.0J0.0
G1 X124.4655 Y96.8551
G3X125.3075Y97.8426I-0.158J0.9874
G1 Y101.5
G1 Y103.0 Z-1.7
G1 Y105.0
G1 Y106.5 Z-4.7
G1 Y110.8426
G3X124.3075Y111.8426I-1.0J0.0
G0 Z3.0
G0 X124.1366 Y90.4316
G0 Z1.0
G1 F300.0 Z-1.0
F800.0
G3X124.1286Y90.4317I-0.008J-1.0
G1 X99.1286
G3X98.1286Y89.4317I0.0J-1.0
G1 Y81.4317
G3X98.9706Y80.4442I1.0J0.0
G1 X123.9706 Y76.4442
G3X125.1286Y77.4317I0.158J0.9874
G1 Y89.4317
G3X124.1366Y90.4316I-1.0J0.0
G1 F300.0 Z-2.0
F800.0
G3X124.1286Y90.4317I-0.008J-1.0
G1 X113.5
G1 X112.0 Z-1.7
G1 X110.0
G1 X108.5 Z-2.0
G1 X99.1286
G3X98.1286Y89.4317I0.0J-1.0
G1 Y87.5
G1 Y86.0 Z-1.7
G1 Y84.0
G1 Y82.5 Z-2.0
G1 Y81.4317
G3X98.9706Y80.4442I1.0J0.0
G1 X123.9706 Y76.4442
G3X125.1286Y77.4317I0.158J0.9874
G1 Y81.5
G1 Y83.0 Z-1.7
G1 Y85.0
G1 Y86.5 Z-2.0
G1 Y89.4317
G3X124.1366Y90.4316I-1.0J0.0
G1 F300.0 Z-3.0
F800.0
G3X124.1286Y90.4317I-0.008J-1.0
G1 X113.5
G1 X112.0 Z-1.7
G1 X110.0
G1 X108.5 Z-3.0
G1 X99.1286
G3X98.1286Y89.4317I0.0J-1.0
G1 Y87.5
G1 Y86.0 Z-1.7
G1 Y84.0
G1 Y82.5 Z-3.0
G1 Y81.4317
G3X98.9706Y80.4442I1.0J0.0
G1 X123.9706 Y76.4442
G3X125.1286Y77.4317I0.158J0.9874
G1 Y81.5
G1 Y83.0 Z-1.7
G1 Y85.0
G1 Y86.5 Z-3.0
G1 Y89.4317
G3X124.1366Y90.4316I-1.0J0.0
G1 F300.0 Z-4.0
F800.0
G3X124.1286Y90.4317I-0.008J-1.0
G1 X113.5
G1 X112.0 Z-1.7
G1 X110.0
G1 X108.5 Z-4.0
G1 X99.1286
G3X98.1286Y89.4317I0.0J-1.0
G1 Y87.5
G1 Y86.0 Z-1.7
G1 Y84.0
G1 Y82.5 Z-4.0
G1 Y81.4317
G3X98.9706Y80.4442I1.0J0.0
G1 X123.9706 Y76.4442
G3X125.1286Y77.4317I0.158J0.9874
G1 Y81.5
G1 Y83.0 Z-1.7
G1 Y85.0
G1 Y86.5 Z-4.0
G1 Y89.4317
G3X124.1366Y90.4316I-1.0J0.0
G1 F300.0 Z-4.7
F800.0
G3X124.1286Y90.4317I-0.008J-1.0
G1 X113.5
G1 X112.0 Z-1.7
G1 X110.0
G1 X108.5 Z-4.7
G1 X99.1286
G3X98.1286Y89.4317I0.0J-1.0
G1 Y87.5
G1 Y86.0 Z-1.7
G1 Y84.0
G1 Y82.5 Z-4.7
G1 Y81.4317
G3X98.9706Y80.4442I1.0J0.0
G1 X123.9706 Y76.4442
G3X125.1286Y77.4317I0.158J0.9874
G1 Y81.5
G1 Y83.0 Z-1.7
G1 Y85.0
G1 Y86.5 Z-4.7
G1 Y89.4317
G3X124.1366Y90.4316I-1.0J0.0
G0 Z3.0
G0 X121.5736 Y74.4129
G0 Z1.0
G1 F300.0 Z-1.0
G1 F800.0 X99.2528 Y77.9843
G3X98.0948Y76.9968I-0.158J-0.9874
G1 Y64.9968
G3X99.0948Y63.9968I1.0J0.0
G1 X124.0948
G3X125.0948Y64.9968I0.0J1.0
G1 Y72.9968
G3X124.2528Y73.9843I-1.0J0.0
G1 X121.5736 Y74.4129
G1 F300.0 Z-2.0
G1 F800.0 X99.2528 Y77.9843
G3X98.0948Y76.9968I-0.158J-0.9874
G1 Y71.5
G1 Y70.0 Z-1.7
G1 Y68.0
G1 Y66.5 Z-2.0
G1 Y64.9968
G3X99.0948Y63.9968I1.0J0.0
G1 X109.5
G1 X111.0 Z-1.7
G1 X113.0
G1 X114.5 Z-2.0
G1 X124.0948
G3X125.0948Y64.9968I0.0J1.0
G1 Y66.5
G1 Y68.0 Z-1.7
G1 Y70.0
G1 Y71.5 Z-2.0
G1 Y72.9968
G3X124.2528Y73.9843I-1.0J0.0
G1 X121.5736 Y74.4129
G1 F300.0 Z-3.0
G1 F800.0 X99.2528 Y77.9843
G3X98.0948Y76.9968I-0.158J-0.9874
G1 Y71.5
G1 Y70.0 Z-1.7
G1 Y68.0
G1 Y66.5 Z-3.0
G1 Y64.9968
G3X99.0948Y63.9968I1.0J0.0
G1 X109.5
G1 X111.0 Z-1.7
G1 X113.0
G1 X114.5 Z-3.0
G1 X124.0948
G3X125.0948Y64.9968I0.0J1.0
G1 Y66.5
G1 Y68.0 Z-1.7
G1 Y70.0
G1 Y71.5 Z-3.0
G1 Y72.9968
G3X124.2528Y73.9843I-1.0J0.0
G1 X121.5736 Y74.4129
G1 F300.0 Z-4.0
G1 F800.0 X99.2528 Y77.9843
G3X98.0948Y76.9968I-0.158J-0.9874
G1 Y71.5
G1 Y70.0 Z-1.7
G1 Y68.0
G1 Y66.5 Z-4.0
G1 Y64.9968
G3X99.0948Y63.9968I1.0J0.0
G1 X109.5
G1 X111.0 Z-1.7
G1 X113.0
G1 X114.5 Z-4.0
G1 X124.0948
G3X125.0948Y64.9968I0.0J1.0
G1 Y66.5
G1 Y68.0 Z-1.7
G1 Y70.0
G1 Y71.5 Z-4.0
G1 Y72.9968
G3X124.2528Y73.9843I-1.0J0.0
G1 X121.5736 Y74.4129
G1 F300.0 Z-4.7
G1 F800.0 X99.2528 Y77.9843
G3X98.0948Y76.9968I-0.158J-0.9874
G1 Y71.5
G1 Y70.0 Z-1.7
G1 Y68.0
G1 Y66.5 Z-4.7
G1 Y64.9968
G3X99.0948Y63.9968I1.0J0.0
G1 X109.5
G1 X111.0 Z-1.7
G1 X113.0
G1 X114.5 Z-4.7
G1 X124.0948
G3X125.0948Y64.9968I0.0J1.0
G1 Y66.5
G1 Y68.0 Z-1.7
G1 Y70.0
G1 Y71.5 Z-4.7
G1 Y72.9968
G3X124.2528Y73.9843I-1.0J0.0
G1 X121.5736 Y74.4129
G0 Z3.0
G0 Y61.3875
G0 Z1.0
G1 F300.0 Z-1.0
G1 F800.0 X99.2975
G3X98.2975Y60.3875I0.0J-1.0
G1 Y52.3875
G3X99.1395Y51.4001I1.0J0.0
G1 X124.1395 Y47.4001
G3X125.2975Y48.3875I0.158J0.9874
G1 Y60.3875
G3X124.2975Y61.3875I-1.0J0.0
G1 X121.5736
G1 F300.0 Z-2.0
G1 F800.0 X114.5
G1 X113.0 Z-1.7
G1 X111.0
G1 X109.5 Z-2.0
G1 X99.2975
G3X98.2975Y60.3875I0.0J-1.0
G1 Y58.5
G1 Y57.0 Z-1.7
G1 Y55.0
G1 Y53.5 Z-2.0
G1 Y52.3875
G3X99.1395Y51.4001I1.0J0.0
G1 X124.1395 Y47.4001
G3X125.2975Y48.3875I0.158J0.9874
G1 Y52.5
G1 Y54.0 Z-1.7
G1 Y56.0
G1 Y57.5 Z-2.0
G1 Y60.3875
G3X124.2975Y61.3875I-1.0J0.0
G1 X121.5736
G1 F300.0 Z-3.0
G1 F800.0 X114.5
G1 X113.0 Z-1.7
G1 X111.0
G1 X109.5 Z-3.0
G1 X99.2975
G3X98.2975Y60.3875I0.0J-1.0
G1 Y58.5
G1 Y57.0 Z-1.7
G1 Y55.0
G1 Y53.5 Z-3.0
G1 Y52.3875
G3X99.1395Y51.4001I1.0J0.0
G1 X124.1395 Y47.4001
G3X125.2975Y48.3875I0.158J0.9874
G1 Y52.5
G1 Y54.0 Z-1.7
G1 Y56.0
G1 Y57.5 Z-3.0
G1 Y60.3875
G3X124.2975Y61.3875I-1.0J0.0
G1 X121.5736
G1 F300.0 Z-4.0
G1 F800.0 X114.5
G1 X113.0 Z-1.7
G1 X111.0
G1 X109.5 Z-4.0
G1 X99.2975
G3X98.2975Y60.3875I0.0J-1.0
G1 Y58.5
G1 Y57.0 Z-1.7
G1 Y55.0
G1 Y53.5 Z-4.0
G1 Y52.3875
G3X99.1395Y51.4001I1.0J0.0
G1 X124.1395 Y47.4001
G3X125.2975Y48.3875I0.158J0.9874
G1 Y52.5
G1 Y54.0 Z-1.7
G1 Y56.0
G1 Y57.5 Z-4.0
G1 Y60.3875
G3X124.2975Y61.3875I-1.0J0.0
G1 X121.5736
G1 F300.0 Z-4.7
G1 F800.0 X114.5
G1 X113.0 Z-1.7
G1 X111.0
G1 X109.5 Z-4.7
G1 X99.2975
G3X98.2975Y60.3875I0.0J-1.0
G1 Y58.5
G1 Y57.0 Z-1.7
G1 Y55.0
G1 Y53.5 Z-4.7
G1 Y52.3875
G3X99.1395Y51.4001I1.0J0.0
G1 X124.1395 Y47.4001
G3X125.2975Y48.3875I0.158J0.9874
G1 Y52.5
G1 Y54.0 Z-1.7
G1 Y56.0
G1 Y57.5 Z-4.7
G1 Y60.3875
G3X124.2975Y61.3875I-1.0J0.0
G1 X121.5736
G0 Z3.0
G0 X119.0788 Y45.795
G0 Z1.0
G1 F300.0 Z-1.0
G1 F800.0 X99.4217 Y48.9401
G3X98.2637Y47.9527I-0.158J-0.9874
G1 Y35.9527
G3X99.2637Y34.9527I1.0J0.0
G1 X124.2637
G3X125.2637Y35.9527I0.0J1.0
G1 Y43.9527
G3X124.4217Y44.9401I-1.0J0.0
G1 X119.0788 Y45.795
G1 F300.0 Z-2.0
G1 F800.0 X99.4217 Y48.9401
G3X98.2637Y47.9527I-0.158J-0.9874
G1 Y42.5
G1 Y41.0 Z-1.7
G1 Y39.0
G1 Y37.5 Z-2.0
G1 Y35.9527
G3X99.2637Y34.9527I1.0J0.0
G1 X109.5
G1 X111.0 Z-1.7
G1 X113.0
G1 X114.5 Z-2.0
G1 X124.2637
G3X125.2637Y35.9527I0.0J1.0
G1 Y37.5
G1 Y39.0 Z-1.7
G1 Y41.0
G1 Y42.5 Z-2.0
G1 Y43.9527
G3X124.4217Y44.9401I-1.0J0.0
G1 X119.0788 Y45.795
G1 F300.0 Z-3.0
G1 F800.0 X99.4217 Y48.9401
G3X98.2637Y47.9527I-0.158J-0.9874
G1 Y42.5
G1 Y41.0 Z-1.7
G1 Y39.0
G1 Y37.5 Z-3.0
G1 Y35.9527
G3X99.2637Y34.9527I1.0J0.0
G1 X109.5
G1 X111.0 Z-1.7
G1 X113.0
G1 X114.5 Z-3.0
G1 X124.2637
G3X125.2637Y35.9527I0.0J1.0
G1 Y37.5
G1 Y39.0 Z-1.7
G1 Y41.0
G1 Y42.5 Z-3.0
G1 Y43.9527
G3X124.4217Y44.9401I-1.0J0.0
G1 X119.0788 Y45.795
G1 F300.0 Z-4.0
G1 F800.0 X99.4217 Y48.9401
G3X98.2637Y47.9527I-0.158J-0.9874
G1 Y42.5
G1 Y41.0 Z-1.7
G1 Y39.0
G1 Y37.5 Z-4.0
G1 Y35.9527
G3X99.2637Y34.9527I1.0J0.0
G1 X109.5
G1 X111.0 Z-1.7
G1 X113.0
G1 X114.5 Z-4.0
G1 X124.2637
G3X125.2637Y35.9527I0.0J1.0
G1 Y37.5
G1 Y39.0 Z-1.7
G1 Y41.0
G1 Y42.5 Z-4.0
G1 Y43.9527
G3X124.4217Y44.9401I-1.0J0.0
G1 X119.0788 Y45.795
G1 F300.0 Z-4.7
G1 F800.0 X99.4217 Y48.9401
G3X98.2637Y47.9527I-0.158J-0.9874
G1 Y42.5
G1 Y41.0 Z-1.7
G1 Y39.0
G1 Y37.5 Z-4.7
G1 Y35.9527
G3X99.2637Y34.9527I1.0J0.0
G1 X109.5
G1 X111.0 Z-1.7
G1 X113.0
G1 X114.5 Z-4.7
G1 X124.2637
G3X125.2637Y35.9527I0.0J1.0
G1 Y37.5
G1 Y39.0 Z-1.7
G1 Y41.0
G1 Y42.5 Z-4.7
G1 Y43.9527
G3X124.4217Y44.9401I-1.0J0.0
G1 X119.0788 Y45.795
G0 Z3.0
G0 Y32.1246
G0 Z1.0
G1 F300.0 Z-1.0
G1 F800.0 X99.1692
G3X98.1692Y31.1246I0.0J-1.0
G1 Y23.1246
G3X99.0112Y22.1372I1.0J0.0
G1 X124.0112 Y18.1372
G3X125.1692Y19.1246I0.158J0.9874
G1 Y31.1246
G3X124.1692Y32.1246I-1.0J0.0
G1 X119.0788
G1 F300.0 Z-2.0
G1 F800.0 X114.5
G1 X113.0 Z-1.7
G1 X111.0
G1 X109.5 Z-2.0
G1 X99.1692
G3X98.1692Y31.1246I0.0J-1.0
G1 Y29.5
G1 Y28.0 Z-1.7
G1 Y26.0
G1 Y24.5 Z-2.0
G1 Y23.1246
G3X99.0112Y22.1372I1.0J0.0
G1 X124.0112 Y18.1372
G3X125.1692Y19.1246I0.158J0.9874
G1 Y23.5
G1 Y25.0 Z-1.7
G1 Y27.0
G1 Y28.5 Z-2.0
G1 Y31.1246
G3X124.1692Y32.1246I-1.0J0.0
G1 X119.0788
G1 F300.0 Z-3.0
G1 F800.0 X114.5
G1 X113.0 Z-1.7
G1 X111.0
G1 X109.5 Z-3.0
G1 X99.1692
G3X98.1692Y31.1246I0.0J-1.0
G1 Y29.5
G1 Y28.0 Z-1.7
G1 Y26.0
G1 Y24.5 Z-3.0
G1 Y23.1246
G3X99.0112Y22.1372I1.0J0.0
G1 X124.0112 Y18.1372
G3X125.1692Y19.1246I0.158J0.9874
G1 Y23.5
G1 Y25.0 Z-1.7
G1 Y27.0
G1 Y28.5 Z-3.0
G1 Y31.1246
G3X124.1692Y32.1246I-1.0J0.0
G1 X119.0788
G1 F300.0 Z-4.0
G1 F800.0 X114.5
G1 X113.0 Z-1.7
G1 X111.0
G1 X109.5 Z-4.0
G1 X99.1692
G3X98.1692Y31.1246I0.0J-1.0
G1 Y29.5
G1 Y28.0 Z-1.7
G1 Y26.0
G1 Y24.5 Z-4.0
G1 Y23.1246
G3X99.0112Y22.1372I1.0J0.0
G1 X124.0112 Y18.1372
G3X125.1692Y19.1246I0.158J0.9874
G1 Y23.5
G1 Y25.0 Z-1.7
G1 Y27.0
G1 Y28.5 Z-4.0
G1 Y31.1246
G3X124.1692Y32.1246I-1.0J0.0
G1 X119.0788
G1 F300.0 Z-4.7
G1 F800.0 X114.5
G1 X113.0 Z-1.7
G1 X111.0
G1 X109.5 Z-4.7
G1 X99.1692
G3X98.1692Y31.1246I0.0J-1.0
G1 Y29.5
G1 Y28.0 Z-1.7
G1 Y26.0
G1 Y24.5 Z-4.7
G1 Y23.1246
G3X99.0112Y22.1372I1.0J0.0
G1 X124.0112 Y18.1372
G3X125.1692Y19.1246I0.158J0.9874
G1 Y23.5
G1 Y25.0 Z-1.7
G1 Y27.0
G1 Y28.5 Z-4.7
G1 Y31.1246
G3X124.1692Y32.1246I-1.0J0.0
G1 X119.0788
G0 Z3.0
G0 X116.643 Y16.9012
G0 Z1.0
G1 F300.0 Z-1.0
G1 F800.0 X99.2934 Y19.6772
G3X98.1354Y18.6897I-0.158J-0.9874
G1 Y6.6897
G3X99.1354Y5.6897I1.0J0.0
G1 X124.1354
G3X125.1354Y6.6897I0.0J1.0
G1 Y14.6897
G3X124.2934Y15.6772I-1.0J0.0
G1 X116.643 Y16.9012
G1 F300.0 Z-2.0
G1 F800.0 X99.2934 Y19.6772
G3X98.1354Y18.6897I-0.158J-0.9874
G1 Y13.5
G1 Y12.0 Z-1.7
G1 Y10.0
G1 Y8.5 Z-2.0
G1 Y6.6897
G3X99.1354Y5.6897I1.0J0.0
G1 X109.5
G1 X111.0 Z-1.7
G1 X113.0
G1 X114.5 Z-2.0
G1 X124.1354
G3X125.1354Y6.6897I0.0J1.0
G1 Y8.5
G1 Y10.0 Z-1.7
G1 Y12.0
G1 Y13.5 Z-2.0
G1 Y14.6897
G3X124.2934Y15.6772I-1.0J0.0
G1 X116.643 Y16.9012
G1 F300.0 Z-3.0
G1 F800.0 X99.2934 Y19.6772
G3X98.1354Y18.6897I-0.158J-0.9874
G1 Y13.5
G1 Y12.0 Z-1.7
G1 Y10.0
G1 Y8.5 Z-3.0
G1 Y6.6897
G3X99.1354Y5.6897I1.0J0.0
G1 X109.5
G1 X111.0 Z-1.7
G1 X113.0
G1 X114.5 Z-3.0
G1 X124.1354
G3X125.1354Y6.6897I0.0J1.0
G1 Y8.5
G1 Y10.0 Z-1.7
G1 Y12.0
G1 Y13.5 Z-3.0
G1 Y14.6897
G3X124.2934Y15.6772I-1.0J0.0
G1 X116.643 Y16.9012
G1 F300.0 Z-4.0
G1 F800.0 X99.2934 Y19.6772
G3X98.1354Y18.6897I-0.158J-0.9874
G1 Y13.5
G1 Y12.0 Z-1.7
G1 Y10.0
G1 Y8.5 Z-4.0
G1 Y6.6897
G3X99.1354Y5.6897I1.0J0.0
G1 X109.5
G1 X111.0 Z-1.7
G1 X113.0
G1 X114.5 Z-4.0
G1 X124.1354
G3X125.1354Y6.6897I0.0J1.0
G1 Y8.5
G1 Y10.0 Z-1.7
G1 Y12.0
G1 Y13.5 Z-4.0
G1 Y14.6897
G3X124.2934Y15.6772I-1.0J0.0
G1 X116.643 Y16.9012
G1 F300.0 Z-4.7
G1 F800.0 X99.2934 Y19.6772
G3X98.1354Y18.6897I-0.158J-0.9874
G1 Y13.5
G1 Y12.0 Z-1.7
G1 Y10.0
G1 Y8.5 Z-4.7
G1 Y6.6897
G3X99.1354Y5.6897I1.0J0.0
G1 X109.5
G1 X111.0 Z-1.7
G1 X113.0
G1 X114.5 Z-4.7
G1 X124.1354
G3X125.1354Y6.6897I0.0J1.0
G1 Y8.5
G1 Y10.0 Z-1.7
G1 Y12.0
G1 Y13.5 Z-4.7
G1 Y14.6897
G3X124.2934Y15.6772I-1.0J0.0
G1 X116.643 Y16.9012
G0 Z3.0
M5
M30
