( Made using CamBam - http://www.cambam.co.uk )
( Calpinage Fixation d'aile 5/2/2022 11:00:33 PM )
( T0 : 2.0 )
G21 G90  G40
G0 Z3.0
( T0 : 2.0 )
T0 M6
( Contour1 )
G17
M3 S1000
G0 X28.8967 Y5.0589
G0 Z1.0
G1 F500.0 Z-1.0
G1 F1000.0 X32.8967
G3 X33.8967 Y6.0589 I0.0 J1.0
G1 Y23.0589
G3 X32.7387 Y24.0463 I-1.0 J0.0
G1 X7.7387 Y20.0463
G3 X6.8967 Y19.0589 I0.158 J-0.9874
G1 Y6.0589
G3 X7.8967 Y5.0589 I1.0 J0.0
G1 X11.8967
G3 X12.8967 Y6.0589 I0.0 J1.0
G1 Y8.0589
G1 X27.8967
G1 Y6.0589
G3 X28.8967 Y5.0589 I1.0 J0.0
G1 F500.0 Z-2.0
G1 F1000.0 X32.8967
G3 X33.8967 Y6.0589 I0.0 J1.0
G1 Y23.0589
G3 X32.7387 Y24.0463 I-1.0 J0.0
G1 X7.7387 Y20.0463
G3 X6.8967 Y19.0589 I0.158 J-0.9874
G1 Y6.0589
G3 X7.8967 Y5.0589 I1.0 J0.0
G1 X11.8967
G3 X12.8967 Y6.0589 I0.0 J1.0
G1 Y8.0589
G1 X27.8967
G1 Y6.0589
G3 X28.8967 Y5.0589 I1.0 J0.0
G1 F500.0 Z-3.0
G1 F1000.0 X32.8967
G3 X33.8967 Y6.0589 I0.0 J1.0
G1 Y23.0589
G3 X32.7387 Y24.0463 I-1.0 J0.0
G1 X22.1553 Y22.353
G1 X20.6742 Y22.116 Z-2.0
G1 X18.6993 Y21.8
G1 X17.2181 Y21.563 Z-3.0
G1 X7.7387 Y20.0463
G3 X6.8967 Y19.0589 I0.158 J-0.9874
G1 Y6.0589
G3 X7.8967 Y5.0589 I1.0 J0.0
G1 X11.8967
G3 X12.8967 Y6.0589 I0.0 J1.0
G1 Y8.0589
G1 X17.5
G1 X19.0 Z-2.0
G1 X21.0
G1 X22.5 Z-3.0
G1 X27.8967
G1 Y6.0589
G3 X28.8967 Y5.0589 I1.0 J0.0
G1 F500.0 Z-4.0
G1 F1000.0 X32.8967
G3 X33.8967 Y6.0589 I0.0 J1.0
G1 Y23.0589
G3 X32.7387 Y24.0463 I-1.0 J0.0
G1 X22.1553 Y22.353
G1 X20.6742 Y22.116 Z-2.0
G1 X18.6993 Y21.8
G1 X17.2181 Y21.563 Z-4.0
G1 X7.7387 Y20.0463
G3 X6.8967 Y19.0589 I0.158 J-0.9874
G1 Y6.0589
G3 X7.8967 Y5.0589 I1.0 J0.0
G1 X11.8967
G3 X12.8967 Y6.0589 I0.0 J1.0
G1 Y8.0589
G1 X17.5
G1 X19.0 Z-2.0
G1 X21.0
G1 X22.5 Z-4.0
G1 X27.8967
G1 Y6.0589
G3 X28.8967 Y5.0589 I1.0 J0.0
G1 F500.0 Z-5.0
G1 F1000.0 X32.8967
G3 X33.8967 Y6.0589 I0.0 J1.0
G1 Y23.0589
G3 X32.7387 Y24.0463 I-1.0 J0.0
G1 X22.1553 Y22.353
G1 X20.6742 Y22.116 Z-2.0
G1 X18.6993 Y21.8
G1 X17.2181 Y21.563 Z-5.0
G1 X7.7387 Y20.0463
G3 X6.8967 Y19.0589 I0.158 J-0.9874
G1 Y6.0589
G3 X7.8967 Y5.0589 I1.0 J0.0
G1 X11.8967
G3 X12.8967 Y6.0589 I0.0 J1.0
G1 Y8.0589
G1 X17.5
G1 X19.0 Z-2.0
G1 X21.0
G1 X22.5 Z-5.0
G1 X27.8967
G1 Y6.0589
G3 X28.8967 Y5.0589 I1.0 J0.0
G0 F200
( Contour2 )
S1000
G0 Z3.0
G0 X43.0004 Y11.4978
G0 Z1.0
G1 F500.0 Z-1.0
G1 F1000.0 X58.0004
G1 Y10.4978
G1 X43.0004
G1 Y11.4978
G1 F500.0 Z-2.0
G1 F1000.0 X58.0004
G1 Y10.4978
G1 X43.0004
G1 Y11.4978
G1 F500.0 Z-3.0
G1 F1000.0 X58.0004
G1 Y10.4978
G1 X43.0004
G1 Y11.4978
G1 F500.0 Z-4.0
G1 F1000.0 X58.0004
G1 Y10.4978
G1 X43.0004
G1 Y11.4978
G1 F500.0 Z-5.0
G1 F1000.0 X58.0004
G1 Y10.4978
G1 X43.0004
G1 Y11.4978
G0 F200
( Contour3 )
S1000
G0 Z3.0
G0 X38.0004 Y5.2978
G0 Z1.0
G1 F500.0 Z-1.0
G1 F1000.0 X63.0004
G3 X64.0004 Y6.2978 I0.0 J1.0
G1 Y23.2978
G3 X62.8424 Y24.2853 I-1.0 J0.0
G1 X37.8424 Y20.2853
G3 X37.0004 Y19.2978 I0.158 J-0.9874
G1 Y6.2978
G3 X38.0004 Y5.2978 I1.0 J0.0
G1 F500.0 Z-2.0
G1 F1000.0 X63.0004
G3 X64.0004 Y6.2978 I0.0 J1.0
G1 Y23.2978
G3 X62.8424 Y24.2853 I-1.0 J0.0
G1 X37.8424 Y20.2853
G3 X37.0004 Y19.2978 I0.158 J-0.9874
G1 Y6.2978
G3 X38.0004 Y5.2978 I1.0 J0.0
G1 F500.0 Z-3.0
G1 F1000.0 X47.5
G1 X49.0 Z-2.0
G1 X51.0
G1 X52.5 Z-3.0
G1 X63.0004
G3 X64.0004 Y6.2978 I0.0 J1.0
G1 Y23.2978
G3 X62.8424 Y24.2853 I-1.0 J0.0
G1 X52.2766 Y22.5947
G1 X50.7955 Y22.3577 Z-2.0
G1 X48.8206 Y22.0418
G1 X47.3394 Y21.8048 Z-3.0
G1 X37.8424 Y20.2853
G3 X37.0004 Y19.2978 I0.158 J-0.9874
G1 Y6.2978
G3 X38.0004 Y5.2978 I1.0 J0.0
G1 F500.0 Z-4.0
G1 F1000.0 X47.5
G1 X49.0 Z-2.0
G1 X51.0
G1 X52.5 Z-4.0
G1 X63.0004
G3 X64.0004 Y6.2978 I0.0 J1.0
G1 Y23.2978
G3 X62.8424 Y24.2853 I-1.0 J0.0
G1 X52.2766 Y22.5947
G1 X50.7955 Y22.3577 Z-2.0
G1 X48.8206 Y22.0418
G1 X47.3394 Y21.8048 Z-4.0
G1 X37.8424 Y20.2853
G3 X37.0004 Y19.2978 I0.158 J-0.9874
G1 Y6.2978
G3 X38.0004 Y5.2978 I1.0 J0.0
G1 F500.0 Z-5.0
G1 F1000.0 X47.5
G1 X49.0 Z-2.0
G1 X51.0
G1 X52.5 Z-5.0
G1 X63.0004
G3 X64.0004 Y6.2978 I0.0 J1.0
G1 Y23.2978
G3 X62.8424 Y24.2853 I-1.0 J0.0
G1 X52.2766 Y22.5947
G1 X50.7955 Y22.3577 Z-2.0
G1 X48.8206 Y22.0418
G1 X47.3394 Y21.8048 Z-5.0
G1 X37.8424 Y20.2853
G3 X37.0004 Y19.2978 I0.158 J-0.9874
G1 Y6.2978
G3 X38.0004 Y5.2978 I1.0 J0.0
G0 F200
( Contour4 )
S1000
G0 Z3.0
G0 X89.7381 Y5.5776
G0 Z1.0
G1 F500.0 Z-1.0
G1 F1000.0 X93.7381
G3 X94.7381 Y6.5776 I0.0 J1.0
G1 Y14.5776
G3 X93.8961 Y15.565 I-1.0 J0.0
G1 X68.8961 Y19.565
G3 X67.7381 Y18.5776 I-0.158 J-0.9874
G1 Y6.5776
G3 X68.7381 Y5.5776 I1.0 J0.0
G1 X72.7381
G3 X73.7381 Y6.5776 I0.0 J1.0
G1 Y8.5776
G1 X88.7381
G1 Y6.5776
G3 X89.7381 Y5.5776 I1.0 J0.0
G1 F500.0 Z-2.0
G1 F1000.0 X93.7381
G3 X94.7381 Y6.5776 I0.0 J1.0
G1 Y14.5776
G3 X93.8961 Y15.565 I-1.0 J0.0
G1 X68.8961 Y19.565
G3 X67.7381 Y18.5776 I-0.158 J-0.9874
G1 Y6.5776
G3 X68.7381 Y5.5776 I1.0 J0.0
G1 X72.7381
G3 X73.7381 Y6.5776 I0.0 J1.0
G1 Y8.5776
G1 X88.7381
G1 Y6.5776
G3 X89.7381 Y5.5776 I1.0 J0.0
G1 F500.0 Z-3.0
G1 F1000.0 X93.7381
G3 X94.7381 Y6.5776 I0.0 J1.0
G1 Y14.5776
G3 X93.8961 Y15.565 I-1.0 J0.0
G1 X83.7226 Y17.1928
G1 X83.5666 Y17.2177 Z-2.8947
G1 X82.2415 Y17.4297 Z-2.0
G1 X82.0855 Y17.4547
G1 X80.2666 Y17.7457
G1 X80.1106 Y17.7707
G1 X78.7854 Y17.9827 Z-2.8947
G1 X78.6294 Y18.0077 Z-3.0
G1 X68.8961 Y19.565
G3 X67.7381 Y18.5776 I-0.158 J-0.9874
G1 Y6.5776
G3 X68.7381 Y5.5776 I1.0 J0.0
G1 X72.7381
G3 X73.7381 Y6.5776 I0.0 J1.0
G1 Y8.5776
G1 X77.5184
G1 X79.0184 Z-2.0
G1 X81.0184
G1 X82.5184 Z-3.0
G1 X88.7381
G1 Y6.5776
G3 X89.7381 Y5.5776 I1.0 J0.0
G1 F500.0 Z-4.0
G1 F1000.0 X93.7381
G3 X94.7381 Y6.5776 I0.0 J1.0
G1 Y14.5776
G3 X93.8961 Y15.565 I-1.0 J0.0
G1 X83.7226 Y17.1928
G1 X83.5666 Y17.2177 Z-3.7893
G1 X82.2415 Y17.4297 Z-2.0
G1 X82.0855 Y17.4547
G1 X80.2666 Y17.7457
G1 X80.1106 Y17.7707
G1 X78.7854 Y17.9827 Z-3.7893
G1 X78.6294 Y18.0077 Z-4.0
G1 X68.8961 Y19.565
G3 X67.7381 Y18.5776 I-0.158 J-0.9874
G1 Y6.5776
G3 X68.7381 Y5.5776 I1.0 J0.0
G1 X72.7381
G3 X73.7381 Y6.5776 I0.0 J1.0
G1 Y8.5776
G1 X77.5184
G1 X79.0184 Z-2.0
G1 X81.0184
G1 X82.5184 Z-4.0
G1 X88.7381
G1 Y6.5776
G3 X89.7381 Y5.5776 I1.0 J0.0
G1 F500.0 Z-5.0
G1 F1000.0 X93.7381
G3 X94.7381 Y6.5776 I0.0 J1.0
G1 Y14.5776
G3 X93.8961 Y15.565 I-1.0 J0.0
G1 X83.7226 Y17.1928
G1 X83.5666 Y17.2177 Z-4.684
G1 X82.2415 Y17.4297 Z-2.0
G1 X82.0855 Y17.4547
G1 X80.2666 Y17.7457
G1 X80.1106 Y17.7707
G1 X78.7854 Y17.9827 Z-4.684
G1 X78.6294 Y18.0077 Z-5.0
G1 X68.8961 Y19.565
G3 X67.7381 Y18.5776 I-0.158 J-0.9874
G1 Y6.5776
G3 X68.7381 Y5.5776 I1.0 J0.0
G1 X72.7381
G3 X73.7381 Y6.5776 I0.0 J1.0
G1 Y8.5776
G1 X77.5184
G1 X79.0184 Z-2.0
G1 X81.0184
G1 X82.5184 Z-5.0
G1 X88.7381
G1 Y6.5776
G3 X89.7381 Y5.5776 I1.0 J0.0
G0 F200
( Contour5 )
S1000
G0 Z3.0
G0 X104.1354 Y11.8897
G0 Z1.0
G1 F500.0 Z-1.0
G1 F1000.0 X119.1354
G1 Y10.8897
G1 X104.1354
G1 Y11.8897
G1 F500.0 Z-2.0
G1 F1000.0 X119.1354
G1 Y10.8897
G1 X104.1354
G1 Y11.8897
G1 F500.0 Z-3.0
G1 F1000.0 X119.1354
G1 Y10.8897
G1 X104.1354
G1 Y11.8897
G1 F500.0 Z-4.0
G1 F1000.0 X119.1354
G1 Y10.8897
G1 X104.1354
G1 Y11.8897
G1 F500.0 Z-5.0
G1 F1000.0 X119.1354
G1 Y10.8897
G1 X104.1354
G1 Y11.8897
G0 F200
( Contour6 )
S1000
G0 Z3.0
G0 X99.1354 Y5.6897
G0 Z1.0
G1 F500.0 Z-1.0
G1 F1000.0 X124.1354
G3 X125.1354 Y6.6897 I0.0 J1.0
G1 Y14.6897
G3 X124.2934 Y15.6772 I-1.0 J0.0
G1 X99.2934 Y19.6772
G3 X98.1354 Y18.6897 I-0.158 J-0.9874
G1 Y6.6897
G3 X99.1354 Y5.6897 I1.0 J0.0
G1 F500.0 Z-2.0
G1 F1000.0 X124.1354
G3 X125.1354 Y6.6897 I0.0 J1.0
G1 Y14.6897
G3 X124.2934 Y15.6772 I-1.0 J0.0
G1 X99.2934 Y19.6772
G3 X98.1354 Y18.6897 I-0.158 J-0.9874
G1 Y6.6897
G3 X99.1354 Y5.6897 I1.0 J0.0
G1 F500.0 Z-3.0
G1 F1000.0 X108.3551
G1 X109.8551 Z-2.0
G1 X111.8551
G1 X113.3551 Z-3.0
G1 X124.1354
G3 X125.1354 Y6.6897 I0.0 J1.0
G1 Y14.6897
G3 X124.2934 Y15.6772 I-1.0 J0.0
G1 X113.7501 Y17.3641
G1 X113.5941 Y17.3891 Z-2.8947
G1 X112.2689 Y17.6011 Z-2.0
G1 X112.1129 Y17.6261
G1 X110.294 Y17.9171
G1 X110.138 Y17.942
G1 X108.8129 Y18.1541 Z-2.8947
G1 X108.6568 Y18.179 Z-3.0
G1 X99.2934 Y19.6772
G3 X98.1354 Y18.6897 I-0.158 J-0.9874
G1 Y6.6897
G3 X99.1354 Y5.6897 I1.0 J0.0
G1 F500.0 Z-4.0
G1 F1000.0 X108.3551
G1 X109.8551 Z-2.0
G1 X111.8551
G1 X113.3551 Z-4.0
G1 X124.1354
G3 X125.1354 Y6.6897 I0.0 J1.0
G1 Y14.6897
G3 X124.2934 Y15.6772 I-1.0 J0.0
G1 X113.7501 Y17.3641
G1 X113.5941 Y17.3891 Z-3.7893
G1 X112.2689 Y17.6011 Z-2.0
G1 X112.1129 Y17.6261
G1 X110.294 Y17.9171
G1 X110.138 Y17.942
G1 X108.8129 Y18.1541 Z-3.7893
G1 X108.6568 Y18.179 Z-4.0
G1 X99.2934 Y19.6772
G3 X98.1354 Y18.6897 I-0.158 J-0.9874
G1 Y6.6897
G3 X99.1354 Y5.6897 I1.0 J0.0
G1 F500.0 Z-5.0
G1 F1000.0 X108.3551
G1 X109.8551 Z-2.0
G1 X111.8551
G1 X113.3551 Z-5.0
G1 X124.1354
G3 X125.1354 Y6.6897 I0.0 J1.0
G1 Y14.6897
G3 X124.2934 Y15.6772 I-1.0 J0.0
G1 X113.7501 Y17.3641
G1 X113.5941 Y17.3891 Z-4.684
G1 X112.2689 Y17.6011 Z-2.0
G1 X112.1129 Y17.6261
G1 X110.294 Y17.9171
G1 X110.138 Y17.942
G1 X108.8129 Y18.1541 Z-4.684
G1 X108.6568 Y18.179 Z-5.0
G1 X99.2934 Y19.6772
G3 X98.1354 Y18.6897 I-0.158 J-0.9874
G1 Y6.6897
G3 X99.1354 Y5.6897 I1.0 J0.0
G0 F200
( Contour7 )
S1000
G0 Z3.0
G0 X119.1692 Y25.9246
G0 Z1.0
G1 F500.0 Z-1.0
G1 F1000.0 X104.1692
G1 Y26.9246
G1 X119.1692
G1 Y25.9246
G1 F500.0 Z-2.0
G1 F1000.0 X104.1692
G1 Y26.9246
G1 X119.1692
G1 Y25.9246
G1 F500.0 Z-3.0
G1 F1000.0 X104.1692
G1 Y26.9246
G1 X119.1692
G1 Y25.9246
G1 F500.0 Z-4.0
G1 F1000.0 X104.1692
G1 Y26.9246
G1 X119.1692
G1 Y25.9246
G1 F500.0 Z-5.0
G1 F1000.0 X104.1692
G1 Y26.9246
G1 X119.1692
G1 Y25.9246
G0 F200
( Contour8 )
S1000
G0 Z3.0
G0 X98.1692 Y31.1246
G0 Z1.0
G1 F500.0 Z-1.0
G1 F1000.0 Y23.1246
G3 X99.0112 Y22.1372 I1.0 J0.0
G1 X124.0112 Y18.1372
G3 X125.1692 Y19.1246 I0.158 J0.9874
G1 Y31.1246
G3 X124.1692 Y32.1246 I-1.0 J0.0
G1 X99.1692
G3 X98.1692 Y31.1246 I0.0 J-1.0
G1 F500.0 Z-2.0
G1 F1000.0 Y23.1246
G3 X99.0112 Y22.1372 I1.0 J0.0
G1 X124.0112 Y18.1372
G3 X125.1692 Y19.1246 I0.158 J0.9874
G1 Y31.1246
G3 X124.1692 Y32.1246 I-1.0 J0.0
G1 X99.1692
G3 X98.1692 Y31.1246 I0.0 J-1.0
G1 F500.0 Z-3.0
G1 F1000.0 Y23.1246
G3 X99.0112 Y22.1372 I1.0 J0.0
G1 X109.2286 Y20.5024
G1 X109.3846 Y20.4774 Z-2.8947
G1 X110.7097 Y20.2654 Z-2.0
G1 X110.8658 Y20.2404
G1 X112.6846 Y19.9494
G1 X112.8406 Y19.9245
G1 X114.1658 Y19.7124 Z-2.8947
G1 X114.3218 Y19.6875 Z-3.0
G1 X124.0112 Y18.1372
G3 X125.1692 Y19.1246 I0.158 J0.9874
G1 Y31.1246
G3 X124.1692 Y32.1246 I-1.0 J0.0
G1 X113.3889
G1 X111.8889 Z-2.0
G1 X109.8889
G1 X108.3889 Z-3.0
G1 X99.1692
G3 X98.1692 Y31.1246 I0.0 J-1.0
G1 F500.0 Z-4.0
G1 F1000.0 Y23.1246
G3 X99.0112 Y22.1372 I1.0 J0.0
G1 X109.2286 Y20.5024
G1 X109.3846 Y20.4774 Z-3.7893
G1 X110.7097 Y20.2654 Z-2.0
G1 X110.8658 Y20.2404
G1 X112.6846 Y19.9494
G1 X112.8406 Y19.9245
G1 X114.1658 Y19.7124 Z-3.7893
G1 X114.3218 Y19.6875 Z-4.0
G1 X124.0112 Y18.1372
G3 X125.1692 Y19.1246 I0.158 J0.9874
G1 Y31.1246
G3 X124.1692 Y32.1246 I-1.0 J0.0
G1 X113.3889
G1 X111.8889 Z-2.0
G1 X109.8889
G1 X108.3889 Z-4.0
G1 X99.1692
G3 X98.1692 Y31.1246 I0.0 J-1.0
G1 F500.0 Z-5.0
G1 F1000.0 Y23.1246
G3 X99.0112 Y22.1372 I1.0 J0.0
G1 X109.2286 Y20.5024
G1 X109.3846 Y20.4774 Z-4.684
G1 X110.7097 Y20.2654 Z-2.0
G1 X110.8658 Y20.2404
G1 X112.6846 Y19.9494
G1 X112.8406 Y19.9245
G1 X114.1658 Y19.7124 Z-4.684
G1 X114.3218 Y19.6875 Z-5.0
G1 X124.0112 Y18.1372
G3 X125.1692 Y19.1246 I0.158 J0.9874
G1 Y31.1246
G3 X124.1692 Y32.1246 I-1.0 J0.0
G1 X113.3889
G1 X111.8889 Z-2.0
G1 X109.8889
G1 X108.3889 Z-5.0
G1 X99.1692
G3 X98.1692 Y31.1246 I0.0 J-1.0
G0 F200
( Contour9 )
S1000
G0 Z3.0
G0 X72.7059 Y32.0047
G0 Z1.0
G1 F500.0 Z-1.0
G1 F1000.0 X68.7059
G3 X67.7059 Y31.0047 I0.0 J-1.0
G1 Y23.0047
G3 X68.5479 Y22.0172 I1.0 J0.0
G1 X93.5479 Y18.0172
G3 X94.7059 Y19.0047 I0.158 J0.9874
G1 Y31.0047
G3 X93.7059 Y32.0047 I-1.0 J0.0
G1 X89.7059
G3 X88.7059 Y31.0047 I0.0 J-1.0
G1 Y29.0047
G1 X73.7059
G1 Y31.0047
G3 X72.7059 Y32.0047 I-1.0 J0.0
G1 F500.0 Z-2.0
G1 F1000.0 X68.7059
G3 X67.7059 Y31.0047 I0.0 J-1.0
G1 Y23.0047
G3 X68.5479 Y22.0172 I1.0 J0.0
G1 X93.5479 Y18.0172
G3 X94.7059 Y19.0047 I0.158 J0.9874
G1 Y31.0047
G3 X93.7059 Y32.0047 I-1.0 J0.0
G1 X89.7059
G3 X88.7059 Y31.0047 I0.0 J-1.0
G1 Y29.0047
G1 X73.7059
G1 Y31.0047
G3 X72.7059 Y32.0047 I-1.0 J0.0
G1 F500.0 Z-3.0
G1 F1000.0 X68.7059
G3 X67.7059 Y31.0047 I0.0 J-1.0
G1 Y23.0047
G3 X68.5479 Y22.0172 I1.0 J0.0
G1 X78.3793 Y20.4442
G1 X78.5353 Y20.4193 Z-2.8947
G1 X79.8604 Y20.2072 Z-2.0
G1 X80.0164 Y20.1823
G1 X81.8353 Y19.8913
G1 X81.9913 Y19.8663
G1 X83.3165 Y19.6543 Z-2.8947
G1 X83.4725 Y19.6293 Z-3.0
G1 X93.5479 Y18.0172
G3 X94.7059 Y19.0047 I0.158 J0.9874
G1 Y31.0047
G3 X93.7059 Y32.0047 I-1.0 J0.0
G1 X89.7059
G3 X88.7059 Y31.0047 I0.0 J-1.0
G1 Y29.0047
G1 X83.5
G1 X82.0 Z-2.0
G1 X80.0
G1 X78.5 Z-3.0
G1 X73.7059
G1 Y31.0047
G3 X72.7059 Y32.0047 I-1.0 J0.0
G1 F500.0 Z-4.0
G1 F1000.0 X68.7059
G3 X67.7059 Y31.0047 I0.0 J-1.0
G1 Y23.0047
G3 X68.5479 Y22.0172 I1.0 J0.0
G1 X78.3793 Y20.4442
G1 X78.5353 Y20.4193 Z-3.7893
G1 X79.8604 Y20.2072 Z-2.0
G1 X80.0164 Y20.1823
G1 X81.8353 Y19.8913
G1 X81.9913 Y19.8663
G1 X83.3165 Y19.6543 Z-3.7893
G1 X83.4725 Y19.6293 Z-4.0
G1 X93.5479 Y18.0172
G3 X94.7059 Y19.0047 I0.158 J0.9874
G1 Y31.0047
G3 X93.7059 Y32.0047 I-1.0 J0.0
G1 X89.7059
G3 X88.7059 Y31.0047 I0.0 J-1.0
G1 Y29.0047
G1 X83.5
G1 X82.0 Z-2.0
G1 X80.0
G1 X78.5 Z-4.0
G1 X73.7059
G1 Y31.0047
G3 X72.7059 Y32.0047 I-1.0 J0.0
G1 F500.0 Z-5.0
G1 F1000.0 X68.7059
G3 X67.7059 Y31.0047 I0.0 J-1.0
G1 Y23.0047
G3 X68.5479 Y22.0172 I1.0 J0.0
G1 X78.3793 Y20.4442
G1 X78.5353 Y20.4193 Z-4.684
G1 X79.8604 Y20.2072 Z-2.0
G1 X80.0164 Y20.1823
G1 X81.8353 Y19.8913
G1 X81.9913 Y19.8663
G1 X83.3165 Y19.6543 Z-4.684
G1 X83.4725 Y19.6293 Z-5.0
G1 X93.5479 Y18.0172
G3 X94.7059 Y19.0047 I0.158 J0.9874
G1 Y31.0047
G3 X93.7059 Y32.0047 I-1.0 J0.0
G1 X89.7059
G3 X88.7059 Y31.0047 I0.0 J-1.0
G1 Y29.0047
G1 X83.5
G1 X82.0 Z-2.0
G1 X80.0
G1 X78.5 Z-5.0
G1 X73.7059
G1 Y31.0047
G3 X72.7059 Y32.0047 I-1.0 J0.0
G0 F200
( Contour10 )
S1000
G0 Z3.0
G0 X58.0004 Y36.2858
G0 Z1.0
G1 F500.0 Z-1.0
G1 F1000.0 X43.0004
G1 Y37.2858
G1 X58.0004
G1 Y36.2858
G1 F500.0 Z-2.0
G1 F1000.0 X43.0004
G1 Y37.2858
G1 X58.0004
G1 Y36.2858
G1 F500.0 Z-3.0
G1 F1000.0 X43.0004
G1 Y37.2858
G1 X58.0004
G1 Y36.2858
G1 F500.0 Z-4.0
G1 F1000.0 X43.0004
G1 Y37.2858
G1 X58.0004
G1 Y36.2858
G1 F500.0 Z-5.0
G1 F1000.0 X43.0004
G1 Y37.2858
G1 X58.0004
G1 Y36.2858
G0 F200
( Contour11 )
S1000
G0 Z3.0
G0 X63.0004 Y42.4858
G0 Z1.0
G1 F500.0 Z-1.0
G1 F1000.0 X38.0004
G3 X37.0004 Y41.4858 I0.0 J-1.0
G1 Y24.4858
G3 X38.1584 Y23.4984 I1.0 J0.0
G1 X63.1584 Y27.4984
G3 X64.0004 Y28.4858 I-0.158 J0.9874
G1 Y41.4858
G3 X63.0004 Y42.4858 I-1.0 J0.0
G1 F500.0 Z-2.0
G1 F1000.0 X38.0004
G3 X37.0004 Y41.4858 I0.0 J-1.0
G1 Y24.4858
G3 X38.1584 Y23.4984 I1.0 J0.0
G1 X63.1584 Y27.4984
G3 X64.0004 Y28.4858 I-0.158 J0.9874
G1 Y41.4858
G3 X63.0004 Y42.4858 I-1.0 J0.0
G1 F500.0 Z-3.0
G1 F1000.0 X52.1141
G1 X50.6141 Z-2.0
G1 X48.6141
G1 X47.1141 Z-3.0
G1 X38.0004
G3 X37.0004 Y41.4858 I0.0 J-1.0
G1 Y24.4858
G3 X38.1584 Y23.4984 I1.0 J0.0
G1 X46.495 Y24.8323
G1 X46.651 Y24.8572 Z-2.8947
G1 X47.9762 Y25.0692 Z-2.0
G1 X48.1322 Y25.0942
G1 X49.9511 Y25.3852
G1 X50.1071 Y25.4102
G1 X51.4322 Y25.6222 Z-2.8947
G1 X51.5882 Y25.6472 Z-3.0
G1 X63.1584 Y27.4984
G3 X64.0004 Y28.4858 I-0.158 J0.9874
G1 Y41.4858
G3 X63.0004 Y42.4858 I-1.0 J0.0
G1 F500.0 Z-4.0
G1 F1000.0 X52.1141
G1 X50.6141 Z-2.0
G1 X48.6141
G1 X47.1141 Z-4.0
G1 X38.0004
G3 X37.0004 Y41.4858 I0.0 J-1.0
G1 Y24.4858
G3 X38.1584 Y23.4984 I1.0 J0.0
G1 X46.495 Y24.8323
G1 X46.651 Y24.8572 Z-3.7893
G1 X47.9762 Y25.0692 Z-2.0
G1 X48.1322 Y25.0942
G1 X49.9511 Y25.3852
G1 X50.1071 Y25.4102
G1 X51.4322 Y25.6222 Z-3.7893
G1 X51.5882 Y25.6472 Z-4.0
G1 X63.1584 Y27.4984
G3 X64.0004 Y28.4858 I-0.158 J0.9874
G1 Y41.4858
G3 X63.0004 Y42.4858 I-1.0 J0.0
G1 F500.0 Z-5.0
G1 F1000.0 X52.1141
G1 X50.6141 Z-2.0
G1 X48.6141
G1 X47.1141 Z-5.0
G1 X38.0004
G3 X37.0004 Y41.4858 I0.0 J-1.0
G1 Y24.4858
G3 X38.1584 Y23.4984 I1.0 J0.0
G1 X46.495 Y24.8323
G1 X46.651 Y24.8572 Z-4.684
G1 X47.9762 Y25.0692 Z-2.0
G1 X48.1322 Y25.0942
G1 X49.9511 Y25.3852
G1 X50.1071 Y25.4102
G1 X51.4322 Y25.6222 Z-4.684
G1 X51.5882 Y25.6472 Z-5.0
G1 X63.1584 Y27.4984
G3 X64.0004 Y28.4858 I-0.158 J0.9874
G1 Y41.4858
G3 X63.0004 Y42.4858 I-1.0 J0.0
G0 F200
( Contour12 )
S1000
G0 Z3.0
G0 X11.6988 Y42.09
G0 Z1.0
G1 F500.0 Z-1.0
G1 F1000.0 X7.6988
G3 X6.6988 Y41.09 I0.0 J-1.0
G1 Y24.09
G3 X7.8568 Y23.1025 I1.0 J0.0
G1 X32.8568 Y27.1025
G3 X33.6988 Y28.09 I-0.158 J0.9874
G1 Y41.09
G3 X32.6988 Y42.09 I-1.0 J0.0
G1 X28.6988
G3 X27.6988 Y41.09 I0.0 J-1.0
G1 Y39.09
G1 X12.6988
G1 Y41.09
G3 X11.6988 Y42.09 I-1.0 J0.0
G1 F500.0 Z-2.0
G1 F1000.0 X7.6988
G3 X6.6988 Y41.09 I0.0 J-1.0
G1 Y24.09
G3 X7.8568 Y23.1025 I1.0 J0.0
G1 X32.8568 Y27.1025
G3 X33.6988 Y28.09 I-0.158 J0.9874
G1 Y41.09
G3 X32.6988 Y42.09 I-1.0 J0.0
G1 X28.6988
G3 X27.6988 Y41.09 I0.0 J-1.0
G1 Y39.09
G1 X12.6988
G1 Y41.09
G3 X11.6988 Y42.09 I-1.0 J0.0
G1 F500.0 Z-3.0
G1 F1000.0 X7.6988
G3 X6.6988 Y41.09 I0.0 J-1.0
G1 Y24.09
G3 X7.8568 Y23.1025 I1.0 J0.0
G1 X16.7053 Y24.5183
G1 X16.8613 Y24.5433 Z-2.8947
G1 X18.1864 Y24.7553 Z-2.0
G1 X18.3424 Y24.7803
G1 X20.1613 Y25.0713
G1 X20.3173 Y25.0962
G1 X21.6425 Y25.3083 Z-2.8947
G1 X21.7985 Y25.3332 Z-3.0
G1 X32.8568 Y27.1025
G3 X33.6988 Y28.09 I-0.158 J0.9874
G1 Y41.09
G3 X32.6988 Y42.09 I-1.0 J0.0
G1 X28.6988
G3 X27.6988 Y41.09 I0.0 J-1.0
G1 Y39.09
G1 X22.5
G1 X21.0 Z-2.0
G1 X19.0
G1 X17.5 Z-3.0
G1 X12.6988
G1 Y41.09
G3 X11.6988 Y42.09 I-1.0 J0.0
G1 F500.0 Z-4.0
G1 F1000.0 X7.6988
G3 X6.6988 Y41.09 I0.0 J-1.0
G1 Y24.09
G3 X7.8568 Y23.1025 I1.0 J0.0
G1 X16.7053 Y24.5183
G1 X16.8613 Y24.5433 Z-3.7893
G1 X18.1864 Y24.7553 Z-2.0
G1 X18.3424 Y24.7803
G1 X20.1613 Y25.0713
G1 X20.3173 Y25.0962
G1 X21.6425 Y25.3083 Z-3.7893
G1 X21.7985 Y25.3332 Z-4.0
G1 X32.8568 Y27.1025
G3 X33.6988 Y28.09 I-0.158 J0.9874
G1 Y41.09
G3 X32.6988 Y42.09 I-1.0 J0.0
G1 X28.6988
G3 X27.6988 Y41.09 I0.0 J-1.0
G1 Y39.09
G1 X22.5
G1 X21.0 Z-2.0
G1 X19.0
G1 X17.5 Z-4.0
G1 X12.6988
G1 Y41.09
G3 X11.6988 Y42.09 I-1.0 J0.0
G1 F500.0 Z-5.0
G1 F1000.0 X7.6988
G3 X6.6988 Y41.09 I0.0 J-1.0
G1 Y24.09
G3 X7.8568 Y23.1025 I1.0 J0.0
G1 X16.7053 Y24.5183
G1 X16.8613 Y24.5433 Z-4.684
G1 X18.1864 Y24.7553 Z-2.0
G1 X18.3424 Y24.7803
G1 X20.1613 Y25.0713
G1 X20.3173 Y25.0962
G1 X21.6425 Y25.3083 Z-4.684
G1 X21.7985 Y25.3332 Z-5.0
G1 X32.8568 Y27.1025
G3 X33.6988 Y28.09 I-0.158 J0.9874
G1 Y41.09
G3 X32.6988 Y42.09 I-1.0 J0.0
G1 X28.6988
G3 X27.6988 Y41.09 I0.0 J-1.0
G1 Y39.09
G1 X22.5
G1 X21.0 Z-2.0
G1 X19.0
G1 X17.5 Z-5.0
G1 X12.6988
G1 Y41.09
G3 X11.6988 Y42.09 I-1.0 J0.0
G0 F200
( Contour13 )
S1000
G0 Z3.0
G0 X28.6595 Y45.4704
G0 Z1.0
G1 F500.0 Z-1.0
G1 F1000.0 X32.6595
G3 X33.6595 Y46.4704 I0.0 J1.0
G1 Y63.4704
G3 X32.5015 Y64.4578 I-1.0 J0.0
G1 X7.5015 Y60.4578
G3 X6.6595 Y59.4704 I0.158 J-0.9874
G1 Y46.4704
G3 X7.6595 Y45.4704 I1.0 J0.0
G1 X11.6595
G3 X12.6595 Y46.4704 I0.0 J1.0
G1 Y48.4704
G1 X27.6595
G1 Y46.4704
G3 X28.6595 Y45.4704 I1.0 J0.0
G1 F500.0 Z-2.0
G1 F1000.0 X32.6595
G3 X33.6595 Y46.4704 I0.0 J1.0
G1 Y63.4704
G3 X32.5015 Y64.4578 I-1.0 J0.0
G1 X7.5015 Y60.4578
G3 X6.6595 Y59.4704 I0.158 J-0.9874
G1 Y46.4704
G3 X7.6595 Y45.4704 I1.0 J0.0
G1 X11.6595
G3 X12.6595 Y46.4704 I0.0 J1.0
G1 Y48.4704
G1 X27.6595
G1 Y46.4704
G3 X28.6595 Y45.4704 I1.0 J0.0
G1 F500.0 Z-3.0
G1 F1000.0 X32.6595
G3 X33.6595 Y46.4704 I0.0 J1.0
G1 Y63.4704
G3 X32.5015 Y64.4578 I-1.0 J0.0
G1 X22.0852 Y62.7912
G1 X21.7342 Y62.735 Z-2.763
G1 X20.604 Y62.5542 Z-2.0
G1 X20.253 Y62.4981
G1 X18.6292 Y62.2382
G1 X18.2781 Y62.1821
G1 X17.148 Y62.0013 Z-2.763
G1 X16.797 Y61.9451 Z-3.0
G1 X7.5015 Y60.4578
G3 X6.6595 Y59.4704 I0.158 J-0.9874
G1 Y46.4704
G3 X7.6595 Y45.4704 I1.0 J0.0
G1 X11.6595
G3 X12.6595 Y46.4704 I0.0 J1.0
G1 Y48.4704
G1 X17.5
G1 X19.0 Z-2.0
G1 X21.0
G1 X22.5 Z-3.0
G1 X27.6595
G1 Y46.4704
G3 X28.6595 Y45.4704 I1.0 J0.0
G1 F500.0 Z-4.0
G1 F1000.0 X32.6595
G3 X33.6595 Y46.4704 I0.0 J1.0
G1 Y63.4704
G3 X32.5015 Y64.4578 I-1.0 J0.0
G1 X22.0852 Y62.7912
G1 X21.7342 Y62.735 Z-3.526
G1 X20.604 Y62.5542 Z-2.0
G1 X20.253 Y62.4981
G1 X18.6292 Y62.2382
G1 X18.2781 Y62.1821
G1 X17.148 Y62.0013 Z-3.526
G1 X16.797 Y61.9451 Z-4.0
G1 X7.5015 Y60.4578
G3 X6.6595 Y59.4704 I0.158 J-0.9874
G1 Y46.4704
G3 X7.6595 Y45.4704 I1.0 J0.0
G1 X11.6595
G3 X12.6595 Y46.4704 I0.0 J1.0
G1 Y48.4704
G1 X17.5
G1 X19.0 Z-2.0
G1 X21.0
G1 X22.5 Z-4.0
G1 X27.6595
G1 Y46.4704
G3 X28.6595 Y45.4704 I1.0 J0.0
G1 F500.0 Z-5.0
G1 F1000.0 X32.6595
G3 X33.6595 Y46.4704 I0.0 J1.0
G1 Y63.4704
G3 X32.5015 Y64.4578 I-1.0 J0.0
G1 X22.0852 Y62.7912
G1 X21.7342 Y62.735 Z-4.289
G1 X20.604 Y62.5542 Z-2.0
G1 X20.253 Y62.4981
G1 X18.6292 Y62.2382
G1 X18.2781 Y62.1821
G1 X17.148 Y62.0013 Z-4.289
G1 X16.797 Y61.9451 Z-5.0
G1 X7.5015 Y60.4578
G3 X6.6595 Y59.4704 I0.158 J-0.9874
G1 Y46.4704
G3 X7.6595 Y45.4704 I1.0 J0.0
G1 X11.6595
G3 X12.6595 Y46.4704 I0.0 J1.0
G1 Y48.4704
G1 X17.5
G1 X19.0 Z-2.0
G1 X21.0
G1 X22.5 Z-5.0
G1 X27.6595
G1 Y46.4704
G3 X28.6595 Y45.4704 I1.0 J0.0
G0 F200
( Contour14 )
S1000
G0 Z3.0
G0 X42.7632 Y51.9093
G0 Z1.0
G1 F500.0 Z-1.0
G1 F1000.0 X57.7632
G1 Y50.9093
G1 X42.7632
G1 Y51.9093
G1 F500.0 Z-2.0
G1 F1000.0 X57.7632
G1 Y50.9093
G1 X42.7632
G1 Y51.9093
G1 F500.0 Z-3.0
G1 F1000.0 X57.7632
G1 Y50.9093
G1 X42.7632
G1 Y51.9093
G1 F500.0 Z-4.0
G1 F1000.0 X57.7632
G1 Y50.9093
G1 X42.7632
G1 Y51.9093
G1 F500.0 Z-5.0
G1 F1000.0 X57.7632
G1 Y50.9093
G1 X42.7632
G1 Y51.9093
G0 F200
( Contour15 )
S1000
G0 Z3.0
G0 X37.7632 Y45.7093
G0 Z1.0
G1 F500.0 Z-1.0
G1 F1000.0 X62.7632
G3 X63.7632 Y46.7093 I0.0 J1.0
G1 Y63.7093
G3 X62.6052 Y64.6967 I-1.0 J0.0
G1 X37.6052 Y60.6967
G3 X36.7632 Y59.7093 I0.158 J-0.9874
G1 Y46.7093
G3 X37.7632 Y45.7093 I1.0 J0.0
G1 F500.0 Z-2.0
G1 F1000.0 X62.7632
G3 X63.7632 Y46.7093 I0.0 J1.0
G1 Y63.7093
G3 X62.6052 Y64.6967 I-1.0 J0.0
G1 X37.6052 Y60.6967
G3 X36.7632 Y59.7093 I0.158 J-0.9874
G1 Y46.7093
G3 X37.7632 Y45.7093 I1.0 J0.0
G1 F500.0 Z-3.0
G1 F1000.0 X47.5
G1 X49.0 Z-2.0
G1 X51.0
G1 X52.5 Z-3.0
G1 X62.7632
G3 X63.7632 Y46.7093 I0.0 J1.0
G1 Y63.7093
G3 X62.6052 Y64.6967 I-1.0 J0.0
G1 X52.1675 Y63.0267
G1 X52.0505 Y63.008 Z-2.921
G1 X50.6864 Y62.7897 Z-2.0
G1 X50.5694 Y62.771
G1 X48.7115 Y62.4737
G1 X48.5945 Y62.455
G1 X47.2303 Y62.2367 Z-2.921
G1 X47.1133 Y62.218 Z-3.0
G1 X37.6052 Y60.6967
G3 X36.7632 Y59.7093 I0.158 J-0.9874
G1 Y46.7093
G3 X37.7632 Y45.7093 I1.0 J0.0
G1 F500.0 Z-4.0
G1 F1000.0 X47.5
G1 X49.0 Z-2.0
G1 X51.0
G1 X52.5 Z-4.0
G1 X62.7632
G3 X63.7632 Y46.7093 I0.0 J1.0
G1 Y63.7093
G3 X62.6052 Y64.6967 I-1.0 J0.0
G1 X52.1675 Y63.0267
G1 X52.0505 Y63.008 Z-3.842
G1 X50.6864 Y62.7897 Z-2.0
G1 X50.5694 Y62.771
G1 X48.7115 Y62.4737
G1 X48.5945 Y62.455
G1 X47.2303 Y62.2367 Z-3.842
G1 X47.1133 Y62.218 Z-4.0
G1 X37.6052 Y60.6967
G3 X36.7632 Y59.7093 I0.158 J-0.9874
G1 Y46.7093
G3 X37.7632 Y45.7093 I1.0 J0.0
G1 F500.0 Z-5.0
G1 F1000.0 X47.5
G1 X49.0 Z-2.0
G1 X51.0
G1 X52.5 Z-5.0
G1 X62.7632
G3 X63.7632 Y46.7093 I0.0 J1.0
G1 Y63.7093
G3 X62.6052 Y64.6967 I-1.0 J0.0
G1 X52.1675 Y63.0267
G1 X52.0505 Y63.008 Z-4.763
G1 X50.6864 Y62.7897 Z-2.0
G1 X50.5694 Y62.771
G1 X48.7115 Y62.4737
G1 X48.5945 Y62.455
G1 X47.2303 Y62.2367 Z-4.763
G1 X47.1133 Y62.218 Z-5.0
G1 X37.6052 Y60.6967
G3 X36.7632 Y59.7093 I0.158 J-0.9874
G1 Y46.7093
G3 X37.7632 Y45.7093 I1.0 J0.0
G0 F200
( Contour16 )
S1000
G0 Z3.0
G0 X89.8664 Y34.8405
G0 Z1.0
G1 F500.0 Z-1.0
G1 F1000.0 X93.8664
G3 X94.8664 Y35.8405 I0.0 J1.0
G1 Y43.8405
G3 X94.0244 Y44.8279 I-1.0 J0.0
G1 X69.0244 Y48.8279
G3 X67.8664 Y47.8405 I-0.158 J-0.9874
G1 Y35.8405
G3 X68.8664 Y34.8405 I1.0 J0.0
G1 X72.8664
G3 X73.8664 Y35.8405 I0.0 J1.0
G1 Y37.8405
G1 X88.8664
G1 Y35.8405
G3 X89.8664 Y34.8405 I1.0 J0.0
G1 F500.0 Z-2.0
G1 F1000.0 X93.8664
G3 X94.8664 Y35.8405 I0.0 J1.0
G1 Y43.8405
G3 X94.0244 Y44.8279 I-1.0 J0.0
G1 X69.0244 Y48.8279
G3 X67.8664 Y47.8405 I-0.158 J-0.9874
G1 Y35.8405
G3 X68.8664 Y34.8405 I1.0 J0.0
G1 X72.8664
G3 X73.8664 Y35.8405 I0.0 J1.0
G1 Y37.8405
G1 X88.8664
G1 Y35.8405
G3 X89.8664 Y34.8405 I1.0 J0.0
G1 F500.0 Z-3.0
G1 F1000.0 X93.8664
G3 X94.8664 Y35.8405 I0.0 J1.0
G1 Y43.8405
G3 X94.0244 Y44.8279 I-1.0 J0.0
G1 X82.7918 Y46.6251
G1 X82.6358 Y46.6501 Z-2.8947
G1 X81.3107 Y46.8621 Z-2.0
G1 X81.1547 Y46.8871
G1 X79.3358 Y47.1781
G1 X79.1798 Y47.2031
G1 X77.8546 Y47.4151 Z-2.8947
G1 X77.6986 Y47.44 Z-3.0
G1 X69.0244 Y48.8279
G3 X67.8664 Y47.8405 I-0.158 J-0.9874
G1 Y35.8405
G3 X68.8664 Y34.8405 I1.0 J0.0
G1 X72.8664
G3 X73.8664 Y35.8405 I0.0 J1.0
G1 Y37.8405
G1 X78.5
G1 X80.0 Z-2.0
G1 X82.0
G1 X83.5 Z-3.0
G1 X88.8664
G1 Y35.8405
G3 X89.8664 Y34.8405 I1.0 J0.0
G1 F500.0 Z-4.0
G1 F1000.0 X93.8664
G3 X94.8664 Y35.8405 I0.0 J1.0
G1 Y43.8405
G3 X94.0244 Y44.8279 I-1.0 J0.0
G1 X82.7918 Y46.6251
G1 X82.6358 Y46.6501 Z-3.7893
G1 X81.3107 Y46.8621 Z-2.0
G1 X81.1547 Y46.8871
G1 X79.3358 Y47.1781
G1 X79.1798 Y47.2031
G1 X77.8546 Y47.4151 Z-3.7893
G1 X77.6986 Y47.44 Z-4.0
G1 X69.0244 Y48.8279
G3 X67.8664 Y47.8405 I-0.158 J-0.9874
G1 Y35.8405
G3 X68.8664 Y34.8405 I1.0 J0.0
G1 X72.8664
G3 X73.8664 Y35.8405 I0.0 J1.0
G1 Y37.8405
G1 X78.5
G1 X80.0 Z-2.0
G1 X82.0
G1 X83.5 Z-4.0
G1 X88.8664
G1 Y35.8405
G3 X89.8664 Y34.8405 I1.0 J0.0
G1 F500.0 Z-5.0
G1 F1000.0 X93.8664
G3 X94.8664 Y35.8405 I0.0 J1.0
G1 Y43.8405
G3 X94.0244 Y44.8279 I-1.0 J0.0
G1 X82.7918 Y46.6251
G1 X82.6358 Y46.6501 Z-4.684
G1 X81.3107 Y46.8621 Z-2.0
G1 X81.1547 Y46.8871
G1 X79.3358 Y47.1781
G1 X79.1798 Y47.2031
G1 X77.8546 Y47.4151 Z-4.684
G1 X77.6986 Y47.44 Z-5.0
G1 X69.0244 Y48.8279
G3 X67.8664 Y47.8405 I-0.158 J-0.9874
G1 Y35.8405
G3 X68.8664 Y34.8405 I1.0 J0.0
G1 X72.8664
G3 X73.8664 Y35.8405 I0.0 J1.0
G1 Y37.8405
G1 X78.5
G1 X80.0 Z-2.0
G1 X82.0
G1 X83.5 Z-5.0
G1 X88.8664
G1 Y35.8405
G3 X89.8664 Y34.8405 I1.0 J0.0
G0 F200
( Contour17 )
S1000
G0 Z3.0
G0 X72.8342 Y61.2676
G0 Z1.0
G1 F500.0 Z-1.0
G1 F1000.0 X68.8342
G3 X67.8342 Y60.2676 I0.0 J-1.0
G1 Y52.2676
G3 X68.6763 Y51.2802 I1.0 J0.0
G1 X93.6763 Y47.2802
G3 X94.8342 Y48.2676 I0.158 J0.9874
G1 Y60.2676
G3 X93.8342 Y61.2676 I-1.0 J0.0
G1 X89.8342
G3 X88.8342 Y60.2676 I0.0 J-1.0
G1 Y58.2676
G1 X73.8342
G1 Y60.2676
G3 X72.8342 Y61.2676 I-1.0 J0.0
G1 F500.0 Z-2.0
G1 F1000.0 X68.8342
G3 X67.8342 Y60.2676 I0.0 J-1.0
G1 Y52.2676
G3 X68.6763 Y51.2802 I1.0 J0.0
G1 X93.6763 Y47.2802
G3 X94.8342 Y48.2676 I0.158 J0.9874
G1 Y60.2676
G3 X93.8342 Y61.2676 I-1.0 J0.0
G1 X89.8342
G3 X88.8342 Y60.2676 I0.0 J-1.0
G1 Y58.2676
G1 X73.8342
G1 Y60.2676
G3 X72.8342 Y61.2676 I-1.0 J0.0
G1 F500.0 Z-3.0
G1 F1000.0 X68.8342
G3 X67.8342 Y60.2676 I0.0 J-1.0
G1 Y52.2676
G3 X68.6763 Y51.2802 I1.0 J0.0
G1 X78.4235 Y49.7206
G1 X79.9047 Y49.4836 Z-2.0
G1 X81.8795 Y49.1676
G1 X83.3607 Y48.9307 Z-3.0
G1 X93.6763 Y47.2802
G3 X94.8342 Y48.2676 I0.158 J0.9874
G1 Y60.2676
G3 X93.8342 Y61.2676 I-1.0 J0.0
G1 X89.8342
G3 X88.8342 Y60.2676 I0.0 J-1.0
G1 Y58.2676
G1 X84.5
G1 X83.0 Z-2.0
G1 X81.0
G1 X79.5 Z-3.0
G1 X73.8342
G1 Y60.2676
G3 X72.8342 Y61.2676 I-1.0 J0.0
G1 F500.0 Z-4.0
G1 F1000.0 X68.8342
G3 X67.8342 Y60.2676 I0.0 J-1.0
G1 Y52.2676
G3 X68.6763 Y51.2802 I1.0 J0.0
G1 X78.4235 Y49.7206
G1 X79.9047 Y49.4836 Z-2.0
G1 X81.8795 Y49.1676
G1 X83.3607 Y48.9307 Z-4.0
G1 X93.6763 Y47.2802
G3 X94.8342 Y48.2676 I0.158 J0.9874
G1 Y60.2676
G3 X93.8342 Y61.2676 I-1.0 J0.0
G1 X89.8342
G3 X88.8342 Y60.2676 I0.0 J-1.0
G1 Y58.2676
G1 X84.5
G1 X83.0 Z-2.0
G1 X81.0
G1 X79.5 Z-4.0
G1 X73.8342
G1 Y60.2676
G3 X72.8342 Y61.2676 I-1.0 J0.0
G1 F500.0 Z-5.0
G1 F1000.0 X68.8342
G3 X67.8342 Y60.2676 I0.0 J-1.0
G1 Y52.2676
G3 X68.6763 Y51.2802 I1.0 J0.0
G1 X78.4235 Y49.7206
G1 X79.9047 Y49.4836 Z-2.0
G1 X81.8795 Y49.1676
G1 X83.3607 Y48.9307 Z-5.0
G1 X93.6763 Y47.2802
G3 X94.8342 Y48.2676 I0.158 J0.9874
G1 Y60.2676
G3 X93.8342 Y61.2676 I-1.0 J0.0
G1 X89.8342
G3 X88.8342 Y60.2676 I0.0 J-1.0
G1 Y58.2676
G1 X84.5
G1 X83.0 Z-2.0
G1 X81.0
G1 X79.5 Z-5.0
G1 X73.8342
G1 Y60.2676
G3 X72.8342 Y61.2676 I-1.0 J0.0
G0 F200
( Contour18 )
S1000
G0 Z3.0
G0 X104.2637 Y41.1527
G0 Z1.0
G1 F500.0 Z-1.0
G1 F1000.0 X119.2637
G1 Y40.1527
G1 X104.2637
G1 Y41.1527
G1 F500.0 Z-2.0
G1 F1000.0 X119.2637
G1 Y40.1527
G1 X104.2637
G1 Y41.1527
G1 F500.0 Z-3.0
G1 F1000.0 X119.2637
G1 Y40.1527
G1 X104.2637
G1 Y41.1527
G1 F500.0 Z-4.0
G1 F1000.0 X119.2637
G1 Y40.1527
G1 X104.2637
G1 Y41.1527
G1 F500.0 Z-5.0
G1 F1000.0 X119.2637
G1 Y40.1527
G1 X104.2637
G1 Y41.1527
G0 F200
( Contour19 )
S1000
G0 Z3.0
G0 X125.2637 Y35.9527
G0 Z1.0
G1 F500.0 Z-1.0
G1 F1000.0 Y43.9527
G3 X124.4217 Y44.9401 I-1.0 J0.0
G1 X99.4217 Y48.9401
G3 X98.2637 Y47.9527 I-0.158 J-0.9874
G1 Y35.9527
G3 X99.2637 Y34.9527 I1.0 J0.0
G1 X124.2637
G3 X125.2637 Y35.9527 I0.0 J1.0
G1 F500.0 Z-2.0
G1 F1000.0 Y43.9527
G3 X124.4217 Y44.9401 I-1.0 J0.0
G1 X99.4217 Y48.9401
G3 X98.2637 Y47.9527 I-0.158 J-0.9874
G1 Y35.9527
G3 X99.2637 Y34.9527 I1.0 J0.0
G1 X124.2637
G3 X125.2637 Y35.9527 I0.0 J1.0
G1 F500.0 Z-3.0
G1 F1000.0 Y43.9527
G3 X124.4217 Y44.9401 I-1.0 J0.0
G1 X114.6133 Y46.5094
G1 X113.1321 Y46.7464 Z-2.0
G1 X111.1573 Y47.0624
G1 X109.6761 Y47.2994 Z-3.0
G1 X99.4217 Y48.9401
G3 X98.2637 Y47.9527 I-0.158 J-0.9874
G1 Y35.9527
G3 X99.2637 Y34.9527 I1.0 J0.0
G1 X108.5
G1 X110.0 Z-2.0
G1 X112.0
G1 X113.5 Z-3.0
G1 X124.2637
G3 X125.2637 Y35.9527 I0.0 J1.0
G1 F500.0 Z-4.0
G1 F1000.0 Y43.9527
G3 X124.4217 Y44.9401 I-1.0 J0.0
G1 X114.6133 Y46.5094
G1 X113.1321 Y46.7464 Z-2.0
G1 X111.1573 Y47.0624
G1 X109.6761 Y47.2994 Z-4.0
G1 X99.4217 Y48.9401
G3 X98.2637 Y47.9527 I-0.158 J-0.9874
G1 Y35.9527
G3 X99.2637 Y34.9527 I1.0 J0.0
G1 X108.5
G1 X110.0 Z-2.0
G1 X112.0
G1 X113.5 Z-4.0
G1 X124.2637
G3 X125.2637 Y35.9527 I0.0 J1.0
G1 F500.0 Z-5.0
G1 F1000.0 Y43.9527
G3 X124.4217 Y44.9401 I-1.0 J0.0
G1 X114.6133 Y46.5094
G1 X113.1321 Y46.7464 Z-2.0
G1 X111.1573 Y47.0624
G1 X109.6761 Y47.2994 Z-5.0
G1 X99.4217 Y48.9401
G3 X98.2637 Y47.9527 I-0.158 J-0.9874
G1 Y35.9527
G3 X99.2637 Y34.9527 I1.0 J0.0
G1 X108.5
G1 X110.0 Z-2.0
G1 X112.0
G1 X113.5 Z-5.0
G1 X124.2637
G3 X125.2637 Y35.9527 I0.0 J1.0
G0 F200
( Contour20 )
S1000
G0 Z3.0
G0 X119.2975 Y55.1875
G0 Z1.0
G1 F500.0 Z-1.0
G1 F1000.0 X104.2975
G1 Y56.1875
G1 X119.2975
G1 Y55.1875
G1 F500.0 Z-2.0
G1 F1000.0 X104.2975
G1 Y56.1875
G1 X119.2975
G1 Y55.1875
G1 F500.0 Z-3.0
G1 F1000.0 X104.2975
G1 Y56.1875
G1 X119.2975
G1 Y55.1875
G1 F500.0 Z-4.0
G1 F1000.0 X104.2975
G1 Y56.1875
G1 X119.2975
G1 Y55.1875
G1 F500.0 Z-5.0
G1 F1000.0 X104.2975
G1 Y56.1875
G1 X119.2975
G1 Y55.1875
G0 F200
( Contour21 )
S1000
G0 Z3.0
G0 X98.2975 Y60.3875
G0 Z1.0
G1 F500.0 Z-1.0
G1 F1000.0 Y52.3875
G3 X99.1395 Y51.4001 I1.0 J0.0
G1 X124.1395 Y47.4001
G3 X125.2975 Y48.3875 I0.158 J0.9874
G1 Y60.3875
G3 X124.2975 Y61.3875 I-1.0 J0.0
G1 X99.2975
G3 X98.2975 Y60.3875 I0.0 J-1.0
G1 F500.0 Z-2.0
G1 F1000.0 Y52.3875
G3 X99.1395 Y51.4001 I1.0 J0.0
G1 X124.1395 Y47.4001
G3 X125.2975 Y48.3875 I0.158 J0.9874
G1 Y60.3875
G3 X124.2975 Y61.3875 I-1.0 J0.0
G1 X99.2975
G3 X98.2975 Y60.3875 I0.0 J-1.0
G1 F500.0 Z-3.0
G1 F1000.0 Y52.3875
G3 X99.1395 Y51.4001 I1.0 J0.0
G1 X110.2478 Y49.6227
G1 X110.4038 Y49.5978 Z-2.8947
G1 X111.729 Y49.3858 Z-2.0
G1 X111.885 Y49.3608
G1 X113.7039 Y49.0698
G1 X113.8599 Y49.0448
G1 X115.185 Y48.8328 Z-2.8947
G1 X115.3411 Y48.8078 Z-3.0
G1 X124.1395 Y47.4001
G3 X125.2975 Y48.3875 I0.158 J0.9874
G1 Y60.3875
G3 X124.2975 Y61.3875 I-1.0 J0.0
G1 X113.5172
G1 X112.0172 Z-2.0
G1 X110.0172
G1 X108.5172 Z-3.0
G1 X99.2975
G3 X98.2975 Y60.3875 I0.0 J-1.0
G1 F500.0 Z-4.0
G1 F1000.0 Y52.3875
G3 X99.1395 Y51.4001 I1.0 J0.0
G1 X110.2478 Y49.6227
G1 X110.4038 Y49.5978 Z-3.7893
G1 X111.729 Y49.3858 Z-2.0
G1 X111.885 Y49.3608
G1 X113.7039 Y49.0698
G1 X113.8599 Y49.0448
G1 X115.185 Y48.8328 Z-3.7893
G1 X115.3411 Y48.8078 Z-4.0
G1 X124.1395 Y47.4001
G3 X125.2975 Y48.3875 I0.158 J0.9874
G1 Y60.3875
G3 X124.2975 Y61.3875 I-1.0 J0.0
G1 X113.5172
G1 X112.0172 Z-2.0
G1 X110.0172
G1 X108.5172 Z-4.0
G1 X99.2975
G3 X98.2975 Y60.3875 I0.0 J-1.0
G1 F500.0 Z-5.0
G1 F1000.0 Y52.3875
G3 X99.1395 Y51.4001 I1.0 J0.0
G1 X110.2478 Y49.6227
G1 X110.4038 Y49.5978 Z-4.684
G1 X111.729 Y49.3858 Z-2.0
G1 X111.885 Y49.3608
G1 X113.7039 Y49.0698
G1 X113.8599 Y49.0448
G1 X115.185 Y48.8328 Z-4.684
G1 X115.3411 Y48.8078 Z-5.0
G1 X124.1395 Y47.4001
G3 X125.2975 Y48.3875 I0.158 J0.9874
G1 Y60.3875
G3 X124.2975 Y61.3875 I-1.0 J0.0
G1 X113.5172
G1 X112.0172 Z-2.0
G1 X110.0172
G1 X108.5172 Z-5.0
G1 X99.2975
G3 X98.2975 Y60.3875 I0.0 J-1.0
G0 F200
( Contour22 )
S1000
G0 Z3.0
G0 X104.0948 Y70.1968
G0 Z1.0
G1 F500.0 Z-1.0
G1 F1000.0 X119.0948
G1 Y69.1968
G1 X104.0948
G1 Y70.1968
G1 F500.0 Z-2.0
G1 F1000.0 X119.0948
G1 Y69.1968
G1 X104.0948
G1 Y70.1968
G1 F500.0 Z-3.0
G1 F1000.0 X119.0948
G1 Y69.1968
G1 X104.0948
G1 Y70.1968
G1 F500.0 Z-4.0
G1 F1000.0 X119.0948
G1 Y69.1968
G1 X104.0948
G1 Y70.1968
G1 F500.0 Z-5.0
G1 F1000.0 X119.0948
G1 Y69.1968
G1 X104.0948
G1 Y70.1968
G0 F200
( Contour23 )
S1000
G0 Z3.0
G0 X125.0948 Y64.9968
G0 Z1.0
G1 F500.0 Z-1.0
G1 F1000.0 Y72.9968
G3 X124.2528 Y73.9843 I-1.0 J0.0
G1 X99.2528 Y77.9843
G3 X98.0948 Y76.9968 I-0.158 J-0.9874
G1 Y64.9968
G3 X99.0948 Y63.9968 I1.0 J0.0
G1 X124.0948
G3 X125.0948 Y64.9968 I0.0 J1.0
G1 F500.0 Z-2.0
G1 F1000.0 Y72.9968
G3 X124.2528 Y73.9843 I-1.0 J0.0
G1 X99.2528 Y77.9843
G3 X98.0948 Y76.9968 I-0.158 J-0.9874
G1 Y64.9968
G3 X99.0948 Y63.9968 I1.0 J0.0
G1 X124.0948
G3 X125.0948 Y64.9968 I0.0 J1.0
G1 F500.0 Z-3.0
G1 F1000.0 Y72.9968
G3 X124.2528 Y73.9843 I-1.0 J0.0
G1 X113.6409 Y75.6822
G1 X113.3289 Y75.7321 Z-2.7893
G1 X112.1598 Y75.9191 Z-2.0
G1 X111.8478 Y75.9691
G1 X110.1849 Y76.2351
G1 X109.8729 Y76.285
G1 X108.7037 Y76.4721 Z-2.7893
G1 X108.3917 Y76.522 Z-3.0
G1 X99.2528 Y77.9843
G3 X98.0948 Y76.9968 I-0.158 J-0.9874
G1 Y64.9968
G3 X99.0948 Y63.9968 I1.0 J0.0
G1 X108.5
G1 X110.0 Z-2.0
G1 X112.0
G1 X113.5 Z-3.0
G1 X124.0948
G3 X125.0948 Y64.9968 I0.0 J1.0
G1 F500.0 Z-4.0
G1 F1000.0 Y72.9968
G3 X124.2528 Y73.9843 I-1.0 J0.0
G1 X113.6409 Y75.6822
G1 X113.3289 Y75.7321 Z-3.5787
G1 X112.1598 Y75.9191 Z-2.0
G1 X111.8478 Y75.9691
G1 X110.1849 Y76.2351
G1 X109.8729 Y76.285
G1 X108.7037 Y76.4721 Z-3.5787
G1 X108.3917 Y76.522 Z-4.0
G1 X99.2528 Y77.9843
G3 X98.0948 Y76.9968 I-0.158 J-0.9874
G1 Y64.9968
G3 X99.0948 Y63.9968 I1.0 J0.0
G1 X108.5
G1 X110.0 Z-2.0
G1 X112.0
G1 X113.5 Z-4.0
G1 X124.0948
G3 X125.0948 Y64.9968 I0.0 J1.0
G1 F500.0 Z-5.0
G1 F1000.0 Y72.9968
G3 X124.2528 Y73.9843 I-1.0 J0.0
G1 X113.6409 Y75.6822
G1 X113.3289 Y75.7321 Z-4.368
G1 X112.1598 Y75.9191 Z-2.0
G1 X111.8478 Y75.9691
G1 X110.1849 Y76.2351
G1 X109.8729 Y76.285
G1 X108.7037 Y76.4721 Z-4.368
G1 X108.3917 Y76.522 Z-5.0
G1 X99.2528 Y77.9843
G3 X98.0948 Y76.9968 I-0.158 J-0.9874
G1 Y64.9968
G3 X99.0948 Y63.9968 I1.0 J0.0
G1 X108.5
G1 X110.0 Z-2.0
G1 X112.0
G1 X113.5 Z-5.0
G1 X124.0948
G3 X125.0948 Y64.9968 I0.0 J1.0
G0 F200
( Contour24 )
S1000
G0 Z3.0
G0 X119.1286 Y84.2317
G0 Z1.0
G1 F500.0 Z-1.0
G1 F1000.0 X104.1286
G1 Y85.2317
G1 X119.1286
G1 Y84.2317
G1 F500.0 Z-2.0
G1 F1000.0 X104.1286
G1 Y85.2317
G1 X119.1286
G1 Y84.2317
G1 F500.0 Z-3.0
G1 F1000.0 X104.1286
G1 Y85.2317
G1 X119.1286
G1 Y84.2317
G1 F500.0 Z-4.0
G1 F1000.0 X104.1286
G1 Y85.2317
G1 X119.1286
G1 Y84.2317
G1 F500.0 Z-5.0
G1 F1000.0 X104.1286
G1 Y85.2317
G1 X119.1286
G1 Y84.2317
G0 F200
( Contour25 )
S1000
G0 Z3.0
G0 X98.1286 Y89.4317
G0 Z1.0
G1 F500.0 Z-1.0
G1 F1000.0 Y81.4317
G3 X98.9706 Y80.4442 I1.0 J0.0
G1 X123.9706 Y76.4442
G3 X125.1286 Y77.4317 I0.158 J0.9874
G1 Y89.4317
G3 X124.1286 Y90.4317 I-1.0 J0.0
G1 X99.1286
G3 X98.1286 Y89.4317 I0.0 J-1.0
G1 F500.0 Z-2.0
G1 F1000.0 Y81.4317
G3 X98.9706 Y80.4442 I1.0 J0.0
G1 X123.9706 Y76.4442
G3 X125.1286 Y77.4317 I0.158 J0.9874
G1 Y89.4317
G3 X124.1286 Y90.4317 I-1.0 J0.0
G1 X99.1286
G3 X98.1286 Y89.4317 I0.0 J-1.0
G1 F500.0 Z-3.0
G1 F1000.0 Y81.4317
G3 X98.9706 Y80.4442 I1.0 J0.0
G1 X109.2755 Y78.7955
G1 X109.4315 Y78.7705 Z-2.8947
G1 X110.7566 Y78.5585 Z-2.0
G1 X110.9126 Y78.5335
G1 X112.7315 Y78.2425
G1 X112.8875 Y78.2175
G1 X114.2127 Y78.0055 Z-2.8947
G1 X114.3687 Y77.9805 Z-3.0
G1 X123.9706 Y76.4442
G3 X125.1286 Y77.4317 I0.158 J0.9874
G1 Y89.4317
G3 X124.1286 Y90.4317 I-1.0 J0.0
G1 X113.5
G1 X112.0 Z-2.0
G1 X110.0
G1 X108.5 Z-3.0
G1 X99.1286
G3 X98.1286 Y89.4317 I0.0 J-1.0
G1 F500.0 Z-4.0
G1 F1000.0 Y81.4317
G3 X98.9706 Y80.4442 I1.0 J0.0
G1 X109.2755 Y78.7955
G1 X109.4315 Y78.7705 Z-3.7893
G1 X110.7566 Y78.5585 Z-2.0
G1 X110.9126 Y78.5335
G1 X112.7315 Y78.2425
G1 X112.8875 Y78.2175
G1 X114.2127 Y78.0055 Z-3.7893
G1 X114.3687 Y77.9805 Z-4.0
G1 X123.9706 Y76.4442
G3 X125.1286 Y77.4317 I0.158 J0.9874
G1 Y89.4317
G3 X124.1286 Y90.4317 I-1.0 J0.0
G1 X113.5
G1 X112.0 Z-2.0
G1 X110.0
G1 X108.5 Z-4.0
G1 X99.1286
G3 X98.1286 Y89.4317 I0.0 J-1.0
G1 F500.0 Z-5.0
G1 F1000.0 Y81.4317
G3 X98.9706 Y80.4442 I1.0 J0.0
G1 X109.2755 Y78.7955
G1 X109.4315 Y78.7705 Z-4.684
G1 X110.7566 Y78.5585 Z-2.0
G1 X110.9126 Y78.5335
G1 X112.7315 Y78.2425
G1 X112.8875 Y78.2175
G1 X114.2127 Y78.0055 Z-4.684
G1 X114.3687 Y77.9805 Z-5.0
G1 X123.9706 Y76.4442
G3 X125.1286 Y77.4317 I0.158 J0.9874
G1 Y89.4317
G3 X124.1286 Y90.4317 I-1.0 J0.0
G1 X113.5
G1 X112.0 Z-2.0
G1 X110.0
G1 X108.5 Z-5.0
G1 X99.1286
G3 X98.1286 Y89.4317 I0.0 J-1.0
G0 F200
( Contour26 )
S1000
G0 Z3.0
G0 X89.6975 Y63.8846
G0 Z1.0
G1 F500.0 Z-1.0
G1 F1000.0 X93.6975
G3 X94.6975 Y64.8846 I0.0 J1.0
G1 Y72.8846
G3 X93.8555 Y73.8721 I-1.0 J0.0
G1 X68.8555 Y77.8721
G3 X67.6975 Y76.8846 I-0.158 J-0.9874
G1 Y64.8846
G3 X68.6975 Y63.8846 I1.0 J0.0
G1 X72.6975
G3 X73.6975 Y64.8846 I0.0 J1.0
G1 Y66.8846
G1 X88.6975
G1 Y64.8846
G3 X89.6975 Y63.8846 I1.0 J0.0
G1 F500.0 Z-2.0
G1 F1000.0 X93.6975
G3 X94.6975 Y64.8846 I0.0 J1.0
G1 Y72.8846
G3 X93.8555 Y73.8721 I-1.0 J0.0
G1 X68.8555 Y77.8721
G3 X67.6975 Y76.8846 I-0.158 J-0.9874
G1 Y64.8846
G3 X68.6975 Y63.8846 I1.0 J0.0
G1 X72.6975
G3 X73.6975 Y64.8846 I0.0 J1.0
G1 Y66.8846
G1 X88.6975
G1 Y64.8846
G3 X89.6975 Y63.8846 I1.0 J0.0
G1 F500.0 Z-3.0
G1 F1000.0 X93.6975
G3 X94.6975 Y64.8846 I0.0 J1.0
G1 Y72.8846
G3 X93.8555 Y73.8721 I-1.0 J0.0
G1 X84.7446 Y75.3298
G1 X84.5886 Y75.3548 Z-2.8947
G1 X83.2634 Y75.5668 Z-2.0
G1 X83.1074 Y75.5918
G1 X81.2885 Y75.8828
G1 X81.1325 Y75.9078
G1 X79.8074 Y76.1198 Z-2.8947
G1 X79.6514 Y76.1447 Z-3.0
G1 X68.8555 Y77.8721
G3 X67.6975 Y76.8846 I-0.158 J-0.9874
G1 Y64.8846
G3 X68.6975 Y63.8846 I1.0 J0.0
G1 X72.6975
G3 X73.6975 Y64.8846 I0.0 J1.0
G1 Y66.8846
G1 X79.5
G1 X81.0 Z-2.0
G1 X83.0
G1 X84.5 Z-3.0
G1 X88.6975
G1 Y64.8846
G3 X89.6975 Y63.8846 I1.0 J0.0
G1 F500.0 Z-4.0
G1 F1000.0 X93.6975
G3 X94.6975 Y64.8846 I0.0 J1.0
G1 Y72.8846
G3 X93.8555 Y73.8721 I-1.0 J0.0
G1 X84.7446 Y75.3298
G1 X84.5886 Y75.3548 Z-3.7893
G1 X83.2634 Y75.5668 Z-2.0
G1 X83.1074 Y75.5918
G1 X81.2885 Y75.8828
G1 X81.1325 Y75.9078
G1 X79.8074 Y76.1198 Z-3.7893
G1 X79.6514 Y76.1447 Z-4.0
G1 X68.8555 Y77.8721
G3 X67.6975 Y76.8846 I-0.158 J-0.9874
G1 Y64.8846
G3 X68.6975 Y63.8846 I1.0 J0.0
G1 X72.6975
G3 X73.6975 Y64.8846 I0.0 J1.0
G1 Y66.8846
G1 X79.5
G1 X81.0 Z-2.0
G1 X83.0
G1 X84.5 Z-4.0
G1 X88.6975
G1 Y64.8846
G3 X89.6975 Y63.8846 I1.0 J0.0
G1 F500.0 Z-5.0
G1 F1000.0 X93.6975
G3 X94.6975 Y64.8846 I0.0 J1.0
G1 Y72.8846
G3 X93.8555 Y73.8721 I-1.0 J0.0
G1 X84.7446 Y75.3298
G1 X84.5886 Y75.3548 Z-4.684
G1 X83.2634 Y75.5668 Z-2.0
G1 X83.1074 Y75.5918
G1 X81.2885 Y75.8828
G1 X81.1325 Y75.9078
G1 X79.8074 Y76.1198 Z-4.684
G1 X79.6514 Y76.1447 Z-5.0
G1 X68.8555 Y77.8721
G3 X67.6975 Y76.8846 I-0.158 J-0.9874
G1 Y64.8846
G3 X68.6975 Y63.8846 I1.0 J0.0
G1 X72.6975
G3 X73.6975 Y64.8846 I0.0 J1.0
G1 Y66.8846
G1 X79.5
G1 X81.0 Z-2.0
G1 X83.0
G1 X84.5 Z-5.0
G1 X88.6975
G1 Y64.8846
G3 X89.6975 Y63.8846 I1.0 J0.0
G0 F200
( Contour27 )
S1000
G0 Z3.0
G0 X72.6653 Y90.3118
G0 Z1.0
G1 F500.0 Z-1.0
G1 F1000.0 X68.6653
G3 X67.6653 Y89.3118 I0.0 J-1.0
G1 Y81.3118
G3 X68.5073 Y80.3243 I1.0 J0.0
G1 X93.5073 Y76.3243
G3 X94.6653 Y77.3118 I0.158 J0.9874
G1 Y89.3118
G3 X93.6653 Y90.3118 I-1.0 J0.0
G1 X89.6653
G3 X88.6653 Y89.3118 I0.0 J-1.0
G1 Y87.3118
G1 X73.6653
G1 Y89.3118
G3 X72.6653 Y90.3118 I-1.0 J0.0
G1 F500.0 Z-2.0
G1 F1000.0 X68.6653
G3 X67.6653 Y89.3118 I0.0 J-1.0
G1 Y81.3118
G3 X68.5073 Y80.3243 I1.0 J0.0
G1 X93.5073 Y76.3243
G3 X94.6653 Y77.3118 I0.158 J0.9874
G1 Y89.3118
G3 X93.6653 Y90.3118 I-1.0 J0.0
G1 X89.6653
G3 X88.6653 Y89.3118 I0.0 J-1.0
G1 Y87.3118
G1 X73.6653
G1 Y89.3118
G3 X72.6653 Y90.3118 I-1.0 J0.0
G1 F500.0 Z-3.0
G1 F1000.0 X68.6653
G3 X67.6653 Y89.3118 I0.0 J-1.0
G1 Y81.3118
G3 X68.5073 Y80.3243 I1.0 J0.0
G1 X80.2202 Y78.4503
G1 X80.5323 Y78.4003 Z-2.7893
G1 X81.7014 Y78.2133 Z-2.0
G1 X82.0134 Y78.1634
G1 X83.6763 Y77.8973
G1 X83.9883 Y77.8474
G1 X85.1574 Y77.6603 Z-2.7893
G1 X85.4695 Y77.6104 Z-3.0
G1 X93.5073 Y76.3243
G3 X94.6653 Y77.3118 I0.158 J0.9874
G1 Y89.3118
G3 X93.6653 Y90.3118 I-1.0 J0.0
G1 X89.6653
G3 X88.6653 Y89.3118 I0.0 J-1.0
G1 Y87.3118
G1 X84.5
G1 X83.0 Z-2.0
G1 X81.0
G1 X79.5 Z-3.0
G1 X73.6653
G1 Y89.3118
G3 X72.6653 Y90.3118 I-1.0 J0.0
G1 F500.0 Z-4.0
G1 F1000.0 X68.6653
G3 X67.6653 Y89.3118 I0.0 J-1.0
G1 Y81.3118
G3 X68.5073 Y80.3243 I1.0 J0.0
G1 X80.2202 Y78.4503
G1 X80.5323 Y78.4003 Z-3.5787
G1 X81.7014 Y78.2133 Z-2.0
G1 X82.0134 Y78.1634
G1 X83.6763 Y77.8973
G1 X83.9883 Y77.8474
G1 X85.1574 Y77.6603 Z-3.5787
G1 X85.4695 Y77.6104 Z-4.0
G1 X93.5073 Y76.3243
G3 X94.6653 Y77.3118 I0.158 J0.9874
G1 Y89.3118
G3 X93.6653 Y90.3118 I-1.0 J0.0
G1 X89.6653
G3 X88.6653 Y89.3118 I0.0 J-1.0
G1 Y87.3118
G1 X84.5
G1 X83.0 Z-2.0
G1 X81.0
G1 X79.5 Z-4.0
G1 X73.6653
G1 Y89.3118
G3 X72.6653 Y90.3118 I-1.0 J0.0
G1 F500.0 Z-5.0
G1 F1000.0 X68.6653
G3 X67.6653 Y89.3118 I0.0 J-1.0
G1 Y81.3118
G3 X68.5073 Y80.3243 I1.0 J0.0
G1 X80.2202 Y78.4503
G1 X80.5323 Y78.4003 Z-4.368
G1 X81.7014 Y78.2133 Z-2.0
G1 X82.0134 Y78.1634
G1 X83.6763 Y77.8973
G1 X83.9883 Y77.8474
G1 X85.1574 Y77.6603 Z-4.368
G1 X85.4695 Y77.6104 Z-5.0
G1 X93.5073 Y76.3243
G3 X94.6653 Y77.3118 I0.158 J0.9874
G1 Y89.3118
G3 X93.6653 Y90.3118 I-1.0 J0.0
G1 X89.6653
G3 X88.6653 Y89.3118 I0.0 J-1.0
G1 Y87.3118
G1 X84.5
G1 X83.0 Z-2.0
G1 X81.0
G1 X79.5 Z-5.0
G1 X73.6653
G1 Y89.3118
G3 X72.6653 Y90.3118 I-1.0 J0.0
G0 F200
( Contour28 )
S1000
G0 Z3.0
G0 X57.7632 Y76.6973
G0 Z1.0
G1 F500.0 Z-1.0
G1 F1000.0 X42.7632
G1 Y77.6973
G1 X57.7632
G1 Y76.6973
G1 F500.0 Z-2.0
G1 F1000.0 X42.7632
G1 Y77.6973
G1 X57.7632
G1 Y76.6973
G1 F500.0 Z-3.0
G1 F1000.0 X42.7632
G1 Y77.6973
G1 X57.7632
G1 Y76.6973
G1 F500.0 Z-4.0
G1 F1000.0 X42.7632
G1 Y77.6973
G1 X57.7632
G1 Y76.6973
G1 F500.0 Z-5.0
G1 F1000.0 X42.7632
G1 Y77.6973
G1 X57.7632
G1 Y76.6973
G0 F200
( Contour29 )
S1000
G0 Z3.0
G0 X62.7632 Y82.8973
G0 Z1.0
G1 F500.0 Z-1.0
G1 F1000.0 X37.7632
G3 X36.7632 Y81.8973 I0.0 J-1.0
G1 Y64.8973
G3 X37.9212 Y63.9099 I1.0 J0.0
G1 X62.9212 Y67.9099
G3 X63.7632 Y68.8973 I-0.158 J0.9874
G1 Y81.8973
G3 X62.7632 Y82.8973 I-1.0 J0.0
G1 F500.0 Z-2.0
G1 F1000.0 X37.7632
G3 X36.7632 Y81.8973 I0.0 J-1.0
G1 Y64.8973
G3 X37.9212 Y63.9099 I1.0 J0.0
G1 X62.9212 Y67.9099
G3 X63.7632 Y68.8973 I-0.158 J0.9874
G1 Y81.8973
G3 X62.7632 Y82.8973 I-1.0 J0.0
G1 F500.0 Z-3.0
G1 F1000.0 X51.8769
G1 X50.3769 Z-2.0
G1 X48.3769
G1 X46.8769 Z-3.0
G1 X37.7632
G3 X36.7632 Y81.8973 I0.0 J-1.0
G1 Y64.8973
G3 X37.9212 Y63.9099 I1.0 J0.0
G1 X47.4 Y65.4265
G1 X47.712 Y65.4764 Z-2.7893
G1 X48.8811 Y65.6634 Z-2.0
G1 X49.1931 Y65.7134
G1 X50.856 Y65.9794
G1 X51.168 Y66.0294
G1 X52.3372 Y66.2164 Z-2.7893
G1 X52.6492 Y66.2663 Z-3.0
G1 X62.9212 Y67.9099
G3 X63.7632 Y68.8973 I-0.158 J0.9874
G1 Y81.8973
G3 X62.7632 Y82.8973 I-1.0 J0.0
G1 F500.0 Z-4.0
G1 F1000.0 X51.8769
G1 X50.3769 Z-2.0
G1 X48.3769
G1 X46.8769 Z-4.0
G1 X37.7632
G3 X36.7632 Y81.8973 I0.0 J-1.0
G1 Y64.8973
G3 X37.9212 Y63.9099 I1.0 J0.0
G1 X47.4 Y65.4265
G1 X47.712 Y65.4764 Z-3.5787
G1 X48.8811 Y65.6634 Z-2.0
G1 X49.1931 Y65.7134
G1 X50.856 Y65.9794
G1 X51.168 Y66.0294
G1 X52.3372 Y66.2164 Z-3.5787
G1 X52.6492 Y66.2663 Z-4.0
G1 X62.9212 Y67.9099
G3 X63.7632 Y68.8973 I-0.158 J0.9874
G1 Y81.8973
G3 X62.7632 Y82.8973 I-1.0 J0.0
G1 F500.0 Z-5.0
G1 F1000.0 X51.8769
G1 X50.3769 Z-2.0
G1 X48.3769
G1 X46.8769 Z-5.0
G1 X37.7632
G3 X36.7632 Y81.8973 I0.0 J-1.0
G1 Y64.8973
G3 X37.9212 Y63.9099 I1.0 J0.0
G1 X47.4 Y65.4265
G1 X47.712 Y65.4764 Z-4.368
G1 X48.8811 Y65.6634 Z-2.0
G1 X49.1931 Y65.7134
G1 X50.856 Y65.9794
G1 X51.168 Y66.0294
G1 X52.3372 Y66.2164 Z-4.368
G1 X52.6492 Y66.2663 Z-5.0
G1 X62.9212 Y67.9099
G3 X63.7632 Y68.8973 I-0.158 J0.9874
G1 Y81.8973
G3 X62.7632 Y82.8973 I-1.0 J0.0
G0 F200
( Contour30 )
S1000
G0 Z3.0
G0 X27.4616 Y81.5015
G0 Z1.0
G1 F500.0 Z-1.0
G1 F1000.0 Y79.5015
G1 X12.4616
G1 Y81.5015
G3 X11.4616 Y82.5015 I-1.0 J0.0
G1 X7.4616
G3 X6.4616 Y81.5015 I0.0 J-1.0
G1 Y64.5015
G3 X7.6196 Y63.514 I1.0 J0.0
G1 X32.6196 Y67.514
G3 X33.4616 Y68.5015 I-0.158 J0.9874
G1 Y81.5015
G3 X32.4616 Y82.5015 I-1.0 J0.0
G1 X28.4616
G3 X27.4616 Y81.5015 I0.0 J-1.0
G1 F500.0 Z-2.0
G1 F1000.0 Y79.5015
G1 X12.4616
G1 Y81.5015
G3 X11.4616 Y82.5015 I-1.0 J0.0
G1 X7.4616
G3 X6.4616 Y81.5015 I0.0 J-1.0
G1 Y64.5015
G3 X7.6196 Y63.514 I1.0 J0.0
G1 X32.6196 Y67.514
G3 X33.4616 Y68.5015 I-0.158 J0.9874
G1 Y81.5015
G3 X32.4616 Y82.5015 I-1.0 J0.0
G1 X28.4616
G3 X27.4616 Y81.5015 I0.0 J-1.0
G1 F500.0 Z-3.0
G1 F1000.0 Y79.5015
G1 X22.5
G1 X21.0 Z-2.0
G1 X19.0
G1 X17.5 Z-3.0
G1 X12.4616
G1 Y81.5015
G3 X11.4616 Y82.5015 I-1.0 J0.0
G1 X7.4616
G3 X6.4616 Y81.5015 I0.0 J-1.0
G1 Y64.5015
G3 X7.6196 Y63.514 I1.0 J0.0
G1 X16.4792 Y64.9315
G1 X16.9472 Y65.0064 Z-2.684
G1 X17.9603 Y65.1685 Z-2.0
G1 X18.4283 Y65.2434
G1 X19.9352 Y65.4845
G1 X20.4032 Y65.5594
G1 X21.4164 Y65.7215 Z-2.684
G1 X21.8844 Y65.7964 Z-3.0
G1 X32.6196 Y67.514
G3 X33.4616 Y68.5015 I-0.158 J0.9874
G1 Y81.5015
G3 X32.4616 Y82.5015 I-1.0 J0.0
G1 X28.4616
G3 X27.4616 Y81.5015 I0.0 J-1.0
G1 F500.0 Z-4.0
G1 F1000.0 Y79.5015
G1 X22.5
G1 X21.0 Z-2.0
G1 X19.0
G1 X17.5 Z-4.0
G1 X12.4616
G1 Y81.5015
G3 X11.4616 Y82.5015 I-1.0 J0.0
G1 X7.4616
G3 X6.4616 Y81.5015 I0.0 J-1.0
G1 Y64.5015
G3 X7.6196 Y63.514 I1.0 J0.0
G1 X16.4792 Y64.9315
G1 X16.9472 Y65.0064 Z-3.368
G1 X17.9603 Y65.1685 Z-2.0
G1 X18.4283 Y65.2434
G1 X19.9352 Y65.4845
G1 X20.4032 Y65.5594
G1 X21.4164 Y65.7215 Z-3.368
G1 X21.8844 Y65.7964 Z-4.0
G1 X32.6196 Y67.514
G3 X33.4616 Y68.5015 I-0.158 J0.9874
G1 Y81.5015
G3 X32.4616 Y82.5015 I-1.0 J0.0
G1 X28.4616
G3 X27.4616 Y81.5015 I0.0 J-1.0
G1 F500.0 Z-5.0
G1 F1000.0 Y79.5015
G1 X22.5
G1 X21.0 Z-2.0
G1 X19.0
G1 X17.5 Z-5.0
G1 X12.4616
G1 Y81.5015
G3 X11.4616 Y82.5015 I-1.0 J0.0
G1 X7.4616
G3 X6.4616 Y81.5015 I0.0 J-1.0
G1 Y64.5015
G3 X7.6196 Y63.514 I1.0 J0.0
G1 X16.4792 Y64.9315
G1 X16.9472 Y65.0064 Z-4.0521
G1 X17.9603 Y65.1685 Z-2.0
G1 X18.4283 Y65.2434
G1 X19.9352 Y65.4845
G1 X20.4032 Y65.5594
G1 X21.4164 Y65.7215 Z-4.0521
G1 X21.8844 Y65.7964 Z-5.0
G1 X32.6196 Y67.514
G3 X33.4616 Y68.5015 I-0.158 J0.9874
G1 Y81.5015
G3 X32.4616 Y82.5015 I-1.0 J0.0
G1 X28.4616
G3 X27.4616 Y81.5015 I0.0 J-1.0
G0 F200
( Contour31 )
S1000
G0 Z3.0
G0 X28.3216 Y85.4957
G0 Z1.0
G1 F500.0 Z-1.0
G1 F1000.0 X32.3216
G3 X33.3216 Y86.4957 I0.0 J1.0
G1 Y103.4957
G3 X32.1636 Y104.4831 I-1.0 J0.0
G1 X7.1636 Y100.4831
G3 X6.3216 Y99.4957 I0.158 J-0.9874
G1 Y86.4957
G3 X7.3216 Y85.4957 I1.0 J0.0
G1 X11.3216
G3 X12.3216 Y86.4957 I0.0 J1.0
G1 Y88.4957
G1 X27.3216
G1 Y86.4957
G3 X28.3216 Y85.4957 I1.0 J0.0
G1 F500.0 Z-2.0
G1 F1000.0 X32.3216
G3 X33.3216 Y86.4957 I0.0 J1.0
G1 Y103.4957
G3 X32.1636 Y104.4831 I-1.0 J0.0
G1 X7.1636 Y100.4831
G3 X6.3216 Y99.4957 I0.158 J-0.9874
G1 Y86.4957
G3 X7.3216 Y85.4957 I1.0 J0.0
G1 X11.3216
G3 X12.3216 Y86.4957 I0.0 J1.0
G1 Y88.4957
G1 X27.3216
G1 Y86.4957
G3 X28.3216 Y85.4957 I1.0 J0.0
G1 F500.0 Z-3.0
G1 F1000.0 X32.3216
G3 X33.3216 Y86.4957 I0.0 J1.0
G1 Y103.4957
G3 X32.1636 Y104.4831 I-1.0 J0.0
G1 X22.2288 Y102.8936
G1 X20.7477 Y102.6566 Z-2.0
G1 X18.7728 Y102.3406
G1 X17.2916 Y102.1036 Z-3.0
G1 X7.1636 Y100.4831
G3 X6.3216 Y99.4957 I0.158 J-0.9874
G1 Y86.4957
G3 X7.3216 Y85.4957 I1.0 J0.0
G1 X11.3216
G3 X12.3216 Y86.4957 I0.0 J1.0
G1 Y88.4957
G1 X17.5
G1 X19.0 Z-2.0
G1 X21.0
G1 X22.5 Z-3.0
G1 X27.3216
G1 Y86.4957
G3 X28.3216 Y85.4957 I1.0 J0.0
G1 F500.0 Z-4.0
G1 F1000.0 X32.3216
G3 X33.3216 Y86.4957 I0.0 J1.0
G1 Y103.4957
G3 X32.1636 Y104.4831 I-1.0 J0.0
G1 X22.2288 Y102.8936
G1 X20.7477 Y102.6566 Z-2.0
G1 X18.7728 Y102.3406
G1 X17.2916 Y102.1036 Z-4.0
G1 X7.1636 Y100.4831
G3 X6.3216 Y99.4957 I0.158 J-0.9874
G1 Y86.4957
G3 X7.3216 Y85.4957 I1.0 J0.0
G1 X11.3216
G3 X12.3216 Y86.4957 I0.0 J1.0
G1 Y88.4957
G1 X17.5
G1 X19.0 Z-2.0
G1 X21.0
G1 X22.5 Z-4.0
G1 X27.3216
G1 Y86.4957
G3 X28.3216 Y85.4957 I1.0 J0.0
G1 F500.0 Z-5.0
G1 F1000.0 X32.3216
G3 X33.3216 Y86.4957 I0.0 J1.0
G1 Y103.4957
G3 X32.1636 Y104.4831 I-1.0 J0.0
G1 X22.2288 Y102.8936
G1 X20.7477 Y102.6566 Z-2.0
G1 X18.7728 Y102.3406
G1 X17.2916 Y102.1036 Z-5.0
G1 X7.1636 Y100.4831
G3 X6.3216 Y99.4957 I0.158 J-0.9874
G1 Y86.4957
G3 X7.3216 Y85.4957 I1.0 J0.0
G1 X11.3216
G3 X12.3216 Y86.4957 I0.0 J1.0
G1 Y88.4957
G1 X17.5
G1 X19.0 Z-2.0
G1 X21.0
G1 X22.5 Z-5.0
G1 X27.3216
G1 Y86.4957
G3 X28.3216 Y85.4957 I1.0 J0.0
G0 F200
( Contour32 )
S1000
G0 Z3.0
G0 X42.4253 Y91.9346
G0 Z1.0
G1 F500.0 Z-1.0
G1 F1000.0 X57.4253
G1 Y90.9346
G1 X42.4253
G1 Y91.9346
G1 F500.0 Z-2.0
G1 F1000.0 X57.4253
G1 Y90.9346
G1 X42.4253
G1 Y91.9346
G1 F500.0 Z-3.0
G1 F1000.0 X57.4253
G1 Y90.9346
G1 X42.4253
G1 Y91.9346
G1 F500.0 Z-4.0
G1 F1000.0 X57.4253
G1 Y90.9346
G1 X42.4253
G1 Y91.9346
G1 F500.0 Z-5.0
G1 F1000.0 X57.4253
G1 Y90.9346
G1 X42.4253
G1 Y91.9346
G0 F200
( Contour33 )
S1000
G0 Z3.0
G0 X37.4253 Y85.7346
G0 Z1.0
G1 F500.0 Z-1.0
G1 F1000.0 X62.4253
G3 X63.4253 Y86.7346 I0.0 J1.0
G1 Y103.7346
G3 X62.2673 Y104.722 I-1.0 J0.0
G1 X37.2673 Y100.722
G3 X36.4253 Y99.7346 I0.158 J-0.9874
G1 Y86.7346
G3 X37.4253 Y85.7346 I1.0 J0.0
G1 F500.0 Z-2.0
G1 F1000.0 X62.4253
G3 X63.4253 Y86.7346 I0.0 J1.0
G1 Y103.7346
G3 X62.2673 Y104.722 I-1.0 J0.0
G1 X37.2673 Y100.722
G3 X36.4253 Y99.7346 I0.158 J-0.9874
G1 Y86.7346
G3 X37.4253 Y85.7346 I1.0 J0.0
G1 F500.0 Z-3.0
G1 F1000.0 X47.5
G1 X49.0 Z-2.0
G1 X51.0
G1 X52.5 Z-3.0
G1 X62.4253
G3 X63.4253 Y86.7346 I0.0 J1.0
G1 Y103.7346
G3 X62.2673 Y104.722 I-1.0 J0.0
G1 X52.0381 Y103.0854
G1 X51.6871 Y103.0292 Z-2.763
G1 X50.557 Y102.8484 Z-2.0
G1 X50.206 Y102.7922
G1 X48.5821 Y102.5324
G1 X48.2311 Y102.4762
G1 X47.1009 Y102.2954 Z-2.763
G1 X46.7499 Y102.2393 Z-3.0
G1 X37.2673 Y100.722
G3 X36.4253 Y99.7346 I0.158 J-0.9874
G1 Y86.7346
G3 X37.4253 Y85.7346 I1.0 J0.0
G1 F500.0 Z-4.0
G1 F1000.0 X47.5
G1 X49.0 Z-2.0
G1 X51.0
G1 X52.5 Z-4.0
G1 X62.4253
G3 X63.4253 Y86.7346 I0.0 J1.0
G1 Y103.7346
G3 X62.2673 Y104.722 I-1.0 J0.0
G1 X52.0381 Y103.0854
G1 X51.6871 Y103.0292 Z-3.526
G1 X50.557 Y102.8484 Z-2.0
G1 X50.206 Y102.7922
G1 X48.5821 Y102.5324
G1 X48.2311 Y102.4762
G1 X47.1009 Y102.2954 Z-3.526
G1 X46.7499 Y102.2393 Z-4.0
G1 X37.2673 Y100.722
G3 X36.4253 Y99.7346 I0.158 J-0.9874
G1 Y86.7346
G3 X37.4253 Y85.7346 I1.0 J0.0
G1 F500.0 Z-5.0
G1 F1000.0 X47.5
G1 X49.0 Z-2.0
G1 X51.0
G1 X52.5 Z-5.0
G1 X62.4253
G3 X63.4253 Y86.7346 I0.0 J1.0
G1 Y103.7346
G3 X62.2673 Y104.722 I-1.0 J0.0
G1 X52.0381 Y103.0854
G1 X51.6871 Y103.0292 Z-4.289
G1 X50.557 Y102.8484 Z-2.0
G1 X50.206 Y102.7922
G1 X48.5821 Y102.5324
G1 X48.2311 Y102.4762
G1 X47.1009 Y102.2954 Z-4.289
G1 X46.7499 Y102.2393 Z-5.0
G1 X37.2673 Y100.722
G3 X36.4253 Y99.7346 I0.158 J-0.9874
G1 Y86.7346
G3 X37.4253 Y85.7346 I1.0 J0.0
G0 F200
( Contour34 )
S1000
G0 Z3.0
G0 X72.7598 Y112.0115
G0 Z1.0
G1 F500.0 Z-1.0
G1 F1000.0 X68.7598
G3 X67.7598 Y111.0115 I0.0 J-1.0
G1 Y94.0115
G3 X68.9178 Y93.0241 I1.0 J0.0
G1 X93.9178 Y97.0241
G3 X94.7598 Y98.0115 I-0.158 J0.9874
G1 Y111.0115
G3 X93.7598 Y112.0115 I-1.0 J0.0
G1 X89.7598
G3 X88.7598 Y111.0115 I0.0 J-1.0
G1 Y109.0115
G1 X73.7598
G1 Y111.0115
G3 X72.7598 Y112.0115 I-1.0 J0.0
G1 F500.0 Z-2.0
G1 F1000.0 X68.7598
G3 X67.7598 Y111.0115 I0.0 J-1.0
G1 Y94.0115
G3 X68.9178 Y93.0241 I1.0 J0.0
G1 X93.9178 Y97.0241
G3 X94.7598 Y98.0115 I-0.158 J0.9874
G1 Y111.0115
G3 X93.7598 Y112.0115 I-1.0 J0.0
G1 X89.7598
G3 X88.7598 Y111.0115 I0.0 J-1.0
G1 Y109.0115
G1 X73.7598
G1 Y111.0115
G3 X72.7598 Y112.0115 I-1.0 J0.0
G1 F500.0 Z-3.0
G1 F1000.0 X68.7598
G3 X67.7598 Y111.0115 I0.0 J-1.0
G1 Y94.0115
G3 X68.9178 Y93.0241 I1.0 J0.0
G1 X79.5131 Y94.7193
G1 X79.8251 Y94.7692 Z-2.7893
G1 X80.9943 Y94.9563 Z-2.0
G1 X81.3063 Y95.0062
G1 X82.9692 Y95.2723
G1 X83.2812 Y95.3222
G1 X84.4503 Y95.5093 Z-2.7893
G1 X84.7623 Y95.5592 Z-3.0
G1 X93.9178 Y97.0241
G3 X94.7598 Y98.0115 I-0.158 J0.9874
G1 Y111.0115
G3 X93.7598 Y112.0115 I-1.0 J0.0
G1 X89.7598
G3 X88.7598 Y111.0115 I0.0 J-1.0
G1 Y109.0115
G1 X83.5
G1 X82.0 Z-2.0
G1 X80.0
G1 X78.5 Z-3.0
G1 X73.7598
G1 Y111.0115
G3 X72.7598 Y112.0115 I-1.0 J0.0
G1 F500.0 Z-4.0
G1 F1000.0 X68.7598
G3 X67.7598 Y111.0115 I0.0 J-1.0
G1 Y94.0115
G3 X68.9178 Y93.0241 I1.0 J0.0
G1 X79.5131 Y94.7193
G1 X79.8251 Y94.7692 Z-3.5787
G1 X80.9943 Y94.9563 Z-2.0
G1 X81.3063 Y95.0062
G1 X82.9692 Y95.2723
G1 X83.2812 Y95.3222
G1 X84.4503 Y95.5093 Z-3.5787
G1 X84.7623 Y95.5592 Z-4.0
G1 X93.9178 Y97.0241
G3 X94.7598 Y98.0115 I-0.158 J0.9874
G1 Y111.0115
G3 X93.7598 Y112.0115 I-1.0 J0.0
G1 X89.7598
G3 X88.7598 Y111.0115 I0.0 J-1.0
G1 Y109.0115
G1 X83.5
G1 X82.0 Z-2.0
G1 X80.0
G1 X78.5 Z-4.0
G1 X73.7598
G1 Y111.0115
G3 X72.7598 Y112.0115 I-1.0 J0.0
G1 F500.0 Z-5.0
G1 F1000.0 X68.7598
G3 X67.7598 Y111.0115 I0.0 J-1.0
G1 Y94.0115
G3 X68.9178 Y93.0241 I1.0 J0.0
G1 X79.5131 Y94.7193
G1 X79.8251 Y94.7692 Z-4.368
G1 X80.9943 Y94.9563 Z-2.0
G1 X81.3063 Y95.0062
G1 X82.9692 Y95.2723
G1 X83.2812 Y95.3222
G1 X84.4503 Y95.5093 Z-4.368
G1 X84.7623 Y95.5592 Z-5.0
G1 X93.9178 Y97.0241
G3 X94.7598 Y98.0115 I-0.158 J0.9874
G1 Y111.0115
G3 X93.7598 Y112.0115 I-1.0 J0.0
G1 X89.7598
G3 X88.7598 Y111.0115 I0.0 J-1.0
G1 Y109.0115
G1 X83.5
G1 X82.0 Z-2.0
G1 X80.0
G1 X78.5 Z-5.0
G1 X73.7598
G1 Y111.0115
G3 X72.7598 Y112.0115 I-1.0 J0.0
G0 F200
( Contour35 )
S1000
G0 Z3.0
G0 X119.3075 Y105.6426
G0 Z1.0
G1 F500.0 Z-1.0
G1 F1000.0 X104.3075
G1 Y106.6426
G1 X119.3075
G1 Y105.6426
G1 F500.0 Z-2.0
G1 F1000.0 X104.3075
G1 Y106.6426
G1 X119.3075
G1 Y105.6426
G1 F500.0 Z-3.0
G1 F1000.0 X104.3075
G1 Y106.6426
G1 X119.3075
G1 Y105.6426
G1 F500.0 Z-4.0
G1 F1000.0 X104.3075
G1 Y106.6426
G1 X119.3075
G1 Y105.6426
G1 F500.0 Z-5.0
G1 F1000.0 X104.3075
G1 Y106.6426
G1 X119.3075
G1 Y105.6426
G0 F200
( Contour36 )
S1000
G0 Z3.0
G0 X124.3075 Y111.8426
G0 Z1.0
G1 F500.0 Z-1.0
G1 F1000.0 X99.3075
G3 X98.3075 Y110.8426 I0.0 J-1.0
G1 Y93.8426
G3 X99.4655 Y92.8551 I1.0 J0.0
G1 X124.4655 Y96.8551
G3 X125.3075 Y97.8426 I-0.158 J0.9874
G1 Y110.8426
G3 X124.3075 Y111.8426 I-1.0 J0.0
G1 F500.0 Z-2.0
G1 F1000.0 X99.3075
G3 X98.3075 Y110.8426 I0.0 J-1.0
G1 Y93.8426
G3 X99.4655 Y92.8551 I1.0 J0.0
G1 X124.4655 Y96.8551
G3 X125.3075 Y97.8426 I-0.158 J0.9874
G1 Y110.8426
G3 X124.3075 Y111.8426 I-1.0 J0.0
G1 F500.0 Z-3.0
G1 F1000.0 X99.3075
G3 X98.3075 Y110.8426 I0.0 J-1.0
G1 Y93.8426
G3 X99.4655 Y92.8551 I1.0 J0.0
G1 X124.4655 Y96.8551
G3 X125.3075 Y97.8426 I-0.158 J0.9874
G1 Y110.8426
G3 X124.3075 Y111.8426 I-1.0 J0.0
G1 F500.0 Z-4.0
G1 F1000.0 X99.3075
G3 X98.3075 Y110.8426 I0.0 J-1.0
G1 Y93.8426
G3 X99.4655 Y92.8551 I1.0 J0.0
G1 X124.4655 Y96.8551
G3 X125.3075 Y97.8426 I-0.158 J0.9874
G1 Y110.8426
G3 X124.3075 Y111.8426 I-1.0 J0.0
G1 F500.0 Z-5.0
G1 F1000.0 X99.3075
G3 X98.3075 Y110.8426 I0.0 J-1.0
G1 Y93.8426
G3 X99.4655 Y92.8551 I1.0 J0.0
G1 X124.4655 Y96.8551
G3 X125.3075 Y97.8426 I-0.158 J0.9874
G1 Y110.8426
G3 X124.3075 Y111.8426 I-1.0 J0.0
G0 F200
G0 Z3.0
M5
M30
