( Made using CamBam - http://www.cambam.co.uk )
( Calpinage soute a ballast 1/30/2022 5:59:53 PM )
( T0 : 2.0 )
G21 G90  G40
G0 Z3.0
( T0 : 2.0 )
T0 M6
( Perçage1 )
G17
M3 S1000
G0 X48.7524 Y38.3906
G0 Z3.0
G0 X49.2524 Y38.3906
G0 Z1.0
G1 F20.0 Z0.0
G3 F200.0 X48.5024 Y38.8236 Z-0.3333 I-0.5 J0.0
G3 Y37.9576 Z-0.6667 I0.25 J-0.433
G3 X49.2524 Y38.3906 Z-1.0 I0.25 J0.433
G3 X48.5024 Y38.8236 Z-1.3333 I-0.5 J0.0
G3 Y37.9576 Z-1.6667 I0.25 J-0.433
G3 X49.2524 Y38.3906 Z-2.0 I0.25 J0.433
G3 X48.5024 Y38.8236 Z-2.3333 I-0.5 J0.0
G3 Y37.9576 Z-2.6667 I0.25 J-0.433
G3 X49.2524 Y38.3906 Z-3.0 I0.25 J0.433
G3 X48.5024 Y38.8236 Z-3.3333 I-0.5 J0.0
G3 Y37.9576 Z-3.6667 I0.25 J-0.433
G3 X49.2524 Y38.3906 Z-4.0 I0.25 J0.433
G3 X48.5024 Y38.8236 Z-4.3333 I-0.5 J0.0
G3 Y37.9576 Z-4.6667 I0.25 J-0.433
G3 X49.2524 Y38.3906 Z-5.0 I0.25 J0.433
G3 X48.5024 Y38.8236 I-0.5 J0.0
G3 Y37.9576 I0.25 J-0.433
G3 X49.2524 Y38.3906 I0.25 J0.433
G1 X48.7524
G0 F200
( Contour2 )
S1000
G0 Z3.0
G0 X41.8241 Y42.3906
G0 Z1.0
G1 F20.0 Z-1.0
G1 F200.0 X11.7524
G3 X10.7524 Y41.3906 I0.0 J-1.0
G1 Y23.3906
G3 X15.4386 Y12.0769 I16.0 J0.0
G3 X26.7524 Y7.3906 I11.3137 J11.3137
G1 X70.7524
G3 X82.0661 Y12.0769 I0.0 J16.0
G3 X86.7524 Y23.3906 I-11.3137 J11.3137
G1 Y41.3906
G3 X85.7524 Y42.3906 I-1.0 J0.0
G1 X55.6806
G3 X48.7523 Y46.3906 I-6.9282 J-4.0
G3 X41.8241 Y42.3906 I0.0 J-8.0
G1 F20.0 Z-2.0
G1 F200.0 X11.7524
G3 X10.7524 Y41.3906 I0.0 J-1.0
G1 Y23.3906
G3 X15.4386 Y12.0769 I16.0 J0.0
G3 X26.7524 Y7.3906 I11.3137 J11.3137
G1 X70.7524
G3 X82.0661 Y12.0769 I0.0 J16.0
G3 X86.7524 Y23.3906 I-11.3137 J11.3137
G1 Y41.3906
G3 X85.7524 Y42.3906 I-1.0 J0.0
G1 X55.6806
G3 X48.7523 Y46.3906 I-6.9282 J-4.0
G3 X41.8241 Y42.3906 I0.0 J-8.0
G1 F20.0 Z-3.0
G1 F200.0 X24.9278
G1 X23.4278 Z-2.0
G1 X21.4278
G1 X19.9278 Z-3.0
G1 X11.7524
G3 X10.7524 Y41.3906 I0.0 J-1.0
G1 Y27.5
G1 Y26.0 Z-2.0
G1 Y24.0
G1 Y23.3906 Z-2.4062
G3 X10.7772 Y22.5 Z-3.0 I16.0 J0.0
G3 X15.4386 Y12.0769 I15.9752 J0.8906
G3 X26.7524 Y7.3906 I11.3137 J11.3137
G1 X47.5
G1 X49.0 Z-2.0
G1 X51.0
G1 X52.5 Z-3.0
G1 X70.7524
G3 X82.0661 Y12.0769 I0.0 J16.0
G3 X86.7524 Y23.3906 I-11.3137 J11.3137
G1 Y23.5
G1 Y25.0 Z-2.0
G1 Y27.0
G1 Y28.5 Z-3.0
G1 Y41.3906
G3 X85.7524 Y42.3906 I-1.0 J0.0
G1 X74.5
G1 X73.0 Z-2.0
G1 X71.0
G1 X69.5 Z-3.0
G1 X55.6806
G3 X48.7523 Y46.3906 I-6.9282 J-4.0
G3 X41.8241 Y42.3906 I0.0 J-8.0
G1 F20.0 Z-4.0
G1 F200.0 X24.9278
G1 X23.4278 Z-2.0
G1 X21.4278
G1 X19.9278 Z-4.0
G1 X11.7524
G3 X10.7524 Y41.3906 I0.0 J-1.0
G1 Y27.5
G1 Y26.0 Z-2.0
G1 Y24.0
G1 Y23.3906 Z-2.8125
G3 X10.7772 Y22.5 Z-4.0 I16.0 J0.0
G3 X15.4386 Y12.0769 I15.9752 J0.8906
G3 X26.7524 Y7.3906 I11.3137 J11.3137
G1 X47.5
G1 X49.0 Z-2.0
G1 X51.0
G1 X52.5 Z-4.0
G1 X70.7524
G3 X82.0661 Y12.0769 I0.0 J16.0
G3 X86.7524 Y23.3906 I-11.3137 J11.3137
G1 Y23.5
G1 Y25.0 Z-2.0
G1 Y27.0
G1 Y28.5 Z-4.0
G1 Y41.3906
G3 X85.7524 Y42.3906 I-1.0 J0.0
G1 X74.5
G1 X73.0 Z-2.0
G1 X71.0
G1 X69.5 Z-4.0
G1 X55.6806
G3 X48.7523 Y46.3906 I-6.9282 J-4.0
G3 X41.8241 Y42.3906 I0.0 J-8.0
G1 F20.0 Z-5.0
G1 F200.0 X24.9278
G1 X23.4278 Z-2.0
G1 X21.4278
G1 X19.9278 Z-5.0
G1 X11.7524
G3 X10.7524 Y41.3906 I0.0 J-1.0
G1 Y27.5
G1 Y26.0 Z-2.0
G1 Y24.0
G1 Y23.3906 Z-3.2187
G3 X10.7772 Y22.5 Z-5.0 I16.0 J0.0
G3 X15.4386 Y12.0769 I15.9752 J0.8906
G3 X26.7524 Y7.3906 I11.3137 J11.3137
G1 X47.5
G1 X49.0 Z-2.0
G1 X51.0
G1 X52.5 Z-5.0
G1 X70.7524
G3 X82.0661 Y12.0769 I0.0 J16.0
G3 X86.7524 Y23.3906 I-11.3137 J11.3137
G1 Y23.5
G1 Y25.0 Z-2.0
G1 Y27.0
G1 Y28.5 Z-5.0
G1 Y41.3906
G3 X85.7524 Y42.3906 I-1.0 J0.0
G1 X74.5
G1 X73.0 Z-2.0
G1 X71.0
G1 X69.5 Z-5.0
G1 X55.6806
G3 X48.7523 Y46.3906 I-6.9282 J-4.0
G3 X41.8241 Y42.3906 I0.0 J-8.0
G0 F200
( Contour3 )
S1000
G0 Z3.0
G0 X21.5296 Y57.6496
G0 Z1.0
G1 F20.0 Z-1.0
G2 F200.0 X16.9357 Y59.5525 I-0.0088 J6.4756
G3 X16.9338 Y59.5543 I-0.7081 J-0.7062
G2 X15.0309 Y64.1483 I4.574 J4.5857
G3 Y64.151 I-1.0 J0.0013
G2 X16.9338 Y68.7449 I6.4756 J0.0088
G3 X16.9356 Y68.7467 I-0.7062 J0.7081
G2 X21.5297 Y70.6496 I4.5857 J-4.574
G3 X21.5323 I0.0013 J1.0
G2 X26.1262 Y68.7468 I0.0088 J-6.4756
G3 X26.128 Y68.7449 I0.7081 J0.7062
G2 X28.0309 Y64.1509 I-4.574 J-4.5857
G3 Y64.1483 I1.0 J-0.0013
G2 X26.1281 Y59.5544 I-6.4756 J-0.0088
G3 X26.1262 Y59.5525 I0.7062 J-0.7081
G2 X21.5322 Y57.6496 I-4.5857 J4.574
G3 X21.5296 I-0.0013 J-1.0
G1 F20.0 Z-2.0
G2 F200.0 X16.9357 Y59.5525 I-0.0088 J6.4756
G3 X16.9338 Y59.5543 I-0.7081 J-0.7062
G2 X15.0309 Y64.1483 I4.574 J4.5857
G3 Y64.151 I-1.0 J0.0013
G2 X16.9338 Y68.7449 I6.4756 J0.0088
G3 X16.9356 Y68.7467 I-0.7062 J0.7081
G2 X21.5297 Y70.6496 I4.5857 J-4.574
G3 X21.5323 I0.0013 J1.0
G2 X26.1262 Y68.7468 I0.0088 J-6.4756
G3 X26.128 Y68.7449 I0.7081 J0.7062
G2 X28.0309 Y64.1509 I-4.574 J-4.5857
G3 Y64.1483 I1.0 J-0.0013
G2 X26.1281 Y59.5544 I-6.4756 J-0.0088
G3 X26.1262 Y59.5525 I0.7062 J-0.7081
G2 X21.5322 Y57.6496 I-4.5857 J4.574
G3 X21.5296 I-0.0013 J-1.0
G1 F20.0 Z-3.0
G2 F200.0 X17.5831 Y58.9844 I-0.0088 J6.4756
G2 X16.9357 Y59.5525 Z-2.4258 I3.9377 J5.1408
G3 X16.9338 Y59.5543 Z-2.424 I-0.7081 J-0.7062
G2 X16.4677 Y60.0722 Z-2.0 I4.574 J4.5857
G2 X15.4669 Y61.8039 I5.0402 J4.0678
G2 X15.0837 Y63.3149 Z-3.0 I6.0409 J2.3362
G2 X15.0309 Y64.1483 I6.4242 J0.8252
G3 Y64.151 I-1.0 J0.0013
G2 X16.9338 Y68.7449 I6.4756 J0.0088
G3 X16.9356 Y68.7467 I-0.7062 J0.7081
G2 X19.033 Y70.1525 I4.5857 J-4.574
G2 X20.5324 Y70.5737 Z-2.0 I2.4884 J-5.9798
G2 X21.5297 Y70.6496 I0.989 J-6.401
G3 X21.5323 I0.0013 J1.0
G2 X22.5324 Y70.5733 I0.0088 J-6.4756
G2 X24.033 Y70.151 Z-3.0 I-0.9913 J-6.3993
G2 X26.1262 Y68.7468 I-2.4919 J-5.9769
G3 X26.128 Y68.7449 I0.7081 J0.7062
G2 X28.0309 Y64.1509 I-4.574 J-4.5857
G3 Y64.1483 I1.0 J-0.0013
G2 X27.9782 Y63.3149 I-6.4756 J-0.0088
G2 X27.5951 Y61.8039 Z-2.0 I-6.4229 J0.8246
G2 X26.5943 Y60.0723 I-6.0397 J2.3356
G2 X26.1281 Y59.5544 Z-2.4645 I-5.0389 J4.0672
G3 X26.1262 Y59.5525 Z-2.4663 I0.7062 J-0.7081
G2 X25.4788 Y58.9845 Z-3.0 I-4.5857 J4.574
G2 X21.5322 Y57.6496 I-3.9383 J5.1421
G3 X21.5296 I-0.0013 J-1.0
G1 F20.0 Z-4.0
G2 F200.0 X17.5831 Y58.9844 I-0.0088 J6.4756
G2 X16.9357 Y59.5525 Z-2.8516 I3.9377 J5.1408
G3 X16.9338 Y59.5543 Z-2.8481 I-0.7081 J-0.7062
G2 X16.4677 Y60.0722 Z-2.0 I4.574 J4.5857
G2 X15.4669 Y61.8039 I5.0402 J4.0678
G2 X15.0837 Y63.3149 Z-4.0 I6.0409 J2.3362
G2 X15.0309 Y64.1483 I6.4242 J0.8252
G3 Y64.151 I-1.0 J0.0013
G2 X16.9338 Y68.7449 I6.4756 J0.0088
G3 X16.9356 Y68.7467 I-0.7062 J0.7081
G2 X19.033 Y70.1525 I4.5857 J-4.574
G2 X20.5324 Y70.5737 Z-2.0 I2.4884 J-5.9798
G2 X21.5297 Y70.6496 I0.989 J-6.401
G3 X21.5323 I0.0013 J1.0
G2 X22.5324 Y70.5733 I0.0088 J-6.4756
G2 X24.033 Y70.151 Z-4.0 I-0.9913 J-6.3993
G2 X26.1262 Y68.7468 I-2.4919 J-5.9769
G3 X26.128 Y68.7449 I0.7081 J0.7062
G2 X28.0309 Y64.1509 I-4.574 J-4.5857
G3 Y64.1483 I1.0 J-0.0013
G2 X27.9782 Y63.3149 I-6.4756 J-0.0088
G2 X27.5951 Y61.8039 Z-2.0 I-6.4229 J0.8246
G2 X26.5943 Y60.0723 I-6.0397 J2.3356
G2 X26.1281 Y59.5544 Z-2.9291 I-5.0389 J4.0672
G3 X26.1262 Y59.5525 Z-2.9326 I0.7062 J-0.7081
G2 X25.4788 Y58.9845 Z-4.0 I-4.5857 J4.574
G2 X21.5322 Y57.6496 I-3.9383 J5.1421
G3 X21.5296 I-0.0013 J-1.0
G1 F20.0 Z-5.0
G2 F200.0 X17.5831 Y58.9844 I-0.0088 J6.4756
G2 X16.9357 Y59.5525 Z-3.2774 I3.9377 J5.1408
G3 X16.9338 Y59.5543 Z-3.2721 I-0.7081 J-0.7062
G2 X16.4677 Y60.0722 Z-2.0 I4.574 J4.5857
G2 X15.4669 Y61.8039 I5.0402 J4.0678
G2 X15.0837 Y63.3149 Z-5.0 I6.0409 J2.3362
G2 X15.0309 Y64.1483 I6.4242 J0.8252
G3 Y64.151 I-1.0 J0.0013
G2 X16.9338 Y68.7449 I6.4756 J0.0088
G3 X16.9356 Y68.7467 I-0.7062 J0.7081
G2 X19.033 Y70.1525 I4.5857 J-4.574
G2 X20.5324 Y70.5737 Z-2.0 I2.4884 J-5.9798
G2 X21.5297 Y70.6496 I0.989 J-6.401
G3 X21.5323 I0.0013 J1.0
G2 X22.5324 Y70.5733 I0.0088 J-6.4756
G2 X24.033 Y70.151 Z-5.0 I-0.9913 J-6.3993
G2 X26.1262 Y68.7468 I-2.4919 J-5.9769
G3 X26.128 Y68.7449 I0.7081 J0.7062
G2 X28.0309 Y64.1509 I-4.574 J-4.5857
G3 Y64.1483 I1.0 J-0.0013
G2 X27.9782 Y63.3149 I-6.4756 J-0.0088
G2 X27.5951 Y61.8039 Z-2.0 I-6.4229 J0.8246
G2 X26.5943 Y60.0723 I-6.0397 J2.3356
G2 X26.1281 Y59.5544 Z-3.3936 I-5.0389 J4.0672
G3 X26.1262 Y59.5525 Z-3.3989 I0.7062 J-0.7081
G2 X25.4788 Y58.9845 Z-5.0 I-4.5857 J4.574
G2 X21.5322 Y57.6496 I-3.9383 J5.1421
G3 X21.5296 I-0.0013 J-1.0
G0 Z3.0
G0 X33.4173 Y61.9421
G0 Z1.0
G1 F20.0 Z-1.0
G2 F200.0 X33.0309 Y64.1496 I6.1137 J2.2075
G2 X36.2809 Y69.7788 I6.5 J0.0
G2 X42.7809 I3.25 J-5.6292
G2 X46.0309 Y64.1496 I-3.25 J-5.6292
G2 X42.7809 Y58.5205 I-6.5 J0.0
G2 X36.2809 I-3.25 J5.6292
G2 X33.4173 Y61.9421 I3.25 J5.6292
G1 F20.0 Z-2.0
G2 F200.0 X33.0309 Y64.1496 I6.1137 J2.2075
G2 X36.2809 Y69.7788 I6.5 J0.0
G2 X42.7809 I3.25 J-5.6292
G2 X46.0309 Y64.1496 I-3.25 J-5.6292
G2 X42.7809 Y58.5205 I-6.5 J0.0
G2 X36.2809 I-3.25 J5.6292
G2 X33.4173 Y61.9421 I3.25 J5.6292
G1 F20.0 Z-3.0
G2 F200.0 X33.0309 Y64.1496 I6.1137 J2.2075
G2 X34.3659 Y68.0958 I6.5 J0.0
G2 X35.4536 Y69.2118 Z-2.0 I5.1651 J-3.9462
G2 X36.2809 Y69.7788 I4.0773 J-5.0622
G2 X37.1857 Y70.2118 I3.25 J-5.6292
G2 X38.696 Y70.5958 Z-3.0 I2.3453 J-6.0622
G2 X42.7809 Y69.7788 I0.8349 J-6.4462
G2 X45.5309 Y66.6496 I-3.25 J-5.6292
G2 X45.9536 Y65.1496 Z-2.0 I-6.0 J-2.5
G2 X46.0309 Y64.1496 I-6.4226 J-1.0
G2 X45.9536 Y63.1496 I-6.5 J0.0
G2 X45.5309 Y61.6496 Z-3.0 I-6.4226 J1.0
G2 X42.7809 Y58.5205 I-6.0 J2.5
G2 X38.696 Y57.7035 I-3.25 J5.6292
G2 X37.1857 Y58.0875 Z-2.0 I0.8349 J6.4462
G2 X36.2809 Y58.5205 I2.3453 J6.0622
G2 X35.4536 Y59.0875 I3.25 J5.6292
G2 X34.3659 Y60.2035 Z-3.0 I4.0773 J5.0621
G2 X33.4173 Y61.9421 I5.1651 J3.9462
G1 F20.0 Z-4.0
G2 F200.0 X33.0309 Y64.1496 I6.1137 J2.2075
G2 X34.3659 Y68.0958 I6.5 J0.0
G2 X35.4536 Y69.2118 Z-2.0 I5.1651 J-3.9462
G2 X36.2809 Y69.7788 I4.0773 J-5.0622
G2 X37.1857 Y70.2118 I3.25 J-5.6292
G2 X38.696 Y70.5958 Z-4.0 I2.3453 J-6.0622
G2 X42.7809 Y69.7788 I0.8349 J-6.4462
G2 X45.5309 Y66.6496 I-3.25 J-5.6292
G2 X45.9536 Y65.1496 Z-2.0 I-6.0 J-2.5
G2 X46.0309 Y64.1496 I-6.4226 J-1.0
G2 X45.9536 Y63.1496 I-6.5 J0.0
G2 X45.5309 Y61.6496 Z-4.0 I-6.4226 J1.0
G2 X42.7809 Y58.5205 I-6.0 J2.5
G2 X38.696 Y57.7035 I-3.25 J5.6292
G2 X37.1857 Y58.0875 Z-2.0 I0.8349 J6.4462
G2 X36.2809 Y58.5205 I2.3453 J6.0622
G2 X35.4536 Y59.0875 I3.25 J5.6292
G2 X34.3659 Y60.2035 Z-4.0 I4.0773 J5.0621
G2 X33.4173 Y61.9421 I5.1651 J3.9462
G1 F20.0 Z-5.0
G2 F200.0 X33.0309 Y64.1496 I6.1137 J2.2075
G2 X34.3659 Y68.0958 I6.5 J0.0
G2 X35.4536 Y69.2118 Z-2.0 I5.1651 J-3.9462
G2 X36.2809 Y69.7788 I4.0773 J-5.0622
G2 X37.1857 Y70.2118 I3.25 J-5.6292
G2 X38.696 Y70.5958 Z-5.0 I2.3453 J-6.0622
G2 X42.7809 Y69.7788 I0.8349 J-6.4462
G2 X45.5309 Y66.6496 I-3.25 J-5.6292
G2 X45.9536 Y65.1496 Z-2.0 I-6.0 J-2.5
G2 X46.0309 Y64.1496 I-6.4226 J-1.0
G2 X45.9536 Y63.1496 I-6.5 J0.0
G2 X45.5309 Y61.6496 Z-5.0 I-6.4226 J1.0
G2 X42.7809 Y58.5205 I-6.0 J2.5
G2 X38.696 Y57.7035 I-3.25 J5.6292
G2 X37.1857 Y58.0875 Z-2.0 I0.8349 J6.4462
G2 X36.2809 Y58.5205 I2.3453 J6.0622
G2 X35.4536 Y59.0875 I3.25 J5.6292
G2 X34.3659 Y60.2035 Z-5.0 I4.0773 J5.0621
G2 X33.4173 Y61.9421 I5.1651 J3.9462
G0 Z3.0
G0 X51.058 Y63.557
G0 Z1.0
G1 F20.0 Z-1.0
G2 F200.0 X51.0309 Y64.1496 I6.4729 J0.5926
G2 X54.2809 Y69.7788 I6.5 J0.0
G2 X60.7809 I3.25 J-5.6292
G2 X64.0309 Y64.1496 I-3.25 J-5.6292
G2 X60.7809 Y58.5205 I-6.5 J0.0
G2 X54.2809 I-3.25 J5.6292
G2 X51.058 Y63.557 I3.25 J5.6292
G1 F20.0 Z-2.0
G2 F200.0 X51.0309 Y64.1496 I6.4729 J0.5926
G2 X54.2809 Y69.7788 I6.5 J0.0
G2 X60.7809 I3.25 J-5.6292
G2 X64.0309 Y64.1496 I-3.25 J-5.6292
G2 X60.7809 Y58.5205 I-6.5 J0.0
G2 X54.2809 I-3.25 J5.6292
G2 X51.058 Y63.557 I3.25 J5.6292
G1 F20.0 Z-3.0
G2 F200.0 X51.0309 Y64.1496 I6.4729 J0.5926
G2 X52.3659 Y68.0958 I6.5 J0.0
G2 X53.4536 Y69.2118 Z-2.0 I5.1651 J-3.9462
G2 X54.2809 Y69.7788 I4.0773 J-5.0622
G2 X55.1857 Y70.2118 I3.25 J-5.6292
G2 X56.696 Y70.5958 Z-3.0 I2.3453 J-6.0622
G2 X60.7809 Y69.7788 I0.8349 J-6.4462
G2 X63.5309 Y66.6496 I-3.25 J-5.6292
G2 X63.9536 Y65.1496 Z-2.0 I-6.0 J-2.5
G2 X64.0309 Y64.1496 I-6.4226 J-1.0
G2 X63.9536 Y63.1496 I-6.5 J0.0
G2 X63.5309 Y61.6496 Z-3.0 I-6.4226 J1.0
G2 X60.7809 Y58.5205 I-6.0 J2.5
G2 X56.696 Y57.7035 I-3.25 J5.6292
G2 X55.1857 Y58.0875 Z-2.0 I0.8349 J6.4462
G2 X54.2809 Y58.5205 I2.3453 J6.0622
G2 X53.4536 Y59.0875 I3.25 J5.6292
G2 X52.3659 Y60.2035 Z-3.0 I4.0773 J5.0621
G2 X51.058 Y63.557 I5.1651 J3.9462
G1 F20.0 Z-4.0
G2 F200.0 X51.0309 Y64.1496 I6.4729 J0.5926
G2 X52.3659 Y68.0958 I6.5 J0.0
G2 X53.4536 Y69.2118 Z-2.0 I5.1651 J-3.9462
G2 X54.2809 Y69.7788 I4.0773 J-5.0622
G2 X55.1857 Y70.2118 I3.25 J-5.6292
G2 X56.696 Y70.5958 Z-4.0 I2.3453 J-6.0622
G2 X60.7809 Y69.7788 I0.8349 J-6.4462
G2 X63.5309 Y66.6496 I-3.25 J-5.6292
G2 X63.9536 Y65.1496 Z-2.0 I-6.0 J-2.5
G2 X64.0309 Y64.1496 I-6.4226 J-1.0
G2 X63.9536 Y63.1496 I-6.5 J0.0
G2 X63.5309 Y61.6496 Z-4.0 I-6.4226 J1.0
G2 X60.7809 Y58.5205 I-6.0 J2.5
G2 X56.696 Y57.7035 I-3.25 J5.6292
G2 X55.1857 Y58.0875 Z-2.0 I0.8349 J6.4462
G2 X54.2809 Y58.5205 I2.3453 J6.0622
G2 X53.4536 Y59.0875 I3.25 J5.6292
G2 X52.3659 Y60.2035 Z-4.0 I4.0773 J5.0621
G2 X51.058 Y63.557 I5.1651 J3.9462
G1 F20.0 Z-5.0
G2 F200.0 X51.0309 Y64.1496 I6.4729 J0.5926
G2 X52.3659 Y68.0958 I6.5 J0.0
G2 X53.4536 Y69.2118 Z-2.0 I5.1651 J-3.9462
G2 X54.2809 Y69.7788 I4.0773 J-5.0622
G2 X55.1857 Y70.2118 I3.25 J-5.6292
G2 X56.696 Y70.5958 Z-5.0 I2.3453 J-6.0622
G2 X60.7809 Y69.7788 I0.8349 J-6.4462
G2 X63.5309 Y66.6496 I-3.25 J-5.6292
G2 X63.9536 Y65.1496 Z-2.0 I-6.0 J-2.5
G2 X64.0309 Y64.1496 I-6.4226 J-1.0
G2 X63.9536 Y63.1496 I-6.5 J0.0
G2 X63.5309 Y61.6496 Z-5.0 I-6.4226 J1.0
G2 X60.7809 Y58.5205 I-6.0 J2.5
G2 X56.696 Y57.7035 I-3.25 J5.6292
G2 X55.1857 Y58.0875 Z-2.0 I0.8349 J6.4462
G2 X54.2809 Y58.5205 I2.3453 J6.0622
G2 X53.4536 Y59.0875 I3.25 J5.6292
G2 X52.3659 Y60.2035 Z-5.0 I4.0773 J5.0621
G2 X51.058 Y63.557 I5.1651 J3.9462
G0 Z3.0
G0 X69.0328 Y63.9923
G0 Z1.0
G1 F20.0 Z-1.0
G2 F200.0 X69.0309 Y64.1496 I6.4981 J0.1573
G3 Y64.151 I-1.0 J0.0
G2 X70.9338 Y68.7449 I6.4756 J0.0088
G3 X70.9356 Y68.7467 I-0.7062 J0.7081
G2 X75.5297 Y70.6496 I4.5857 J-4.574
G3 X75.5323 I0.0013 J1.0
G2 X80.1262 Y68.7468 I0.0088 J-6.4756
G3 X80.128 Y68.7449 I0.7081 J0.7062
G2 X82.0309 Y64.1509 I-4.574 J-4.5857
G3 Y64.1496 I1.0 J-0.0013
G2 X78.7809 Y58.5205 I-6.5 J0.0
G2 X72.2809 I-3.25 J5.6292
G2 X69.0328 Y63.9923 I3.25 J5.6292
G1 F20.0 Z-2.0
G2 F200.0 X69.0309 Y64.1496 I6.4981 J0.1573
G3 Y64.151 I-1.0 J0.0
G2 X70.9338 Y68.7449 I6.4756 J0.0088
G3 X70.9356 Y68.7467 I-0.7062 J0.7081
G2 X75.5297 Y70.6496 I4.5857 J-4.574
G3 X75.5323 I0.0013 J1.0
G2 X80.1262 Y68.7468 I0.0088 J-6.4756
G3 X80.128 Y68.7449 I0.7081 J0.7062
G2 X82.0309 Y64.1509 I-4.574 J-4.5857
G3 Y64.1496 I1.0 J-0.0013
G2 X78.7809 Y58.5205 I-6.5 J0.0
G2 X72.2809 I-3.25 J5.6292
G2 X69.0328 Y63.9923 I3.25 J5.6292
G1 F20.0 Z-3.0
G2 F200.0 X69.0309 Y64.1496 I6.4981 J0.1573
G3 Y64.151 I-1.0 J0.0
G2 X70.3661 Y68.0979 I6.4756 J0.0088
G2 X70.9338 Y68.7449 Z-2.4262 I5.1405 J-3.9382
G3 X70.9356 Y68.7467 Z-2.4244 I-0.7062 J0.7081
G2 X71.454 Y69.2133 Z-2.0 I4.5857 J-4.574
G2 X73.1857 Y70.2138 I4.0674 J-5.0406
G2 X74.6968 Y70.5969 Z-3.0 I2.3356 J-6.0411
G2 X75.5297 Y70.6496 I0.8246 J-6.4242
G3 X75.5323 I0.0013 J1.0
G2 X80.1262 Y68.7468 I0.0088 J-6.4756
G3 X80.128 Y68.7449 I0.7081 J0.7062
G2 X81.532 Y66.6521 I-4.574 J-4.5857
G2 X81.9545 Y65.1516 Z-2.0 I-5.978 J-2.4929
G2 X82.0309 Y64.1509 I-6.4005 J-0.9924
G3 Y64.1496 I1.0 J-0.0013
G2 X81.9539 Y63.1516 I-6.5 J0.0
G2 X81.532 Y61.6521 Z-3.0 I-6.4229 J0.998
G2 X78.7809 Y58.5205 I-6.001 J2.4975
G2 X74.6954 Y57.7035 I-3.25 J5.6292
G2 X73.1851 Y58.0877 Z-2.0 I0.8355 J6.4461
G2 X72.2809 Y58.5205 I2.3458 J6.0619
G2 X71.4531 Y59.0878 I3.25 J5.6292
G2 X70.3655 Y60.2039 Z-3.0 I4.0778 J5.0618
G2 X69.0328 Y63.9923 I5.1654 J3.9457
G1 F20.0 Z-4.0
G2 F200.0 X69.0309 Y64.1496 I6.4981 J0.1573
G3 Y64.151 I-1.0 J0.0
G2 X70.3661 Y68.0979 I6.4756 J0.0088
G2 X70.9338 Y68.7449 Z-2.8524 I5.1405 J-3.9382
G3 X70.9356 Y68.7467 Z-2.8489 I-0.7062 J0.7081
G2 X71.454 Y69.2133 Z-2.0 I4.5857 J-4.574
G2 X73.1857 Y70.2138 I4.0674 J-5.0406
G2 X74.6968 Y70.5969 Z-4.0 I2.3356 J-6.0411
G2 X75.5297 Y70.6496 I0.8246 J-6.4242
G3 X75.5323 I0.0013 J1.0
G2 X80.1262 Y68.7468 I0.0088 J-6.4756
G3 X80.128 Y68.7449 I0.7081 J0.7062
G2 X81.532 Y66.6521 I-4.574 J-4.5857
G2 X81.9545 Y65.1516 Z-2.0 I-5.978 J-2.4929
G2 X82.0309 Y64.1509 I-6.4005 J-0.9924
G3 Y64.1496 I1.0 J-0.0013
G2 X81.9539 Y63.1516 I-6.5 J0.0
G2 X81.532 Y61.6521 Z-4.0 I-6.4229 J0.998
G2 X78.7809 Y58.5205 I-6.001 J2.4975
G2 X74.6954 Y57.7035 I-3.25 J5.6292
G2 X73.1851 Y58.0877 Z-2.0 I0.8355 J6.4461
G2 X72.2809 Y58.5205 I2.3458 J6.0619
G2 X71.4531 Y59.0878 I3.25 J5.6292
G2 X70.3655 Y60.2039 Z-4.0 I4.0778 J5.0618
G2 X69.0328 Y63.9923 I5.1654 J3.9457
G1 F20.0 Z-5.0
G2 F200.0 X69.0309 Y64.1496 I6.4981 J0.1573
G3 Y64.151 I-1.0 J0.0
G2 X70.3661 Y68.0979 I6.4756 J0.0088
G2 X70.9338 Y68.7449 Z-3.2786 I5.1405 J-3.9382
G3 X70.9356 Y68.7467 Z-3.2733 I-0.7062 J0.7081
G2 X71.454 Y69.2133 Z-2.0 I4.5857 J-4.574
G2 X73.1857 Y70.2138 I4.0674 J-5.0406
G2 X74.6968 Y70.5969 Z-5.0 I2.3356 J-6.0411
G2 X75.5297 Y70.6496 I0.8246 J-6.4242
G3 X75.5323 I0.0013 J1.0
G2 X80.1262 Y68.7468 I0.0088 J-6.4756
G3 X80.128 Y68.7449 I0.7081 J0.7062
G2 X81.532 Y66.6521 I-4.574 J-4.5857
G2 X81.9545 Y65.1516 Z-2.0 I-5.978 J-2.4929
G2 X82.0309 Y64.1509 I-6.4005 J-0.9924
G3 Y64.1496 I1.0 J-0.0013
G2 X81.9539 Y63.1516 I-6.5 J0.0
G2 X81.532 Y61.6521 Z-5.0 I-6.4229 J0.998
G2 X78.7809 Y58.5205 I-6.001 J2.4975
G2 X74.6954 Y57.7035 I-3.25 J5.6292
G2 X73.1851 Y58.0877 Z-2.0 I0.8355 J6.4461
G2 X72.2809 Y58.5205 I2.3458 J6.0619
G2 X71.4531 Y59.0878 I3.25 J5.6292
G2 X70.3655 Y60.2039 Z-5.0 I4.0778 J5.0618
G2 X69.0328 Y63.9923 I5.1654 J3.9457
G0 F200
( Contour4 )
S1000
G0 Z3.0
G0 X69.0309 Y49.1496
G0 Z1.0
G1 F20.0 Z-1.0
G1 F200.0 X70.5309
G3 X81.8446 Y53.8359 I0.0 J16.0
G3 X86.5309 Y65.1496 I-11.3137 J11.3137
G1 Y78.1496
G3 X85.5309 Y79.1496 I-1.0 J0.0
G1 X11.5309
G3 X10.5309 Y78.1496 I0.0 J-1.0
G1 Y65.1496
G3 X15.2172 Y53.8359 I16.0 J0.0
G3 X26.5309 Y49.1496 I11.3137 J11.3137
G1 X28.0309
G3 X29.0309 Y50.1496 I0.0 J1.0
G1 Y54.1496
G1 X32.0309
G1 Y50.1496
G3 X33.0309 Y49.1496 I1.0 J0.0
G1 X64.0309
G3 X65.0309 Y50.1496 I0.0 J1.0
G1 Y54.1496
G1 X68.0309
G1 Y50.1496
G3 X69.0309 Y49.1496 I1.0 J0.0
G1 F20.0 Z-2.0
G1 F200.0 X70.5309
G3 X81.8446 Y53.8359 I0.0 J16.0
G3 X86.5309 Y65.1496 I-11.3137 J11.3137
G1 Y78.1496
G3 X85.5309 Y79.1496 I-1.0 J0.0
G1 X11.5309
G3 X10.5309 Y78.1496 I0.0 J-1.0
G1 Y65.1496
G3 X15.2172 Y53.8359 I16.0 J0.0
G3 X26.5309 Y49.1496 I11.3137 J11.3137
G1 X28.0309
G3 X29.0309 Y50.1496 I0.0 J1.0
G1 Y54.1496
G1 X32.0309
G1 Y50.1496
G3 X33.0309 Y49.1496 I1.0 J0.0
G1 X64.0309
G3 X65.0309 Y50.1496 I0.0 J1.0
G1 Y54.1496
G1 X68.0309
G1 Y50.1496
G3 X69.0309 Y49.1496 I1.0 J0.0
G1 F20.0 Z-3.0
G1 F200.0 X70.5309
G3 X81.8446 Y53.8359 I0.0 J16.0
G3 X86.4457 Y63.5 I-11.3137 J11.3137
G3 X86.5302 Y65.0 Z-2.0 I-15.9147 J1.6496
G3 X86.5309 Y65.1496 I-15.9993 J0.1496
G1 Y67.0
G1 Y68.5 Z-3.0
G1 Y78.1496
G3 X85.5309 Y79.1496 I-1.0 J0.0
G1 X66.0929
G1 X64.5929 Z-2.0
G1 X62.5929
G1 X61.0929 Z-3.0
G1 X26.0929
G1 X24.5929 Z-2.0
G1 X22.5929
G1 X21.0929 Z-3.0
G1 X11.5309
G3 X10.5309 Y78.1496 I0.0 J-1.0
G1 Y68.5
G1 Y67.0 Z-2.0
G1 Y65.1496
G3 X10.5316 Y65.0 I16.0 J0.0
G3 X10.6162 Y63.5 Z-3.0 I15.9993 J0.1496
G3 X15.2172 Y53.8359 I15.9147 J1.6496
G3 X26.5309 Y49.1496 I11.3137 J11.3137
G1 X28.0309
G3 X29.0309 Y50.1496 I0.0 J1.0
G1 Y54.1496
G1 X32.0309
G1 Y50.1496
G3 X33.0309 Y49.1496 I1.0 J0.0
G1 X46.5
G1 X48.0 Z-2.0
G1 X50.0
G1 X51.5 Z-3.0
G1 X64.0309
G3 X65.0309 Y50.1496 I0.0 J1.0
G1 Y54.1496
G1 X68.0309
G1 Y50.1496
G3 X69.0309 Y49.1496 I1.0 J0.0
G1 F20.0 Z-4.0
G1 F200.0 X70.5309
G3 X81.8446 Y53.8359 I0.0 J16.0
G3 X86.4457 Y63.5 I-11.3137 J11.3137
G3 X86.5302 Y65.0 Z-2.0 I-15.9147 J1.6496
G3 X86.5309 Y65.1496 I-15.9993 J0.1496
G1 Y67.0
G1 Y68.5 Z-4.0
G1 Y78.1496
G3 X85.5309 Y79.1496 I-1.0 J0.0
G1 X66.0929
G1 X64.5929 Z-2.0
G1 X62.5929
G1 X61.0929 Z-4.0
G1 X26.0929
G1 X24.5929 Z-2.0
G1 X22.5929
G1 X21.0929 Z-4.0
G1 X11.5309
G3 X10.5309 Y78.1496 I0.0 J-1.0
G1 Y68.5
G1 Y67.0 Z-2.0
G1 Y65.1496
G3 X10.5316 Y65.0 I16.0 J0.0
G3 X10.6162 Y63.5 Z-4.0 I15.9993 J0.1496
G3 X15.2172 Y53.8359 I15.9147 J1.6496
G3 X26.5309 Y49.1496 I11.3137 J11.3137
G1 X28.0309
G3 X29.0309 Y50.1496 I0.0 J1.0
G1 Y54.1496
G1 X32.0309
G1 Y50.1496
G3 X33.0309 Y49.1496 I1.0 J0.0
G1 X46.5
G1 X48.0 Z-2.0
G1 X50.0
G1 X51.5 Z-4.0
G1 X64.0309
G3 X65.0309 Y50.1496 I0.0 J1.0
G1 Y54.1496
G1 X68.0309
G1 Y50.1496
G3 X69.0309 Y49.1496 I1.0 J0.0
G1 F20.0 Z-5.0
G1 F200.0 X70.5309
G3 X81.8446 Y53.8359 I0.0 J16.0
G3 X86.4457 Y63.5 I-11.3137 J11.3137
G3 X86.5302 Y65.0 Z-2.0 I-15.9147 J1.6496
G3 X86.5309 Y65.1496 I-15.9993 J0.1496
G1 Y67.0
G1 Y68.5 Z-5.0
G1 Y78.1496
G3 X85.5309 Y79.1496 I-1.0 J0.0
G1 X66.0929
G1 X64.5929 Z-2.0
G1 X62.5929
G1 X61.0929 Z-5.0
G1 X26.0929
G1 X24.5929 Z-2.0
G1 X22.5929
G1 X21.0929 Z-5.0
G1 X11.5309
G3 X10.5309 Y78.1496 I0.0 J-1.0
G1 Y68.5
G1 Y67.0 Z-2.0
G1 Y65.1496
G3 X10.5316 Y65.0 I16.0 J0.0
G3 X10.6162 Y63.5 Z-5.0 I15.9993 J0.1496
G3 X15.2172 Y53.8359 I15.9147 J1.6496
G3 X26.5309 Y49.1496 I11.3137 J11.3137
G1 X28.0309
G3 X29.0309 Y50.1496 I0.0 J1.0
G1 Y54.1496
G1 X32.0309
G1 Y50.1496
G3 X33.0309 Y49.1496 I1.0 J0.0
G1 X46.5
G1 X48.0 Z-2.0
G1 X50.0
G1 X51.5 Z-5.0
G1 X64.0309
G3 X65.0309 Y50.1496 I0.0 J1.0
G1 Y54.1496
G1 X68.0309
G1 Y50.1496
G3 X69.0309 Y49.1496 I1.0 J0.0
G0 F200
( Contour6 )
S1000
G0 Z3.0
G0 X48.8744 Y111.0614
G0 Z1.0
G1 F20.0 Z-1.0
G2 F200.0 X49.3744 Y110.1954 I-0.5 J-0.866
G2 X48.8744 Y109.3293 I-1.0 J0.0
G2 X47.8744 I-0.5 J0.866
G2 X47.3744 Y110.1954 I0.5 J0.866
G2 X47.8744 Y111.0614 I1.0 J0.0
G2 X48.8744 I0.5 J-0.866
G1 F20.0 Z-2.0
G2 F200.0 X49.3744 Y110.1954 I-0.5 J-0.866
G2 X48.8744 Y109.3293 I-1.0 J0.0
G2 X47.8744 I-0.5 J0.866
G2 X47.3744 Y110.1954 I0.5 J0.866
G2 X47.8744 Y111.0614 I1.0 J0.0
G2 X48.8744 I0.5 J-0.866
G1 F20.0 Z-3.0
G2 F200.0 X49.3744 Y110.1954 I-0.5 J-0.866
G2 X48.8744 Y109.3293 I-1.0 J0.0
G2 X47.8744 I-0.5 J0.866
G2 X47.3744 Y110.1954 I0.5 J0.866
G2 X47.8744 Y111.0614 I1.0 J0.0
G2 X48.8744 I0.5 J-0.866
G1 F20.0 Z-4.0
G2 F200.0 X49.3744 Y110.1954 I-0.5 J-0.866
G2 X48.8744 Y109.3293 I-1.0 J0.0
G2 X47.8744 I-0.5 J0.866
G2 X47.3744 Y110.1954 I0.5 J0.866
G2 X47.8744 Y111.0614 I1.0 J0.0
G2 X48.8744 I0.5 J-0.866
G1 F20.0 Z-5.0
G2 F200.0 X49.3744 Y110.1954 I-0.5 J-0.866
G2 X48.8744 Y109.3293 I-1.0 J0.0
G2 X47.8744 I-0.5 J0.866
G2 X47.3744 Y110.1954 I0.5 J0.866
G2 X47.8744 Y111.0614 I1.0 J0.0
G2 X48.8744 I0.5 J-0.866
G0 F200
( Contour5 )
S1000
G0 Z3.0
G0 X21.373 Y92.6954
G0 Z1.0
G1 F20.0 Z-1.0
G2 F200.0 X16.7791 Y94.5982 I-0.0088 J6.4756
G3 X16.7773 Y94.6001 I-0.7081 J-0.7062
G2 X14.8744 Y99.1941 I4.574 J4.5857
G3 Y99.1967 I-1.0 J0.0013
G2 X16.7772 Y103.7906 I6.4756 J0.0088
G3 X16.7791 Y103.7925 I-0.7062 J0.7081
G2 X21.3731 Y105.6954 I4.5857 J-4.574
G3 X21.3757 I0.0013 J1.0
G2 X25.9696 Y103.7925 I0.0088 J-6.4756
G3 X25.9715 Y103.7907 I0.7081 J0.7062
G2 X27.8744 Y99.1966 I-4.574 J-4.5857
G3 Y99.194 I1.0 J-0.0013
G2 X25.9715 Y94.6001 I-6.4756 J-0.0088
G3 X25.9697 Y94.5983 I0.7062 J-0.7081
G2 X21.3757 Y92.6954 I-4.5857 J4.574
G3 X21.373 I-0.0013 J-1.0
G1 F20.0 Z-2.0
G2 F200.0 X16.7791 Y94.5982 I-0.0088 J6.4756
G3 X16.7773 Y94.6001 I-0.7081 J-0.7062
G2 X14.8744 Y99.1941 I4.574 J4.5857
G3 Y99.1967 I-1.0 J0.0013
G2 X16.7772 Y103.7906 I6.4756 J0.0088
G3 X16.7791 Y103.7925 I-0.7062 J0.7081
G2 X21.3731 Y105.6954 I4.5857 J-4.574
G3 X21.3757 I0.0013 J1.0
G2 X25.9696 Y103.7925 I0.0088 J-6.4756
G3 X25.9715 Y103.7907 I0.7081 J0.7062
G2 X27.8744 Y99.1966 I-4.574 J-4.5857
G3 Y99.194 I1.0 J-0.0013
G2 X25.9715 Y94.6001 I-6.4756 J-0.0088
G3 X25.9697 Y94.5983 I0.7062 J-0.7081
G2 X21.3757 Y92.6954 I-4.5857 J4.574
G3 X21.373 I-0.0013 J-1.0
G1 F20.0 Z-3.0
G2 F200.0 X17.4266 Y94.0302 I-0.0088 J6.4756
G2 X16.7791 Y94.5982 Z-2.4258 I3.9377 J5.1408
G3 X16.7773 Y94.6001 Z-2.424 I-0.7081 J-0.7062
G2 X16.3111 Y95.118 Z-2.0 I4.574 J4.5857
G2 X15.3104 Y96.8496 I5.0402 J4.0678
G2 X14.9272 Y98.3606 Z-3.0 I6.0409 J2.3362
G2 X14.8744 Y99.1941 I6.4242 J0.8252
G3 Y99.1967 I-1.0 J0.0013
G2 X16.7772 Y103.7906 I6.4756 J0.0088
G3 X16.7791 Y103.7925 I-0.7062 J0.7081
G2 X18.8725 Y105.1966 I4.5857 J-4.574
G2 X20.373 Y105.619 Z-2.0 I2.4924 J-5.9782
G2 X21.3731 Y105.6954 I0.9918 J-6.4005
G3 X21.3757 I0.0013 J1.0
G2 X22.373 Y105.6195 I0.0088 J-6.4756
G2 X23.8725 Y105.1984 Z-3.0 I-0.9885 J-6.3997
G2 X25.9696 Y103.7925 I-2.488 J-5.9786
G3 X25.9715 Y103.7907 I0.7081 J0.7062
G2 X27.8744 Y99.1966 I-4.574 J-4.5857
G3 Y99.194 I1.0 J-0.0013
G2 X27.8217 Y98.3607 I-6.4756 J-0.0088
G2 X27.4385 Y96.8496 Z-2.0 I-6.4229 J0.8246
G2 X26.4377 Y95.118 I-6.0397 J2.3356
G2 X25.9715 Y94.6001 Z-2.4645 I-5.0389 J4.0672
G3 X25.9697 Y94.5983 Z-2.4663 I0.7062 J-0.7081
G2 X25.3222 Y94.0302 Z-3.0 I-4.5857 J4.574
G2 X21.3757 Y92.6954 I-3.9383 J5.1421
G3 X21.373 I-0.0013 J-1.0
G1 F20.0 Z-4.0
G2 F200.0 X17.4266 Y94.0302 I-0.0088 J6.4756
G2 X16.7791 Y94.5982 Z-2.8516 I3.9377 J5.1408
G3 X16.7773 Y94.6001 Z-2.8481 I-0.7081 J-0.7062
G2 X16.3111 Y95.118 Z-2.0 I4.574 J4.5857
G2 X15.3104 Y96.8496 I5.0402 J4.0678
G2 X14.9272 Y98.3606 Z-4.0 I6.0409 J2.3362
G2 X14.8744 Y99.1941 I6.4242 J0.8252
G3 Y99.1967 I-1.0 J0.0013
G2 X16.7772 Y103.7906 I6.4756 J0.0088
G3 X16.7791 Y103.7925 I-0.7062 J0.7081
G2 X18.8725 Y105.1966 I4.5857 J-4.574
G2 X20.373 Y105.619 Z-2.0 I2.4924 J-5.9782
G2 X21.3731 Y105.6954 I0.9918 J-6.4005
G3 X21.3757 I0.0013 J1.0
G2 X22.373 Y105.6195 I0.0088 J-6.4756
G2 X23.8725 Y105.1984 Z-4.0 I-0.9885 J-6.3997
G2 X25.9696 Y103.7925 I-2.488 J-5.9786
G3 X25.9715 Y103.7907 I0.7081 J0.7062
G2 X27.8744 Y99.1966 I-4.574 J-4.5857
G3 Y99.194 I1.0 J-0.0013
G2 X27.8217 Y98.3607 I-6.4756 J-0.0088
G2 X27.4385 Y96.8496 Z-2.0 I-6.4229 J0.8246
G2 X26.4377 Y95.118 I-6.0397 J2.3356
G2 X25.9715 Y94.6001 Z-2.9291 I-5.0389 J4.0672
G3 X25.9697 Y94.5983 Z-2.9326 I0.7062 J-0.7081
G2 X25.3222 Y94.0302 Z-4.0 I-4.5857 J4.574
G2 X21.3757 Y92.6954 I-3.9383 J5.1421
G3 X21.373 I-0.0013 J-1.0
G1 F20.0 Z-5.0
G2 F200.0 X17.4266 Y94.0302 I-0.0088 J6.4756
G2 X16.7791 Y94.5982 Z-3.2774 I3.9377 J5.1408
G3 X16.7773 Y94.6001 Z-3.2721 I-0.7081 J-0.7062
G2 X16.3111 Y95.118 Z-2.0 I4.574 J4.5857
G2 X15.3104 Y96.8496 I5.0402 J4.0678
G2 X14.9272 Y98.3606 Z-5.0 I6.0409 J2.3362
G2 X14.8744 Y99.1941 I6.4242 J0.8252
G3 Y99.1967 I-1.0 J0.0013
G2 X16.7772 Y103.7906 I6.4756 J0.0088
G3 X16.7791 Y103.7925 I-0.7062 J0.7081
G2 X18.8725 Y105.1966 I4.5857 J-4.574
G2 X20.373 Y105.619 Z-2.0 I2.4924 J-5.9782
G2 X21.3731 Y105.6954 I0.9918 J-6.4005
G3 X21.3757 I0.0013 J1.0
G2 X22.373 Y105.6195 I0.0088 J-6.4756
G2 X23.8725 Y105.1984 Z-5.0 I-0.9885 J-6.3997
G2 X25.9696 Y103.7925 I-2.488 J-5.9786
G3 X25.9715 Y103.7907 I0.7081 J0.7062
G2 X27.8744 Y99.1966 I-4.574 J-4.5857
G3 Y99.194 I1.0 J-0.0013
G2 X27.8217 Y98.3607 I-6.4756 J-0.0088
G2 X27.4385 Y96.8496 Z-2.0 I-6.4229 J0.8246
G2 X26.4377 Y95.118 I-6.0397 J2.3356
G2 X25.9715 Y94.6001 Z-3.3936 I-5.0389 J4.0672
G3 X25.9697 Y94.5983 Z-3.3989 I0.7062 J-0.7081
G2 X25.3222 Y94.0302 Z-5.0 I-4.5857 J4.574
G2 X21.3757 Y92.6954 I-3.9383 J5.1421
G3 X21.373 I-0.0013 J-1.0
G0 Z3.0
G0 X33.2607 Y96.9878
G0 Z1.0
G1 F20.0 Z-1.0
G2 F200.0 X32.8744 Y99.1954 I6.1137 J2.2075
G2 X36.1244 Y104.8245 I6.5 J0.0
G2 X42.6244 I3.25 J-5.6292
G2 X45.8744 Y99.1954 I-3.25 J-5.6292
G2 X42.6244 Y93.5662 I-6.5 J0.0
G2 X36.1244 I-3.25 J5.6292
G2 X33.2607 Y96.9878 I3.25 J5.6292
G1 F20.0 Z-2.0
G2 F200.0 X32.8744 Y99.1954 I6.1137 J2.2075
G2 X36.1244 Y104.8245 I6.5 J0.0
G2 X42.6244 I3.25 J-5.6292
G2 X45.8744 Y99.1954 I-3.25 J-5.6292
G2 X42.6244 Y93.5662 I-6.5 J0.0
G2 X36.1244 I-3.25 J5.6292
G2 X33.2607 Y96.9878 I3.25 J5.6292
G1 F20.0 Z-3.0
G2 F200.0 X32.8744 Y99.1954 I6.1137 J2.2075
G2 X34.2093 Y103.1415 I6.5 J0.0
G2 X35.297 Y104.2575 Z-2.0 I5.1651 J-3.9462
G2 X36.1244 Y104.8245 I4.0773 J-5.0622
G2 X37.0291 Y105.2575 I3.25 J-5.6292
G2 X38.5394 Y105.6415 Z-3.0 I2.3453 J-6.0622
G2 X42.6244 Y104.8245 I0.8349 J-6.4462
G2 X45.3744 Y101.6954 I-3.25 J-5.6292
G2 X45.797 Y100.1954 Z-2.0 I-6.0 J-2.5
G2 X45.8744 Y99.1954 I-6.4226 J-1.0
G2 X45.797 Y98.1954 I-6.5 J0.0
G2 X45.3744 Y96.6954 Z-3.0 I-6.4226 J1.0
G2 X42.6244 Y93.5662 I-6.0 J2.5
G2 X38.5394 Y92.7492 I-3.25 J5.6292
G2 X37.0291 Y93.1332 Z-2.0 I0.8349 J6.4462
G2 X36.1244 Y93.5662 I2.3453 J6.0622
G2 X35.297 Y94.1332 I3.25 J5.6292
G2 X34.2093 Y95.2492 Z-3.0 I4.0773 J5.0621
G2 X33.2607 Y96.9878 I5.1651 J3.9462
G1 F20.0 Z-4.0
G2 F200.0 X32.8744 Y99.1954 I6.1137 J2.2075
G2 X34.2093 Y103.1415 I6.5 J0.0
G2 X35.297 Y104.2575 Z-2.0 I5.1651 J-3.9462
G2 X36.1244 Y104.8245 I4.0773 J-5.0622
G2 X37.0291 Y105.2575 I3.25 J-5.6292
G2 X38.5394 Y105.6415 Z-4.0 I2.3453 J-6.0622
G2 X42.6244 Y104.8245 I0.8349 J-6.4462
G2 X45.3744 Y101.6954 I-3.25 J-5.6292
G2 X45.797 Y100.1954 Z-2.0 I-6.0 J-2.5
G2 X45.8744 Y99.1954 I-6.4226 J-1.0
G2 X45.797 Y98.1954 I-6.5 J0.0
G2 X45.3744 Y96.6954 Z-4.0 I-6.4226 J1.0
G2 X42.6244 Y93.5662 I-6.0 J2.5
G2 X38.5394 Y92.7492 I-3.25 J5.6292
G2 X37.0291 Y93.1332 Z-2.0 I0.8349 J6.4462
G2 X36.1244 Y93.5662 I2.3453 J6.0622
G2 X35.297 Y94.1332 I3.25 J5.6292
G2 X34.2093 Y95.2492 Z-4.0 I4.0773 J5.0621
G2 X33.2607 Y96.9878 I5.1651 J3.9462
G1 F20.0 Z-5.0
G2 F200.0 X32.8744 Y99.1954 I6.1137 J2.2075
G2 X34.2093 Y103.1415 I6.5 J0.0
G2 X35.297 Y104.2575 Z-2.0 I5.1651 J-3.9462
G2 X36.1244 Y104.8245 I4.0773 J-5.0622
G2 X37.0291 Y105.2575 I3.25 J-5.6292
G2 X38.5394 Y105.6415 Z-5.0 I2.3453 J-6.0622
G2 X42.6244 Y104.8245 I0.8349 J-6.4462
G2 X45.3744 Y101.6954 I-3.25 J-5.6292
G2 X45.797 Y100.1954 Z-2.0 I-6.0 J-2.5
G2 X45.8744 Y99.1954 I-6.4226 J-1.0
G2 X45.797 Y98.1954 I-6.5 J0.0
G2 X45.3744 Y96.6954 Z-5.0 I-6.4226 J1.0
G2 X42.6244 Y93.5662 I-6.0 J2.5
G2 X38.5394 Y92.7492 I-3.25 J5.6292
G2 X37.0291 Y93.1332 Z-2.0 I0.8349 J6.4462
G2 X36.1244 Y93.5662 I2.3453 J6.0622
G2 X35.297 Y94.1332 I3.25 J5.6292
G2 X34.2093 Y95.2492 Z-5.0 I4.0773 J5.0621
G2 X33.2607 Y96.9878 I5.1651 J3.9462
G0 Z3.0
G0 X50.9014 Y98.6028
G0 Z1.0
G1 F20.0 Z-1.0
G2 F200.0 X50.8744 Y99.1954 I6.4729 J0.5926
G2 X54.1244 Y104.8245 I6.5 J0.0
G2 X60.6244 I3.25 J-5.6292
G2 X63.8744 Y99.1954 I-3.25 J-5.6292
G2 X60.6244 Y93.5662 I-6.5 J0.0
G2 X54.1244 I-3.25 J5.6292
G2 X50.9014 Y98.6028 I3.25 J5.6292
G1 F20.0 Z-2.0
G2 F200.0 X50.8744 Y99.1954 I6.4729 J0.5926
G2 X54.1244 Y104.8245 I6.5 J0.0
G2 X60.6244 I3.25 J-5.6292
G2 X63.8744 Y99.1954 I-3.25 J-5.6292
G2 X60.6244 Y93.5662 I-6.5 J0.0
G2 X54.1244 I-3.25 J5.6292
G2 X50.9014 Y98.6028 I3.25 J5.6292
G1 F20.0 Z-3.0
G2 F200.0 X50.8744 Y99.1954 I6.4729 J0.5926
G2 X52.2093 Y103.1415 I6.5 J0.0
G2 X53.297 Y104.2575 Z-2.0 I5.1651 J-3.9462
G2 X54.1244 Y104.8245 I4.0773 J-5.0621
G2 X55.0291 Y105.2575 I3.25 J-5.6292
G2 X56.5394 Y105.6415 Z-3.0 I2.3453 J-6.0622
G2 X60.6244 Y104.8245 I0.8349 J-6.4462
G2 X63.3744 Y101.6954 I-3.25 J-5.6292
G2 X63.797 Y100.1954 Z-2.0 I-6.0 J-2.5
G2 X63.8744 Y99.1954 I-6.4226 J-1.0
G2 X63.797 Y98.1954 I-6.5 J0.0
G2 X63.3744 Y96.6954 Z-3.0 I-6.4226 J1.0
G2 X60.6244 Y93.5662 I-6.0 J2.5
G2 X56.5394 Y92.7492 I-3.25 J5.6292
G2 X55.0291 Y93.1332 Z-2.0 I0.8349 J6.4462
G2 X54.1244 Y93.5662 I2.3453 J6.0622
G2 X53.297 Y94.1332 I3.25 J5.6292
G2 X52.2093 Y95.2492 Z-3.0 I4.0773 J5.0621
G2 X50.9014 Y98.6028 I5.1651 J3.9462
G1 F20.0 Z-4.0
G2 F200.0 X50.8744 Y99.1954 I6.4729 J0.5926
G2 X52.2093 Y103.1415 I6.5 J0.0
G2 X53.297 Y104.2575 Z-2.0 I5.1651 J-3.9462
G2 X54.1244 Y104.8245 I4.0773 J-5.0621
G2 X55.0291 Y105.2575 I3.25 J-5.6292
G2 X56.5394 Y105.6415 Z-4.0 I2.3453 J-6.0622
G2 X60.6244 Y104.8245 I0.8349 J-6.4462
G2 X63.3744 Y101.6954 I-3.25 J-5.6292
G2 X63.797 Y100.1954 Z-2.0 I-6.0 J-2.5
G2 X63.8744 Y99.1954 I-6.4226 J-1.0
G2 X63.797 Y98.1954 I-6.5 J0.0
G2 X63.3744 Y96.6954 Z-4.0 I-6.4226 J1.0
G2 X60.6244 Y93.5662 I-6.0 J2.5
G2 X56.5394 Y92.7492 I-3.25 J5.6292
G2 X55.0291 Y93.1332 Z-2.0 I0.8349 J6.4462
G2 X54.1244 Y93.5662 I2.3453 J6.0622
G2 X53.297 Y94.1332 I3.25 J5.6292
G2 X52.2093 Y95.2492 Z-4.0 I4.0773 J5.0621
G2 X50.9014 Y98.6028 I5.1651 J3.9462
G1 F20.0 Z-5.0
G2 F200.0 X50.8744 Y99.1954 I6.4729 J0.5926
G2 X52.2093 Y103.1415 I6.5 J0.0
G2 X53.297 Y104.2575 Z-2.0 I5.1651 J-3.9462
G2 X54.1244 Y104.8245 I4.0773 J-5.0621
G2 X55.0291 Y105.2575 I3.25 J-5.6292
G2 X56.5394 Y105.6415 Z-5.0 I2.3453 J-6.0622
G2 X60.6244 Y104.8245 I0.8349 J-6.4462
G2 X63.3744 Y101.6954 I-3.25 J-5.6292
G2 X63.797 Y100.1954 Z-2.0 I-6.0 J-2.5
G2 X63.8744 Y99.1954 I-6.4226 J-1.0
G2 X63.797 Y98.1954 I-6.5 J0.0
G2 X63.3744 Y96.6954 Z-5.0 I-6.4226 J1.0
G2 X60.6244 Y93.5662 I-6.0 J2.5
G2 X56.5394 Y92.7492 I-3.25 J5.6292
G2 X55.0291 Y93.1332 Z-2.0 I0.8349 J6.4462
G2 X54.1244 Y93.5662 I2.3453 J6.0622
G2 X53.297 Y94.1332 I3.25 J5.6292
G2 X52.2093 Y95.2492 Z-5.0 I4.0773 J5.0621
G2 X50.9014 Y98.6028 I5.1651 J3.9462
G0 Z3.0
G0 X68.8763 Y99.038
G0 Z1.0
G1 F20.0 Z-1.0
G2 F200.0 X68.8744 Y99.1954 I6.4981 J0.1573
G3 Y99.1967 I-1.0 J0.0
G2 X70.7772 Y103.7906 I6.4756 J0.0088
G3 X70.7791 Y103.7925 I-0.7062 J0.7081
G2 X75.3731 Y105.6954 I4.5857 J-4.574
G3 X75.3757 I0.0013 J1.0
G2 X79.9696 Y103.7925 I0.0088 J-6.4756
G3 X79.9715 Y103.7907 I0.7081 J0.7062
G2 X81.8744 Y99.1966 I-4.574 J-4.5857
G3 Y99.1954 I1.0 J-0.0013
G2 X78.6244 Y93.5662 I-6.5 J0.0
G2 X72.1244 I-3.25 J5.6292
G2 X68.8763 Y99.038 I3.25 J5.6292
G1 F20.0 Z-2.0
G2 F200.0 X68.8744 Y99.1954 I6.4981 J0.1573
G3 Y99.1967 I-1.0 J0.0
G2 X70.7772 Y103.7906 I6.4756 J0.0088
G3 X70.7791 Y103.7925 I-0.7062 J0.7081
G2 X75.3731 Y105.6954 I4.5857 J-4.574
G3 X75.3757 I0.0013 J1.0
G2 X79.9696 Y103.7925 I0.0088 J-6.4756
G3 X79.9715 Y103.7907 I0.7081 J0.7062
G2 X81.8744 Y99.1966 I-4.574 J-4.5857
G3 Y99.1954 I1.0 J-0.0013
G2 X78.6244 Y93.5662 I-6.5 J0.0
G2 X72.1244 I-3.25 J5.6292
G2 X68.8763 Y99.038 I3.25 J5.6292
G1 F20.0 Z-3.0
G2 F200.0 X68.8744 Y99.1954 I6.4981 J0.1573
G3 Y99.1967 I-1.0 J0.0
G2 X70.2095 Y103.1437 I6.4756 J0.0088
G2 X70.7772 Y103.7906 Z-2.4262 I5.1405 J-3.9382
G3 X70.7791 Y103.7925 Z-2.4244 I-0.7062 J0.7081
G2 X71.2975 Y104.259 Z-2.0 I4.5857 J-4.574
G2 X73.0292 Y105.2596 I4.0674 J-5.0406
G2 X74.5402 Y105.6427 Z-3.0 I2.3356 J-6.0411
G2 X75.3731 Y105.6954 I0.8246 J-6.4242
G3 X75.3757 I0.0013 J1.0
G2 X79.9696 Y103.7925 I0.0088 J-6.4756
G3 X79.9715 Y103.7907 I0.7081 J0.7062
G2 X81.3754 Y101.6978 I-4.574 J-4.5857
G2 X81.7979 Y100.1973 Z-2.0 I-5.978 J-2.4929
G2 X81.8744 Y99.1966 I-6.4005 J-0.9924
G3 Y99.1954 I1.0 J-0.0013
G2 X81.7973 Y98.1973 I-6.5 J0.0
G2 X81.3754 Y96.6978 Z-3.0 I-6.4229 J0.998
G2 X78.6244 Y93.5662 I-6.001 J2.4975
G2 X74.5389 Y92.7493 I-3.25 J5.6292
G2 X73.0285 Y93.1334 Z-2.0 I0.8355 J6.4461
G2 X72.1244 Y93.5662 I2.3458 J6.0619
G2 X71.2966 Y94.1336 I3.25 J5.6292
G2 X70.209 Y95.2497 Z-3.0 I4.0778 J5.0618
G2 X68.8763 Y99.038 I5.1654 J3.9457
G1 F20.0 Z-4.0
G2 F200.0 X68.8744 Y99.1954 I6.4981 J0.1573
G3 Y99.1967 I-1.0 J0.0
G2 X70.2095 Y103.1437 I6.4756 J0.0088
G2 X70.7772 Y103.7906 Z-2.8524 I5.1405 J-3.9382
G3 X70.7791 Y103.7925 Z-2.8489 I-0.7062 J0.7081
G2 X71.2975 Y104.259 Z-2.0 I4.5857 J-4.574
G2 X73.0292 Y105.2596 I4.0674 J-5.0406
G2 X74.5402 Y105.6427 Z-4.0 I2.3356 J-6.0411
G2 X75.3731 Y105.6954 I0.8246 J-6.4242
G3 X75.3757 I0.0013 J1.0
G2 X79.9696 Y103.7925 I0.0088 J-6.4756
G3 X79.9715 Y103.7907 I0.7081 J0.7062
G2 X81.3754 Y101.6978 I-4.574 J-4.5857
G2 X81.7979 Y100.1973 Z-2.0 I-5.978 J-2.4929
G2 X81.8744 Y99.1966 I-6.4005 J-0.9924
G3 Y99.1954 I1.0 J-0.0013
G2 X81.7973 Y98.1973 I-6.5 J0.0
G2 X81.3754 Y96.6978 Z-4.0 I-6.4229 J0.998
G2 X78.6244 Y93.5662 I-6.001 J2.4975
G2 X74.5389 Y92.7493 I-3.25 J5.6292
G2 X73.0285 Y93.1334 Z-2.0 I0.8355 J6.4461
G2 X72.1244 Y93.5662 I2.3458 J6.0619
G2 X71.2966 Y94.1336 I3.25 J5.6292
G2 X70.209 Y95.2497 Z-4.0 I4.0778 J5.0618
G2 X68.8763 Y99.038 I5.1654 J3.9457
G1 F20.0 Z-5.0
G2 F200.0 X68.8744 Y99.1954 I6.4981 J0.1573
G3 Y99.1967 I-1.0 J0.0
G2 X70.2095 Y103.1437 I6.4756 J0.0088
G2 X70.7772 Y103.7906 Z-3.2786 I5.1405 J-3.9382
G3 X70.7791 Y103.7925 Z-3.2733 I-0.7062 J0.7081
G2 X71.2975 Y104.259 Z-2.0 I4.5857 J-4.574
G2 X73.0292 Y105.2596 I4.0674 J-5.0406
G2 X74.5402 Y105.6427 Z-5.0 I2.3356 J-6.0411
G2 X75.3731 Y105.6954 I0.8246 J-6.4242
G3 X75.3757 I0.0013 J1.0
G2 X79.9696 Y103.7925 I0.0088 J-6.4756
G3 X79.9715 Y103.7907 I0.7081 J0.7062
G2 X81.3754 Y101.6978 I-4.574 J-4.5857
G2 X81.7979 Y100.1973 Z-2.0 I-5.978 J-2.4929
G2 X81.8744 Y99.1966 I-6.4005 J-0.9924
G3 Y99.1954 I1.0 J-0.0013
G2 X81.7973 Y98.1973 I-6.5 J0.0
G2 X81.3754 Y96.6978 Z-5.0 I-6.4229 J0.998
G2 X78.6244 Y93.5662 I-6.001 J2.4975
G2 X74.5389 Y92.7493 I-3.25 J5.6292
G2 X73.0285 Y93.1334 Z-2.0 I0.8355 J6.4461
G2 X72.1244 Y93.5662 I2.3458 J6.0619
G2 X71.2966 Y94.1336 I3.25 J5.6292
G2 X70.209 Y95.2497 Z-5.0 I4.0778 J5.0618
G2 X68.8763 Y99.038 I5.1654 J3.9457
G0 F200
( Contour7 )
S1000
G0 Z3.0
G0 X67.8744 Y89.1954
G0 Z1.0
G1 F20.0 Z-1.0
G1 F200.0 Y85.1954
G3 X68.8744 Y84.1954 I1.0 J0.0
G1 X85.3744
G3 X86.3744 Y85.1954 I0.0 J1.0
G1 Y113.1954
G3 X85.3744 Y114.1954 I-1.0 J0.0
G1 X55.3026
G3 X48.3744 Y118.1954 I-6.9282 J-4.0
G3 X41.4462 Y114.1954 I0.0 J-8.0
G1 X11.3744
G3 X10.3744 Y113.1954 I0.0 J-1.0
G1 Y85.1954
G3 X11.3744 Y84.1954 I1.0 J0.0
G1 X27.8744
G3 X28.8744 Y85.1954 I0.0 J1.0
G1 Y89.1954
G1 X31.8744
G1 Y85.1954
G3 X32.8744 Y84.1954 I1.0 J0.0
G1 X63.8744
G3 X64.8744 Y85.1954 I0.0 J1.0
G1 Y89.1954
G1 X67.8744
G1 F20.0 Z-2.0
G1 F200.0 Y85.1954
G3 X68.8744 Y84.1954 I1.0 J0.0
G1 X85.3744
G3 X86.3744 Y85.1954 I0.0 J1.0
G1 Y113.1954
G3 X85.3744 Y114.1954 I-1.0 J0.0
G1 X55.3026
G3 X48.3744 Y118.1954 I-6.9282 J-4.0
G3 X41.4462 Y114.1954 I0.0 J-8.0
G1 X11.3744
G3 X10.3744 Y113.1954 I0.0 J-1.0
G1 Y85.1954
G3 X11.3744 Y84.1954 I1.0 J0.0
G1 X27.8744
G3 X28.8744 Y85.1954 I0.0 J1.0
G1 Y89.1954
G1 X31.8744
G1 Y85.1954
G3 X32.8744 Y84.1954 I1.0 J0.0
G1 X63.8744
G3 X64.8744 Y85.1954 I0.0 J1.0
G1 Y89.1954
G1 X67.8744
G1 F20.0 Z-3.0
G1 F200.0 Y85.1954
G3 X68.8744 Y84.1954 I1.0 J0.0
G1 X70.5
G1 X72.0 Z-2.0
G1 X74.0
G1 X75.5 Z-3.0
G1 X85.3744
G3 X86.3744 Y85.1954 I0.0 J1.0
G1 Y96.5
G1 Y98.0 Z-2.0
G1 Y100.0
G1 Y101.5 Z-3.0
G1 Y113.1954
G3 X85.3744 Y114.1954 I-1.0 J0.0
G1 X75.5
G1 X74.0 Z-2.0
G1 X72.0
G1 X70.5 Z-3.0
G1 X55.3026
G3 X48.3744 Y118.1954 I-6.9282 J-4.0
G3 X41.4462 Y114.1954 I0.0 J-8.0
G1 X25.5
G1 X24.0 Z-2.0
G1 X22.0
G1 X20.5 Z-3.0
G1 X11.3744
G3 X10.3744 Y113.1954 I0.0 J-1.0
G1 Y101.5
G1 Y100.0 Z-2.0
G1 Y98.0
G1 Y96.5 Z-3.0
G1 Y85.1954
G3 X11.3744 Y84.1954 I1.0 J0.0
G1 X20.5
G1 X22.0 Z-2.0
G1 X24.0
G1 X25.5 Z-3.0
G1 X27.8744
G3 X28.8744 Y85.1954 I0.0 J1.0
G1 Y89.1954
G1 X31.8744
G1 Y85.1954
G3 X32.8744 Y84.1954 I1.0 J0.0
G1 X63.8744
G3 X64.8744 Y85.1954 I0.0 J1.0
G1 Y89.1954
G1 X67.8744
G1 F20.0 Z-4.0
G1 F200.0 Y85.1954
G3 X68.8744 Y84.1954 I1.0 J0.0
G1 X70.5
G1 X72.0 Z-2.0
G1 X74.0
G1 X75.5 Z-4.0
G1 X85.3744
G3 X86.3744 Y85.1954 I0.0 J1.0
G1 Y96.5
G1 Y98.0 Z-2.0
G1 Y100.0
G1 Y101.5 Z-4.0
G1 Y113.1954
G3 X85.3744 Y114.1954 I-1.0 J0.0
G1 X75.5
G1 X74.0 Z-2.0
G1 X72.0
G1 X70.5 Z-4.0
G1 X55.3026
G3 X48.3744 Y118.1954 I-6.9282 J-4.0
G3 X41.4462 Y114.1954 I0.0 J-8.0
G1 X25.5
G1 X24.0 Z-2.0
G1 X22.0
G1 X20.5 Z-4.0
G1 X11.3744
G3 X10.3744 Y113.1954 I0.0 J-1.0
G1 Y101.5
G1 Y100.0 Z-2.0
G1 Y98.0
G1 Y96.5 Z-4.0
G1 Y85.1954
G3 X11.3744 Y84.1954 I1.0 J0.0
G1 X20.5
G1 X22.0 Z-2.0
G1 X24.0
G1 X25.5 Z-4.0
G1 X27.8744
G3 X28.8744 Y85.1954 I0.0 J1.0
G1 Y89.1954
G1 X31.8744
G1 Y85.1954
G3 X32.8744 Y84.1954 I1.0 J0.0
G1 X63.8744
G3 X64.8744 Y85.1954 I0.0 J1.0
G1 Y89.1954
G1 X67.8744
G1 F20.0 Z-5.0
G1 F200.0 Y85.1954
G3 X68.8744 Y84.1954 I1.0 J0.0
G1 X70.5
G1 X72.0 Z-2.0
G1 X74.0
G1 X75.5 Z-5.0
G1 X85.3744
G3 X86.3744 Y85.1954 I0.0 J1.0
G1 Y96.5
G1 Y98.0 Z-2.0
G1 Y100.0
G1 Y101.5 Z-5.0
G1 Y113.1954
G3 X85.3744 Y114.1954 I-1.0 J0.0
G1 X75.5
G1 X74.0 Z-2.0
G1 X72.0
G1 X70.5 Z-5.0
G1 X55.3026
G3 X48.3744 Y118.1954 I-6.9282 J-4.0
G3 X41.4462 Y114.1954 I0.0 J-8.0
G1 X25.5
G1 X24.0 Z-2.0
G1 X22.0
G1 X20.5 Z-5.0
G1 X11.3744
G3 X10.3744 Y113.1954 I0.0 J-1.0
G1 Y101.5
G1 Y100.0 Z-2.0
G1 Y98.0
G1 Y96.5 Z-5.0
G1 Y85.1954
G3 X11.3744 Y84.1954 I1.0 J0.0
G1 X20.5
G1 X22.0 Z-2.0
G1 X24.0
G1 X25.5 Z-5.0
G1 X27.8744
G3 X28.8744 Y85.1954 I0.0 J1.0
G1 Y89.1954
G1 X31.8744
G1 Y85.1954
G3 X32.8744 Y84.1954 I1.0 J0.0
G1 X63.8744
G3 X64.8744 Y85.1954 I0.0 J1.0
G1 Y89.1954
G1 X67.8744
G0 F200
( Contour8 )
S1000
G0 Z3.0
G0 X69.8577 Y119.6093
G0 Z1.0
G1 F20.0 Z-1.0
G1 F200.0 X71.3577
G3 X82.6714 Y124.2956 I0.0 J16.0
G3 X87.3577 Y135.6093 I-11.3137 J11.3137
G1 Y148.6093
G3 X86.3577 Y149.6093 I-1.0 J0.0
G1 X77.8577
G1 Y155.6093
G3 X75.2217 Y161.9732 I-9.0 J0.0
G3 X68.8577 Y164.6093 I-6.364 J-6.364
G3 X67.8577 Y163.6093 I0.0 J-1.0
G1 Y149.6093
G1 X64.8577
G1 Y163.6093
G3 X63.8577 Y164.6093 I-1.0 J0.0
G3 X57.4937 Y161.9732 I0.0 J-9.0
G3 X54.8577 Y155.6093 I6.364 J-6.364
G1 Y149.6093
G1 X12.3577
G3 X11.3577 Y148.6093 I0.0 J-1.0
G1 Y135.6093
G3 X16.044 Y124.2956 I16.0 J0.0
G3 X27.3577 Y119.6093 I11.3137 J11.3137
G1 X28.8577
G3 X29.8577 Y120.6093 I0.0 J1.0
G1 Y129.6093
G1 X32.8577
G1 Y120.6093
G3 X33.8577 Y119.6093 I1.0 J0.0
G1 X64.8577
G3 X65.8577 Y120.6093 I0.0 J1.0
G1 Y129.6093
G1 X68.8577
G1 Y120.6093
G3 X69.8577 Y119.6093 I1.0 J0.0
G1 F20.0 Z-2.0
G1 F200.0 X71.3577
G3 X82.6714 Y124.2956 I0.0 J16.0
G3 X87.3577 Y135.6093 I-11.3137 J11.3137
G1 Y148.6093
G3 X86.3577 Y149.6093 I-1.0 J0.0
G1 X77.8577
G1 Y155.6093
G3 X75.2217 Y161.9732 I-9.0 J0.0
G3 X68.8577 Y164.6093 I-6.364 J-6.364
G3 X67.8577 Y163.6093 I0.0 J-1.0
G1 Y149.6093
G1 X64.8577
G1 Y163.6093
G3 X63.8577 Y164.6093 I-1.0 J0.0
G3 X57.4937 Y161.9732 I0.0 J-9.0
G3 X54.8577 Y155.6093 I6.364 J-6.364
G1 Y149.6093
G1 X12.3577
G3 X11.3577 Y148.6093 I0.0 J-1.0
G1 Y135.6093
G3 X16.044 Y124.2956 I16.0 J0.0
G3 X27.3577 Y119.6093 I11.3137 J11.3137
G1 X28.8577
G3 X29.8577 Y120.6093 I0.0 J1.0
G1 Y129.6093
G1 X32.8577
G1 Y120.6093
G3 X33.8577 Y119.6093 I1.0 J0.0
G1 X64.8577
G3 X65.8577 Y120.6093 I0.0 J1.0
G1 Y129.6093
G1 X68.8577
G1 Y120.6093
G3 X69.8577 Y119.6093 I1.0 J0.0
G1 F20.0 Z-3.0
G1 F200.0 X71.3577
G3 X82.6714 Y124.2956 I0.0 J16.0
G3 X87.3192 Y134.5 I-11.3137 J11.3137
G3 X87.3577 Y135.6093 Z-2.26 I-15.9615 J1.1093
G1 Y136.0 Z-2.0
G1 Y138.0
G1 Y139.5 Z-3.0
G1 Y148.6093
G3 X86.3577 Y149.6093 I-1.0 J0.0
G1 X84.5
G1 X83.0 Z-2.0
G1 X81.0
G1 X79.5 Z-3.0
G1 X77.8577
G1 Y155.6093
G3 X75.2217 Y161.9732 I-9.0 J0.0
G3 X68.8577 Y164.6093 I-6.364 J-6.364
G3 X67.8577 Y163.6093 I0.0 J-1.0
G1 Y149.6093
G1 X64.8577
G1 Y163.6093
G3 X63.8577 Y164.6093 I-1.0 J0.0
G3 X57.4937 Y161.9732 I0.0 J-9.0
G3 X54.8577 Y155.6093 I6.364 J-6.364
G1 Y149.6093
G1 X24.5
G1 X23.0 Z-2.0
G1 X21.0
G1 X19.5 Z-3.0
G1 X12.3577
G3 X11.3577 Y148.6093 I0.0 J-1.0
G1 Y139.5
G1 Y138.0 Z-2.0
G1 Y136.0
G1 Y135.6093 Z-2.2605
G3 X11.3962 Y134.5 Z-3.0 I16.0 J0.0
G3 X16.044 Y124.2956 I15.9615 J1.1093
G3 X27.3577 Y119.6093 I11.3137 J11.3137
G1 X28.8577
G3 X29.8577 Y120.6093 I0.0 J1.0
G1 Y129.6093
G1 X32.8577
G1 Y120.6093
G3 X33.8577 Y119.6093 I1.0 J0.0
G1 X34.5
G1 X36.0 Z-2.0
G1 X38.0
G1 X39.5 Z-3.0
G1 X60.5
G1 X62.0 Z-2.0
G1 X64.0
G1 X64.8577 Z-2.5718
G3 X65.5 Y119.8428 Z-3.0 I0.0 J1.0
G3 X65.8577 Y120.6093 I-0.6423 J0.7665
G1 Y129.6093
G1 X68.8577
G1 Y120.6093
G3 X69.8577 Y119.6093 I1.0 J0.0
G1 F20.0 Z-4.0
G1 F200.0 X71.3577
G3 X82.6714 Y124.2956 I0.0 J16.0
G3 X87.3192 Y134.5 I-11.3137 J11.3137
G3 X87.3577 Y135.6093 Z-2.5201 I-15.9615 J1.1093
G1 Y136.0 Z-2.0
G1 Y138.0
G1 Y139.5 Z-4.0
G1 Y148.6093
G3 X86.3577 Y149.6093 I-1.0 J0.0
G1 X84.5
G1 X83.0 Z-2.0
G1 X81.0
G1 X79.5 Z-4.0
G1 X77.8577
G1 Y155.6093
G3 X75.2217 Y161.9732 I-9.0 J0.0
G3 X68.8577 Y164.6093 I-6.364 J-6.364
G3 X67.8577 Y163.6093 I0.0 J-1.0
G1 Y149.6093
G1 X64.8577
G1 Y163.6093
G3 X63.8577 Y164.6093 I-1.0 J0.0
G3 X57.4937 Y161.9732 I0.0 J-9.0
G3 X54.8577 Y155.6093 I6.364 J-6.364
G1 Y149.6093
G1 X24.5
G1 X23.0 Z-2.0
G1 X21.0
G1 X19.5 Z-4.0
G1 X12.3577
G3 X11.3577 Y148.6093 I0.0 J-1.0
G1 Y139.5
G1 Y138.0 Z-2.0
G1 Y136.0
G1 Y135.6093 Z-2.521
G3 X11.3962 Y134.5 Z-4.0 I16.0 J0.0
G3 X16.044 Y124.2956 I15.9615 J1.1093
G3 X27.3577 Y119.6093 I11.3137 J11.3137
G1 X28.8577
G3 X29.8577 Y120.6093 I0.0 J1.0
G1 Y129.6093
G1 X32.8577
G1 Y120.6093
G3 X33.8577 Y119.6093 I1.0 J0.0
G1 X34.5
G1 X36.0 Z-2.0
G1 X38.0
G1 X39.5 Z-4.0
G1 X60.5
G1 X62.0 Z-2.0
G1 X64.0
G1 X64.8577 Z-3.1436
G3 X65.5 Y119.8428 Z-4.0 I0.0 J1.0
G3 X65.8577 Y120.6093 I-0.6423 J0.7665
G1 Y129.6093
G1 X68.8577
G1 Y120.6093
G3 X69.8577 Y119.6093 I1.0 J0.0
G1 F20.0 Z-5.0
G1 F200.0 X71.3577
G3 X82.6714 Y124.2956 I0.0 J16.0
G3 X87.3192 Y134.5 I-11.3137 J11.3137
G3 X87.3577 Y135.6093 Z-2.7801 I-15.9615 J1.1093
G1 Y136.0 Z-2.0
G1 Y138.0
G1 Y139.5 Z-5.0
G1 Y148.6093
G3 X86.3577 Y149.6093 I-1.0 J0.0
G1 X84.5
G1 X83.0 Z-2.0
G1 X81.0
G1 X79.5 Z-5.0
G1 X77.8577
G1 Y155.6093
G3 X75.2217 Y161.9732 I-9.0 J0.0
G3 X68.8577 Y164.6093 I-6.364 J-6.364
G3 X67.8577 Y163.6093 I0.0 J-1.0
G1 Y149.6093
G1 X64.8577
G1 Y163.6093
G3 X63.8577 Y164.6093 I-1.0 J0.0
G3 X57.4937 Y161.9732 I0.0 J-9.0
G3 X54.8577 Y155.6093 I6.364 J-6.364
G1 Y149.6093
G1 X24.5
G1 X23.0 Z-2.0
G1 X21.0
G1 X19.5 Z-5.0
G1 X12.3577
G3 X11.3577 Y148.6093 I0.0 J-1.0
G1 Y139.5
G1 Y138.0 Z-2.0
G1 Y136.0
G1 Y135.6093 Z-2.7815
G3 X11.3962 Y134.5 Z-5.0 I16.0 J0.0
G3 X16.044 Y124.2956 I15.9615 J1.1093
G3 X27.3577 Y119.6093 I11.3137 J11.3137
G1 X28.8577
G3 X29.8577 Y120.6093 I0.0 J1.0
G1 Y129.6093
G1 X32.8577
G1 Y120.6093
G3 X33.8577 Y119.6093 I1.0 J0.0
G1 X34.5
G1 X36.0 Z-2.0
G1 X38.0
G1 X39.5 Z-5.0
G1 X60.5
G1 X62.0 Z-2.0
G1 X64.0
G1 X64.8577 Z-3.7154
G3 X65.5 Y119.8428 Z-5.0 I0.0 J1.0
G3 X65.8577 Y120.6093 I-0.6423 J0.7665
G1 Y129.6093
G1 X68.8577
G1 Y120.6093
G3 X69.8577 Y119.6093 I1.0 J0.0
G0 F200
( Contour9 )
S1000
G0 Z3.0
G0 X97.5802 Y113.9762
G0 Z1.0
G1 F20.0 Z-1.0
G1 F200.0 X93.5802
G3 X92.5802 Y112.9762 I0.0 J-1.0
G1 Y22.9762
G3 X93.5802 Y21.9762 I1.0 J0.0
G1 X97.5802
G1 Y17.9762
G3 X98.5802 Y16.9762 I1.0 J0.0
G1 X107.5802
G1 Y13.9762
G1 X93.5802
G3 X92.5802 Y12.9762 I0.0 J-1.0
G1 Y7.9762
G3 X93.5802 Y6.9762 I1.0 J0.0
G1 X123.5802
G3 X124.5654 Y8.1475 I0.0 J1.0
G1 X104.5654 Y123.1475
G3 X103.5802 Y123.9762 I-0.9852 J-0.1713
G1 X93.5802
G3 X92.5802 Y122.9762 I0.0 J-1.0
G1 Y117.9762
G3 X93.5802 Y116.9762 I1.0 J0.0
G1 X97.5802
G1 Y113.9762
G1 F20.0 Z-2.0
G1 F200.0 X93.5802
G3 X92.5802 Y112.9762 I0.0 J-1.0
G1 Y22.9762
G3 X93.5802 Y21.9762 I1.0 J0.0
G1 X97.5802
G1 Y17.9762
G3 X98.5802 Y16.9762 I1.0 J0.0
G1 X107.5802
G1 Y13.9762
G1 X93.5802
G3 X92.5802 Y12.9762 I0.0 J-1.0
G1 Y7.9762
G3 X93.5802 Y6.9762 I1.0 J0.0
G1 X123.5802
G3 X124.5654 Y8.1475 I0.0 J1.0
G1 X104.5654 Y123.1475
G3 X103.5802 Y123.9762 I-0.9852 J-0.1713
G1 X93.5802
G3 X92.5802 Y122.9762 I0.0 J-1.0
G1 Y117.9762
G3 X93.5802 Y116.9762 I1.0 J0.0
G1 X97.5802
G1 Y113.9762
G1 F20.0 Z-3.0
G1 F200.0 X93.5802
G3 X92.5802 Y112.9762 I0.0 J-1.0
G1 Y92.5
G1 Y91.0 Z-2.0
G1 Y89.0
G1 Y87.5 Z-3.0
G1 Y35.5
G1 Y34.0 Z-2.0
G1 Y32.0
G1 Y30.5 Z-3.0
G1 Y22.9762
G3 X93.5802 Y21.9762 I1.0 J0.0
G1 X97.5802
G1 Y17.9762
G3 X98.5802 Y16.9762 I1.0 J0.0
G1 X107.5802
G1 Y13.9762
G1 X93.5802
G3 X92.5802 Y12.9762 I0.0 J-1.0
G1 Y7.9762
G3 X93.5802 Y6.9762 I1.0 J0.0
G1 X103.5
G1 X105.0 Z-2.0
G1 X107.0
G1 X108.5 Z-3.0
G1 X123.5802
G3 X124.5654 Y8.1475 I0.0 J1.0
G1 X120.7745 Y29.945
G1 X120.5175 Y31.4228 Z-2.0
G1 X120.1749 Y33.3932
G1 X119.9178 Y34.8711 Z-3.0
G1 X110.5507 Y88.7322
G1 X110.2937 Y90.21 Z-2.0
G1 X109.951 Y92.1804
G1 X109.694 Y93.6582 Z-3.0
G1 X104.5654 Y123.1475
G3 X103.5802 Y123.9762 I-0.9852 J-0.1713
G1 X101.5
G1 X100.0 Z-2.0
G1 X98.0
G1 X96.5 Z-3.0
G1 X93.5802
G3 X92.5802 Y122.9762 I0.0 J-1.0
G1 Y117.9762
G3 X93.5802 Y116.9762 I1.0 J0.0
G1 X97.5802
G1 Y113.9762
G1 F20.0 Z-4.0
G1 F200.0 X93.5802
G3 X92.5802 Y112.9762 I0.0 J-1.0
G1 Y92.5
G1 Y91.0 Z-2.0
G1 Y89.0
G1 Y87.5 Z-4.0
G1 Y35.5
G1 Y34.0 Z-2.0
G1 Y32.0
G1 Y30.5 Z-4.0
G1 Y22.9762
G3 X93.5802 Y21.9762 I1.0 J0.0
G1 X97.5802
G1 Y17.9762
G3 X98.5802 Y16.9762 I1.0 J0.0
G1 X107.5802
G1 Y13.9762
G1 X93.5802
G3 X92.5802 Y12.9762 I0.0 J-1.0
G1 Y7.9762
G3 X93.5802 Y6.9762 I1.0 J0.0
G1 X103.5
G1 X105.0 Z-2.0
G1 X107.0
G1 X108.5 Z-4.0
G1 X123.5802
G3 X124.5654 Y8.1475 I0.0 J1.0
G1 X120.7745 Y29.945
G1 X120.5175 Y31.4228 Z-2.0
G1 X120.1749 Y33.3932
G1 X119.9178 Y34.8711 Z-4.0
G1 X110.5507 Y88.7322
G1 X110.2937 Y90.21 Z-2.0
G1 X109.951 Y92.1804
G1 X109.694 Y93.6582 Z-4.0
G1 X104.5654 Y123.1475
G3 X103.5802 Y123.9762 I-0.9852 J-0.1713
G1 X101.5
G1 X100.0 Z-2.0
G1 X98.0
G1 X96.5 Z-4.0
G1 X93.5802
G3 X92.5802 Y122.9762 I0.0 J-1.0
G1 Y117.9762
G3 X93.5802 Y116.9762 I1.0 J0.0
G1 X97.5802
G1 Y113.9762
G1 F20.0 Z-5.0
G1 F200.0 X93.5802
G3 X92.5802 Y112.9762 I0.0 J-1.0
G1 Y92.5
G1 Y91.0 Z-2.0
G1 Y89.0
G1 Y87.5 Z-5.0
G1 Y35.5
G1 Y34.0 Z-2.0
G1 Y32.0
G1 Y30.5 Z-5.0
G1 Y22.9762
G3 X93.5802 Y21.9762 I1.0 J0.0
G1 X97.5802
G1 Y17.9762
G3 X98.5802 Y16.9762 I1.0 J0.0
G1 X107.5802
G1 Y13.9762
G1 X93.5802
G3 X92.5802 Y12.9762 I0.0 J-1.0
G1 Y7.9762
G3 X93.5802 Y6.9762 I1.0 J0.0
G1 X103.5
G1 X105.0 Z-2.0
G1 X107.0
G1 X108.5 Z-5.0
G1 X123.5802
G3 X124.5654 Y8.1475 I0.0 J1.0
G1 X120.7745 Y29.945
G1 X120.5175 Y31.4228 Z-2.0
G1 X120.1749 Y33.3932
G1 X119.9178 Y34.8711 Z-5.0
G1 X110.5507 Y88.7322
G1 X110.2937 Y90.21 Z-2.0
G1 X109.951 Y92.1804
G1 X109.694 Y93.6582 Z-5.0
G1 X104.5654 Y123.1475
G3 X103.5802 Y123.9762 I-0.9852 J-0.1713
G1 X101.5
G1 X100.0 Z-2.0
G1 X98.0
G1 X96.5 Z-5.0
G1 X93.5802
G3 X92.5802 Y122.9762 I0.0 J-1.0
G1 Y117.9762
G3 X93.5802 Y116.9762 I1.0 J0.0
G1 X97.5802
G1 Y113.9762
G0 F200
( Contour10 )
S1000
G0 Z3.0
G0 X130.3682 Y149.4472
G0 Z1.0
G1 F20.0 Z-1.0
G1 F200.0 Y153.4472
G3 X129.3682 Y154.4472 I-1.0 J0.0
G1 X120.3682
G1 Y157.4472
G1 X134.3682
G3 X135.3682 Y158.4472 I0.0 J1.0
G1 Y163.4472
G3 X134.3682 Y164.4472 I-1.0 J0.0
G1 X104.3682
G3 X103.383 Y163.2758 I0.0 J-1.0
G1 X123.383 Y48.2758
G3 X124.3682 Y47.4472 I0.9852 J0.1713
G1 X134.3682
G3 X135.3682 Y48.4472 I0.0 J1.0
G1 Y53.4472
G3 X134.3682 Y54.4472 I-1.0 J0.0
G1 X130.3682
G1 Y57.4472
G1 X134.3682
G3 X135.3682 Y58.4472 I0.0 J1.0
G1 Y148.4472
G3 X134.3682 Y149.4472 I-1.0 J0.0
G1 X130.3682
G1 F20.0 Z-2.0
G1 F200.0 Y153.4472
G3 X129.3682 Y154.4472 I-1.0 J0.0
G1 X120.3682
G1 Y157.4472
G1 X134.3682
G3 X135.3682 Y158.4472 I0.0 J1.0
G1 Y163.4472
G3 X134.3682 Y164.4472 I-1.0 J0.0
G1 X104.3682
G3 X103.383 Y163.2758 I0.0 J-1.0
G1 X123.383 Y48.2758
G3 X124.3682 Y47.4472 I0.9852 J0.1713
G1 X134.3682
G3 X135.3682 Y48.4472 I0.0 J1.0
G1 Y53.4472
G3 X134.3682 Y54.4472 I-1.0 J0.0
G1 X130.3682
G1 Y57.4472
G1 X134.3682
G3 X135.3682 Y58.4472 I0.0 J1.0
G1 Y148.4472
G3 X134.3682 Y149.4472 I-1.0 J0.0
G1 X130.3682
G1 F20.0 Z-3.0
G1 F200.0 Y153.4472
G3 X129.3682 Y154.4472 I-1.0 J0.0
G1 X120.3682
G1 Y157.4472
G1 X134.3682
G3 X135.3682 Y158.4472 I0.0 J1.0
G1 Y163.4472
G3 X134.3682 Y164.4472 I-1.0 J0.0
G1 X124.5
G1 X123.0 Z-2.0
G1 X121.0
G1 X119.5 Z-3.0
G1 X104.3682
G3 X103.383 Y163.2758 I0.0 J-1.0
G1 X108.179 Y135.6991
G1 X108.436 Y134.2213 Z-2.0
G1 X108.7787 Y132.2508
G1 X109.0357 Y130.773 Z-3.0
G1 X118.3147 Y77.4184
G1 X118.5718 Y75.9405 Z-2.0
G1 X118.9144 Y73.9701
G1 X119.1715 Y72.4923 Z-3.0
G1 X123.383 Y48.2758
G3 X124.3682 Y47.4472 I0.9852 J0.1713
G1 X126.5
G1 X128.0 Z-2.0
G1 X130.0
G1 X131.5 Z-3.0
G1 X134.3682
G3 X135.3682 Y48.4472 I0.0 J1.0
G1 Y53.4472
G3 X134.3682 Y54.4472 I-1.0 J0.0
G1 X130.3682
G1 Y57.4472
G1 X134.3682
G3 X135.3682 Y58.4472 I0.0 J1.0
G1 Y73.5
G1 Y75.0 Z-2.0
G1 Y77.0
G1 Y78.5 Z-3.0
G1 Y129.5
G1 Y131.0 Z-2.0
G1 Y133.0
G1 Y134.5 Z-3.0
G1 Y148.4472
G3 X134.3682 Y149.4472 I-1.0 J0.0
G1 X130.3682
G1 F20.0 Z-4.0
G1 F200.0 Y153.4472
G3 X129.3682 Y154.4472 I-1.0 J0.0
G1 X120.3682
G1 Y157.4472
G1 X134.3682
G3 X135.3682 Y158.4472 I0.0 J1.0
G1 Y163.4472
G3 X134.3682 Y164.4472 I-1.0 J0.0
G1 X124.5
G1 X123.0 Z-2.0
G1 X121.0
G1 X119.5 Z-4.0
G1 X104.3682
G3 X103.383 Y163.2758 I0.0 J-1.0
G1 X108.179 Y135.6991
G1 X108.436 Y134.2213 Z-2.0
G1 X108.7787 Y132.2508
G1 X109.0357 Y130.773 Z-4.0
G1 X118.3147 Y77.4184
G1 X118.5718 Y75.9405 Z-2.0
G1 X118.9144 Y73.9701
G1 X119.1715 Y72.4923 Z-4.0
G1 X123.383 Y48.2758
G3 X124.3682 Y47.4472 I0.9852 J0.1713
G1 X126.5
G1 X128.0 Z-2.0
G1 X130.0
G1 X131.5 Z-4.0
G1 X134.3682
G3 X135.3682 Y48.4472 I0.0 J1.0
G1 Y53.4472
G3 X134.3682 Y54.4472 I-1.0 J0.0
G1 X130.3682
G1 Y57.4472
G1 X134.3682
G3 X135.3682 Y58.4472 I0.0 J1.0
G1 Y73.5
G1 Y75.0 Z-2.0
G1 Y77.0
G1 Y78.5 Z-4.0
G1 Y129.5
G1 Y131.0 Z-2.0
G1 Y133.0
G1 Y134.5 Z-4.0
G1 Y148.4472
G3 X134.3682 Y149.4472 I-1.0 J0.0
G1 X130.3682
G1 F20.0 Z-5.0
G1 F200.0 Y153.4472
G3 X129.3682 Y154.4472 I-1.0 J0.0
G1 X120.3682
G1 Y157.4472
G1 X134.3682
G3 X135.3682 Y158.4472 I0.0 J1.0
G1 Y163.4472
G3 X134.3682 Y164.4472 I-1.0 J0.0
G1 X124.5
G1 X123.0 Z-2.0
G1 X121.0
G1 X119.5 Z-5.0
G1 X104.3682
G3 X103.383 Y163.2758 I0.0 J-1.0
G1 X108.179 Y135.6991
G1 X108.436 Y134.2213 Z-2.0
G1 X108.7787 Y132.2508
G1 X109.0357 Y130.773 Z-5.0
G1 X118.3147 Y77.4184
G1 X118.5718 Y75.9405 Z-2.0
G1 X118.9144 Y73.9701
G1 X119.1715 Y72.4923 Z-5.0
G1 X123.383 Y48.2758
G3 X124.3682 Y47.4472 I0.9852 J0.1713
G1 X126.5
G1 X128.0 Z-2.0
G1 X130.0
G1 X131.5 Z-5.0
G1 X134.3682
G3 X135.3682 Y48.4472 I0.0 J1.0
G1 Y53.4472
G3 X134.3682 Y54.4472 I-1.0 J0.0
G1 X130.3682
G1 Y57.4472
G1 X134.3682
G3 X135.3682 Y58.4472 I0.0 J1.0
G1 Y73.5
G1 Y75.0 Z-2.0
G1 Y77.0
G1 Y78.5 Z-5.0
G1 Y129.5
G1 Y131.0 Z-2.0
G1 Y133.0
G1 Y134.5 Z-5.0
G1 Y148.4472
G3 X134.3682 Y149.4472 I-1.0 J0.0
G1 X130.3682
G0 F200
G0 Z3.0
M5
M30
