( Made using CamBam - http://www.cambam.co.uk )
( FreinBois 6/10/2019 8:02:40 PM )
( T0 : 2.0 )
G21 G90 G64 G40
G0 Z3.0
( T0 : 2.0 )
T0 M6
( Contour1 )
G17
M3 S1000
G0 X39.7705 Y9.9073
G0 Z1.0
G1 F20.0 Z-1.0
G2 F150.0 X39.2705 Y9.0412 I-1.0 J0.0
G2 X38.2705 I-0.5 J0.866
G2 X37.7705 Y9.9073 I0.5 J0.866
G2 X38.2705 Y10.7733 I1.0 J0.0
G2 X39.2705 I0.5 J-0.866
G2 X39.7705 Y9.9073 I-0.5 J-0.866
G1 F20.0 Z-2.0
G2 F150.0 X39.2705 Y9.0412 I-1.0 J0.0
G2 X38.2705 I-0.5 J0.866
G2 X37.7705 Y9.9073 I0.5 J0.866
G2 X38.2705 Y10.7733 I1.0 J0.0
G2 X39.2705 I0.5 J-0.866
G2 X39.7705 Y9.9073 I-0.5 J-0.866
G1 F20.0 Z-3.0
G2 F150.0 X39.2705 Y9.0412 I-1.0 J0.0
G2 X38.2705 I-0.5 J0.866
G2 X37.7705 Y9.9073 I0.5 J0.866
G2 X38.2705 Y10.7733 I1.0 J0.0
G2 X39.2705 I0.5 J-0.866
G2 X39.7705 Y9.9073 I-0.5 J-0.866
G1 F20.0 Z-4.0
G2 F150.0 X39.2705 Y9.0412 I-1.0 J0.0
G2 X38.2705 I-0.5 J0.866
G2 X37.7705 Y9.9073 I0.5 J0.866
G2 X38.2705 Y10.7733 I1.0 J0.0
G2 X39.2705 I0.5 J-0.866
G2 X39.7705 Y9.9073 I-0.5 J-0.866
G1 F20.0 Z-5.0
G2 F150.0 X39.2705 Y9.0412 I-1.0 J0.0
G2 X38.2705 I-0.5 J0.866
G2 X37.7705 Y9.9073 I0.5 J0.866
G2 X38.2705 Y10.7733 I1.0 J0.0
G2 X39.2705 I0.5 J-0.866
G2 X39.7705 Y9.9073 I-0.5 J-0.866
G0 F200
( Contour2 )
S1000
G0 Z3.0
G0 X27.4881 Y13.5782
G0 Z1.0
G1 F20.0 Z-1.0
G3 F150.0 X31.3406 Y6.6558 I11.2651 J1.7362
G3 X38.771 Y3.9073 I7.4205 J8.6425
G3 X43.0782 Y5.7307 I-0.0005 J6.0
G3 X44.7676 Y10.0927 I-4.3077 J4.1766
G1 X43.0685 Y65.0355
G1 Y65.0356
G1 Y65.0355
G3 X38.8563 Y69.0568 I-4.148 J-0.1283
G3 X34.7705 Y64.9072 I0.0642 J-4.1495
G1 Y44.9072
G2 X33.5989 Y42.0788 I-4.0 J0.0
G2 X30.7705 Y40.9072 I-2.8284 J2.8284
G1 X20.7705
G3 X18.6492 Y40.0286 I0.0 J-3.0
G3 X17.7705 Y37.9072 I2.1213 J-2.1213
G1 Y30.8834
G3 X18.8816 Y28.5528 I3.0 J0.0
G1 Y28.5527
G2 X27.4881 Y13.5782 I-15.111 J-18.6455
G1 F20.0 Z-2.0
G3 F150.0 X31.3406 Y6.6558 I11.2651 J1.7362
G3 X38.771 Y3.9073 I7.4205 J8.6425
G3 X43.0782 Y5.7307 I-0.0005 J6.0
G3 X44.7676 Y10.0927 I-4.3077 J4.1766
G1 X43.0685 Y65.0355
G1 Y65.0356
G1 Y65.0355
G3 X38.8563 Y69.0568 I-4.148 J-0.1283
G3 X34.7705 Y64.9072 I0.0642 J-4.1495
G1 Y44.9072
G2 X33.5989 Y42.0788 I-4.0 J0.0
G2 X30.7705 Y40.9072 I-2.8284 J2.8284
G1 X20.7705
G3 X18.6492 Y40.0286 I0.0 J-3.0
G3 X17.7705 Y37.9072 I2.1213 J-2.1213
G1 Y30.8834
G3 X18.8816 Y28.5528 I3.0 J0.0
G1 Y28.5527
G2 X27.4881 Y13.5782 I-15.111 J-18.6455
G1 F20.0 Z-3.0
G3 F150.0 X31.3406 Y6.6558 I11.2651 J1.7362
G3 X38.771 Y3.9073 I7.4205 J8.6425
G3 X43.0782 Y5.7307 I-0.0005 J6.0
G3 X44.7676 Y10.0927 I-4.3077 J4.1766
G1 X44.5999 Y15.5174
G1 X44.5535 Y17.0166 Z-2.0
G1 X44.4917 Y19.0157
G1 X44.4453 Y20.515 Z-3.0
G1 X43.2695 Y58.5381
G1 X43.2231 Y60.0373 Z-2.0
G1 X43.1613 Y62.0364
G1 X43.1149 Y63.5357 Z-3.0
G1 X43.0685 Y65.0355
G1 Y65.0356
G1 Y65.0355
G3 X38.8563 Y69.0568 I-4.148 J-0.1283
G3 X34.7705 Y64.9072 I0.0642 J-4.1495
G1 Y44.9072
G2 X33.5989 Y42.0788 I-4.0 J0.0
G2 X30.7705 Y40.9072 I-2.8284 J2.8284
G1 X20.7705
G3 X18.6492 Y40.0286 I0.0 J-3.0
G3 X17.7705 Y37.9072 I2.1213 J-2.1213
G1 Y37.5
G1 Y36.0 Z-2.0
G1 Y34.0
G1 Y32.5 Z-3.0
G1 Y30.8834
G3 X18.8816 Y28.5528 I3.0 J0.0
G1 Y28.5527
G2 X27.4881 Y13.5782 I-15.111 J-18.6455
G1 F20.0 Z-4.0
G3 F150.0 X31.3406 Y6.6558 I11.2651 J1.7362
G3 X38.771 Y3.9073 I7.4205 J8.6425
G3 X43.0782 Y5.7307 I-0.0005 J6.0
G3 X44.7676 Y10.0927 I-4.3077 J4.1766
G1 X44.5999 Y15.5174
G1 X44.5535 Y17.0166 Z-2.0
G1 X44.4917 Y19.0157
G1 X44.4453 Y20.515 Z-4.0
G1 X43.2695 Y58.5381
G1 X43.2231 Y60.0373 Z-2.0
G1 X43.1613 Y62.0364
G1 X43.1149 Y63.5357 Z-4.0
G1 X43.0685 Y65.0355
G1 Y65.0356
G1 Y65.0355
G3 X38.8563 Y69.0568 I-4.148 J-0.1283
G3 X34.7705 Y64.9072 I0.0642 J-4.1495
G1 Y44.9072
G2 X33.5989 Y42.0788 I-4.0 J0.0
G2 X30.7705 Y40.9072 I-2.8284 J2.8284
G1 X20.7705
G3 X18.6492 Y40.0286 I0.0 J-3.0
G3 X17.7705 Y37.9072 I2.1213 J-2.1213
G1 Y37.5
G1 Y36.0 Z-2.0
G1 Y34.0
G1 Y32.5 Z-4.0
G1 Y30.8834
G3 X18.8816 Y28.5528 I3.0 J0.0
G1 Y28.5527
G2 X27.4881 Y13.5782 I-15.111 J-18.6455
G1 F20.0 Z-5.0
G3 F150.0 X31.3406 Y6.6558 I11.2651 J1.7362
G3 X38.771 Y3.9073 I7.4205 J8.6425
G3 X43.0782 Y5.7307 I-0.0005 J6.0
G3 X44.7676 Y10.0927 I-4.3077 J4.1766
G1 X44.5999 Y15.5174
G1 X44.5535 Y17.0166 Z-2.0
G1 X44.4917 Y19.0157
G1 X44.4453 Y20.515 Z-5.0
G1 X43.2695 Y58.5381
G1 X43.2231 Y60.0373 Z-2.0
G1 X43.1613 Y62.0364
G1 X43.1149 Y63.5357 Z-5.0
G1 X43.0685 Y65.0355
G1 Y65.0356
G1 Y65.0355
G3 X38.8563 Y69.0568 I-4.148 J-0.1283
G3 X34.7705 Y64.9072 I0.0642 J-4.1495
G1 Y44.9072
G2 X33.5989 Y42.0788 I-4.0 J0.0
G2 X30.7705 Y40.9072 I-2.8284 J2.8284
G1 X20.7705
G3 X18.6492 Y40.0286 I0.0 J-3.0
G3 X17.7705 Y37.9072 I2.1213 J-2.1213
G1 Y37.5
G1 Y36.0 Z-2.0
G1 Y34.0
G1 Y32.5 Z-5.0
G1 Y30.8834
G3 X18.8816 Y28.5528 I3.0 J0.0
G1 Y28.5527
G2 X27.4881 Y13.5782 I-15.111 J-18.6455
G0 F200
( Contour3 )
S1000
G0 Z3.0
G0 X10.308 Y75.6884
G0 Z1.0
G1 F20.0 Z-1.0
G2 F150.0 X9.808 Y76.5544 I0.5 J0.866
G2 X10.308 Y77.4204 I1.0 J0.0
G2 X11.308 I0.5 J-0.866
G2 X11.808 Y76.5544 I-0.5 J-0.866
G2 X11.308 Y75.6884 I-1.0 J0.0
G2 X10.308 I-0.5 J0.866
G1 F20.0 Z-2.0
G2 F150.0 X9.808 Y76.5544 I0.5 J0.866
G2 X10.308 Y77.4204 I1.0 J0.0
G2 X11.308 I0.5 J-0.866
G2 X11.808 Y76.5544 I-0.5 J-0.866
G2 X11.308 Y75.6884 I-1.0 J0.0
G2 X10.308 I-0.5 J0.866
G1 F20.0 Z-3.0
G2 F150.0 X9.808 Y76.5544 I0.5 J0.866
G2 X10.308 Y77.4204 I1.0 J0.0
G2 X11.308 I0.5 J-0.866
G2 X11.808 Y76.5544 I-0.5 J-0.866
G2 X11.308 Y75.6884 I-1.0 J0.0
G2 X10.308 I-0.5 J0.866
G1 F20.0 Z-4.0
G2 F150.0 X9.808 Y76.5544 I0.5 J0.866
G2 X10.308 Y77.4204 I1.0 J0.0
G2 X11.308 I0.5 J-0.866
G2 X11.808 Y76.5544 I-0.5 J-0.866
G2 X11.308 Y75.6884 I-1.0 J0.0
G2 X10.308 I-0.5 J0.866
G1 F20.0 Z-5.0
G2 F150.0 X9.808 Y76.5544 I0.5 J0.866
G2 X10.308 Y77.4204 I1.0 J0.0
G2 X11.308 I0.5 J-0.866
G2 X11.808 Y76.5544 I-0.5 J-0.866
G2 X11.308 Y75.6884 I-1.0 J0.0
G2 X10.308 I-0.5 J0.866
G0 F200
( Contour4 )
S1000
G0 Z3.0
G0 X22.0904 Y72.8835
G0 Z1.0
G1 F20.0 Z-1.0
G3 F150.0 X18.2379 Y79.8058 I-11.2651 J-1.7362
G3 X10.8075 Y82.5544 I-7.4205 J-8.6425
G3 X6.5003 Y80.731 I0.0005 J-6.0
G3 X4.8109 Y76.369 I4.3077 J-4.1766
G1 X6.51 Y21.4261
G3 X10.7222 Y17.4049 I4.148 J0.1283
G3 X14.808 Y21.5545 I-0.0642 J4.1495
G1 Y41.5545
G1 Y41.5544
G2 X15.9796 Y44.3829 I4.0 J0.0
G2 X18.808 Y45.5545 I2.8284 J-2.8284
G1 X28.808
G3 X30.9293 Y46.4331 I0.0 J3.0
G3 X31.808 Y48.5544 I-2.1213 J2.1213
G1 Y48.5545
G1 Y55.5783
G3 X30.6969 Y57.9089 I-3.0 J0.0
G2 X22.0904 Y72.8835 I15.111 J18.6455
G1 F20.0 Z-2.0
G3 F150.0 X18.2379 Y79.8058 I-11.2651 J-1.7362
G3 X10.8075 Y82.5544 I-7.4205 J-8.6425
G3 X6.5003 Y80.731 I0.0005 J-6.0
G3 X4.8109 Y76.369 I4.3077 J-4.1766
G1 X6.51 Y21.4261
G3 X10.7222 Y17.4049 I4.148 J0.1283
G3 X14.808 Y21.5545 I-0.0642 J4.1495
G1 Y41.5545
G1 Y41.5544
G2 X15.9796 Y44.3829 I4.0 J0.0
G2 X18.808 Y45.5545 I2.8284 J-2.8284
G1 X28.808
G3 X30.9293 Y46.4331 I0.0 J3.0
G3 X31.808 Y48.5544 I-2.1213 J2.1213
G1 Y48.5545
G1 Y55.5783
G3 X30.6969 Y57.9089 I-3.0 J0.0
G2 X22.0904 Y72.8835 I15.111 J18.6455
G1 F20.0 Z-3.0
G3 F150.0 X18.2379 Y79.8058 I-11.2651 J-1.7362
G3 X10.8075 Y82.5544 I-7.4205 J-8.6425
G3 X6.5003 Y80.731 I0.0005 J-6.0
G3 X4.8109 Y76.369 I4.3077 J-4.1766
G1 X4.9614 Y71.5
G1 X5.0078 Y70.0007 Z-2.0
G1 X5.0696 Y68.0017
G1 X5.116 Y66.5024 Z-3.0
G1 X6.2011 Y31.4146
G1 X6.2474 Y29.9154 Z-2.0
G1 X6.3093 Y27.9163
G1 X6.3556 Y26.417 Z-3.0
G1 X6.51 Y21.4261
G3 X10.7222 Y17.4049 I4.148 J0.1283
G3 X14.808 Y21.5545 I-0.0642 J4.1495
G1 Y41.5545
G1 Y41.5544
G2 X15.9796 Y44.3829 I4.0 J0.0
G2 X18.808 Y45.5545 I2.8284 J-2.8284
G1 X28.808
G3 X30.9293 Y46.4331 I0.0 J3.0
G3 X31.808 Y48.5544 I-2.1213 J2.1213
G1 Y48.5545
G1 Y50.5
G1 Y52.0 Z-2.0
G1 Y54.0
G1 Y55.5 Z-3.0
G1 Y55.5783
G3 X30.6969 Y57.9089 I-3.0 J0.0
G2 X22.0904 Y72.8835 I15.111 J18.6455
G1 F20.0 Z-4.0
G3 F150.0 X18.2379 Y79.8058 I-11.2651 J-1.7362
G3 X10.8075 Y82.5544 I-7.4205 J-8.6425
G3 X6.5003 Y80.731 I0.0005 J-6.0
G3 X4.8109 Y76.369 I4.3077 J-4.1766
G1 X4.9614 Y71.5
G1 X5.0078 Y70.0007 Z-2.0
G1 X5.0696 Y68.0017
G1 X5.116 Y66.5024 Z-4.0
G1 X6.2011 Y31.4146
G1 X6.2474 Y29.9154 Z-2.0
G1 X6.3093 Y27.9163
G1 X6.3556 Y26.417 Z-4.0
G1 X6.51 Y21.4261
G3 X10.7222 Y17.4049 I4.148 J0.1283
G3 X14.808 Y21.5545 I-0.0642 J4.1495
G1 Y41.5545
G1 Y41.5544
G2 X15.9796 Y44.3829 I4.0 J0.0
G2 X18.808 Y45.5545 I2.8284 J-2.8284
G1 X28.808
G3 X30.9293 Y46.4331 I0.0 J3.0
G3 X31.808 Y48.5544 I-2.1213 J2.1213
G1 Y48.5545
G1 Y50.5
G1 Y52.0 Z-2.0
G1 Y54.0
G1 Y55.5 Z-4.0
G1 Y55.5783
G3 X30.6969 Y57.9089 I-3.0 J0.0
G2 X22.0904 Y72.8835 I15.111 J18.6455
G1 F20.0 Z-5.0
G3 F150.0 X18.2379 Y79.8058 I-11.2651 J-1.7362
G3 X10.8075 Y82.5544 I-7.4205 J-8.6425
G3 X6.5003 Y80.731 I0.0005 J-6.0
G3 X4.8109 Y76.369 I4.3077 J-4.1766
G1 X4.9614 Y71.5
G1 X5.0078 Y70.0007 Z-2.0
G1 X5.0696 Y68.0017
G1 X5.116 Y66.5024 Z-5.0
G1 X6.2011 Y31.4146
G1 X6.2474 Y29.9154 Z-2.0
G1 X6.3093 Y27.9163
G1 X6.3556 Y26.417 Z-5.0
G1 X6.51 Y21.4261
G3 X10.7222 Y17.4049 I4.148 J0.1283
G3 X14.808 Y21.5545 I-0.0642 J4.1495
G1 Y41.5545
G1 Y41.5544
G2 X15.9796 Y44.3829 I4.0 J0.0
G2 X18.808 Y45.5545 I2.8284 J-2.8284
G1 X28.808
G3 X30.9293 Y46.4331 I0.0 J3.0
G3 X31.808 Y48.5544 I-2.1213 J2.1213
G1 Y48.5545
G1 Y50.5
G1 Y52.0 Z-2.0
G1 Y54.0
G1 Y55.5 Z-5.0
G1 Y55.5783
G3 X30.6969 Y57.9089 I-3.0 J0.0
G2 X22.0904 Y72.8835 I15.111 J18.6455
G0 F200
G0 Z3.0
M5
M30
