( Made using CamBam - http://www.cambam.co.uk )
( FreinCommande 6/23/2019 1:36:49 PM )
( T0 : 1.0 )
G21 G90 G64 G40
G0 Z3.0
( T0 : 1.0 )
T0 M6
( Contour1 )
G17
M3 S1000
G0 X8.9325 Y8.0248
G0 Z1.0
G1 F10.0 Z-0.5
G2 F50.0 X7.6335 Y8.7748 I0.0 J1.5
G2 Y10.2748 I1.299 J0.75
G2 X8.9325 Y11.0248 I1.299 J-0.75
G2 X10.2315 Y10.2748 I0.0 J-1.5
G2 Y8.7748 I-1.299 J-0.75
G2 X8.9325 Y8.0248 I-1.299 J0.75
G1 F10.0 Z-1.0
G2 F50.0 X7.6335 Y8.7748 I0.0 J1.5
G2 Y10.2748 I1.299 J0.75
G2 X8.9325 Y11.0248 I1.299 J-0.75
G2 X10.2315 Y10.2748 I0.0 J-1.5
G2 Y8.7748 I-1.299 J-0.75
G2 X8.9325 Y8.0248 I-1.299 J0.75
G1 F10.0 Z-1.5
G2 F50.0 X7.6335 Y8.7748 I0.0 J1.5
G2 Y10.2748 I1.299 J0.75
G2 X8.9325 Y11.0248 I1.299 J-0.75
G2 X10.2315 Y10.2748 I0.0 J-1.5
G2 Y8.7748 I-1.299 J-0.75
G2 X8.9325 Y8.0248 I-1.299 J0.75
G1 F10.0 Z-1.6
G2 F50.0 X7.6335 Y8.7748 I0.0 J1.5
G2 Y10.2748 I1.299 J0.75
G2 X8.9325 Y11.0248 I1.299 J-0.75
G2 X10.2315 Y10.2748 I0.0 J-1.5
G2 Y8.7748 I-1.299 J-0.75
G2 X8.9325 Y8.0248 I-1.299 J0.75
G0 F200
( Perçage1 )
S1000
G0 Z3.0
G0 X12.5832 Y37.5246
G0 Z3.0
G0 X12.7832 Y37.5246
G0 Z1.0
G1 F10.0 Z0.0
G2 F50.0 X12.4832 Y37.3514 Z-0.1667 I-0.2 J0.0
G2 Y37.6978 Z-0.3333 I0.1 J0.1732
G2 X12.7832 Y37.5246 Z-0.5 I0.1 J-0.1732
G2 X12.4832 Y37.3514 Z-0.6667 I-0.2 J0.0
G2 Y37.6978 Z-0.8333 I0.1 J0.1732
G2 X12.7832 Y37.5246 Z-1.0 I0.1 J-0.1732
G2 X12.4832 Y37.3514 Z-1.1667 I-0.2 J0.0
G2 Y37.6978 Z-1.3333 I0.1 J0.1732
G2 X12.7832 Y37.5246 Z-1.5 I0.1 J-0.1732
G2 X12.645 Y37.3344 Z-1.6 I-0.2 J0.0
G2 X12.3876 Y37.5662 I-0.0618 J0.1902
G2 X12.717 Y37.6732 I0.1956 J-0.0416
G2 X12.645 Y37.3344 I-0.1338 J-0.1486
G0 F200
( Contour2 )
S1000
G0 Z3.0
G0 X76.2842 Y38.2746
G0 Z1.0
G1 F10.0 Z-0.5
G2 F50.0 X77.5832 Y39.0246 I1.299 J-0.75
G2 X78.8822 Y38.2746 I0.0 J-1.5
G2 Y36.7746 I-1.299 J-0.75
G2 X77.5832 Y36.0246 I-1.299 J0.75
G2 X76.2842 Y36.7746 I0.0 J1.5
G2 Y38.2746 I1.299 J0.75
G1 F10.0 Z-1.0
G2 F50.0 X77.5832 Y39.0246 I1.299 J-0.75
G2 X78.8822 Y38.2746 I0.0 J-1.5
G2 Y36.7746 I-1.299 J-0.75
G2 X77.5832 Y36.0246 I-1.299 J0.75
G2 X76.2842 Y36.7746 I0.0 J1.5
G2 Y38.2746 I1.299 J0.75
G1 F10.0 Z-1.5
G2 F50.0 X77.5832 Y39.0246 I1.299 J-0.75
G2 X78.8822 Y38.2746 I0.0 J-1.5
G2 Y36.7746 I-1.299 J-0.75
G2 X77.5832 Y36.0246 I-1.299 J0.75
G2 X76.2842 Y36.7746 I0.0 J1.5
G2 Y38.2746 I1.299 J0.75
G1 F10.0 Z-1.6
G2 F50.0 X77.5832 Y39.0246 I1.299 J-0.75
G2 X78.8822 Y38.2746 I0.0 J-1.5
G2 Y36.7746 I-1.299 J-0.75
G2 X77.5832 Y36.0246 I-1.299 J0.75
G2 X76.2842 Y36.7746 I0.0 J1.5
G2 Y38.2746 I1.299 J0.75
G0 F200
( Perçage2 )
S1000
G0 Z3.0
G0 X73.9325 Y9.5248
G0 Z3.0
G0 X74.1325 Y9.5248
G0 Z1.0
G1 F20.0 Z0.0
G2 F150.0 X73.8325 Y9.3516 Z-0.1667 I-0.2 J0.0
G2 Y9.698 Z-0.3333 I0.1 J0.1732
G2 X74.1325 Y9.5248 Z-0.5 I0.1 J-0.1732
G2 X73.8325 Y9.3516 Z-0.6667 I-0.2 J0.0
G2 Y9.698 Z-0.8333 I0.1 J0.1732
G2 X74.1325 Y9.5248 Z-1.0 I0.1 J-0.1732
G2 X73.8325 Y9.3516 Z-1.1667 I-0.2 J0.0
G2 Y9.698 Z-1.3333 I0.1 J0.1732
G2 X74.1325 Y9.5248 Z-1.5 I0.1 J-0.1732
G2 X73.9943 Y9.3345 Z-1.6 I-0.2 J0.0
G2 X73.7369 Y9.5663 I-0.0618 J0.1902
G2 X74.0663 Y9.6734 I0.1956 J-0.0416
G2 X73.9943 Y9.3345 I-0.1338 J-0.1486
G0 F200
( Contour3 )
S1000
G0 Z3.0
G0 X73.0 Y13.0248
G0 Z1.0
G1 F10.0 Z-0.5
G1 F50.0 X72.0
G1 X70.5 Z1.4
G1 X69.5
G1 X68.0 Z-0.5
G1 X43.9325
G2 X40.7505 Y14.3428 I0.0 J4.5
G2 X39.4325 Y17.5248 I3.182 J3.182
G1 Y27.5248
G3 X38.7003 Y29.2925 I-2.5 J0.0
G3 X36.9325 Y30.0248 I-1.7678 J-1.7678
G1 X35.0
G1 X33.5 Z1.4
G1 X32.5
G1 X31.0 Z-0.5
G1 X29.9087
G3 X27.9665 Y29.0989 I0.0 J-2.5
G2 X12.6798 Y20.313 I-19.034 J15.4259
G3 X6.0606 Y16.6292 I1.6562 J-10.7645
G3 X3.4325 Y9.5246 I8.27 J-7.0976
G3 X5.1037 Y5.5763 I5.5 J0.0002
G3 X9.1017 Y4.0274 I3.8288 J3.9485
G1 X11.0272 Y4.0866
G1 X12.5265 Y4.1328 Z1.4
G1 X13.526 Y4.1636
G1 X15.0253 Y4.2097 Z-0.5
G1 X68.0347 Y5.8415
G1 X69.534 Y5.8877 Z1.4
G1 X70.5335 Y5.9185
G1 X72.0328 Y5.9646 Z-0.5
G1 X74.0402 Y6.0264
G3 X77.4321 Y9.5786 I-0.1077 J3.4983
G3 X73.9325 Y13.0248 I-3.4996 J-0.0538
G1 X73.0
G1 F10.0 Z-1.0
G1 F50.0 X72.0
G1 X70.5 Z1.4
G1 X69.5
G1 X68.0 Z-1.0
G1 X43.9325
G2 X40.7505 Y14.3428 I0.0 J4.5
G2 X39.4325 Y17.5248 I3.182 J3.182
G1 Y27.5248
G3 X38.7003 Y29.2925 I-2.5 J0.0
G3 X36.9325 Y30.0248 I-1.7678 J-1.7678
G1 X35.0
G1 X33.5 Z1.4
G1 X32.5
G1 X31.0 Z-1.0
G1 X29.9087
G3 X27.9665 Y29.0989 I0.0 J-2.5
G2 X12.6798 Y20.313 I-19.034 J15.4259
G3 X6.0606 Y16.6292 I1.6562 J-10.7645
G3 X3.4325 Y9.5246 I8.27 J-7.0976
G3 X5.1037 Y5.5763 I5.5 J0.0002
G3 X9.1017 Y4.0274 I3.8288 J3.9485
G1 X11.0272 Y4.0866
G1 X12.5265 Y4.1328 Z1.4
G1 X13.526 Y4.1636
G1 X15.0253 Y4.2097 Z-1.0
G1 X68.0347 Y5.8415
G1 X69.534 Y5.8877 Z1.4
G1 X70.5335 Y5.9185
G1 X72.0328 Y5.9646 Z-1.0
G1 X74.0402 Y6.0264
G3 X77.4321 Y9.5786 I-0.1077 J3.4983
G3 X73.9325 Y13.0248 I-3.4996 J-0.0538
G1 X73.0
G1 F10.0 Z-1.5
G1 F50.0 X72.0
G1 X70.5 Z1.4
G1 X69.5
G1 X68.0 Z-1.5
G1 X43.9325
G2 X40.7505 Y14.3428 I0.0 J4.5
G2 X39.4325 Y17.5248 I3.182 J3.182
G1 Y27.5248
G3 X38.7003 Y29.2925 I-2.5 J0.0
G3 X36.9325 Y30.0248 I-1.7678 J-1.7678
G1 X35.0
G1 X33.5 Z1.4
G1 X32.5
G1 X31.0 Z-1.5
G1 X29.9087
G3 X27.9665 Y29.0989 I0.0 J-2.5
G2 X12.6798 Y20.313 I-19.034 J15.4259
G3 X6.0606 Y16.6292 I1.6562 J-10.7645
G3 X3.4325 Y9.5246 I8.27 J-7.0976
G3 X5.1037 Y5.5763 I5.5 J0.0002
G3 X9.1017 Y4.0274 I3.8288 J3.9485
G1 X11.0272 Y4.0866
G1 X12.5265 Y4.1328 Z1.4
G1 X13.526 Y4.1636
G1 X15.0253 Y4.2097 Z-1.5
G1 X68.0347 Y5.8415
G1 X69.534 Y5.8877 Z1.4
G1 X70.5335 Y5.9185
G1 X72.0328 Y5.9646 Z-1.5
G1 X74.0402 Y6.0264
G3 X77.4321 Y9.5786 I-0.1077 J3.4983
G3 X73.9325 Y13.0248 I-3.4996 J-0.0538
G1 X73.0
G1 F10.0 Z-1.6
G1 F50.0 X72.0
G1 X70.5 Z1.4
G1 X69.5
G1 X68.0 Z-1.6
G1 X43.9325
G2 X40.7505 Y14.3428 I0.0 J4.5
G2 X39.4325 Y17.5248 I3.182 J3.182
G1 Y27.5248
G3 X38.7003 Y29.2925 I-2.5 J0.0
G3 X36.9325 Y30.0248 I-1.7678 J-1.7678
G1 X35.0
G1 X33.5 Z1.4
G1 X32.5
G1 X31.0 Z-1.6
G1 X29.9087
G3 X27.9665 Y29.0989 I0.0 J-2.5
G2 X12.6798 Y20.313 I-19.034 J15.4259
G3 X6.0606 Y16.6292 I1.6562 J-10.7645
G3 X3.4325 Y9.5246 I8.27 J-7.0976
G3 X5.1037 Y5.5763 I5.5 J0.0002
G3 X9.1017 Y4.0274 I3.8288 J3.9485
G1 X11.0272 Y4.0866
G1 X12.5265 Y4.1328 Z1.4
G1 X13.526 Y4.1636
G1 X15.0253 Y4.2097 Z-1.6
G1 X68.0347 Y5.8415
G1 X69.534 Y5.8877 Z1.4
G1 X70.5335 Y5.9185
G1 X72.0328 Y5.9646 Z-1.6
G1 X74.0402 Y6.0264
G3 X77.4321 Y9.5786 I-0.1077 J3.4983
G3 X73.9325 Y13.0248 I-3.4996 J-0.0538
G1 X73.0
G0 F200
( Contour4 )
S1000
G0 Z3.0
G0 X73.8359 Y26.7363
G0 Z1.0
G1 F10.0 Z-0.5
G3 F50.0 X80.4551 Y30.4202 I-1.6562 J10.7645
G3 X83.0832 Y37.5248 I-8.27 J7.0976
G3 X81.412 Y41.4731 I-5.5 J-0.0002
G3 X77.414 Y43.022 I-3.8288 J-3.9485
G1 X74.9718 Y42.9468
G1 X73.4725 Y42.9007 Z1.4
G1 X72.473 Y42.8699
G1 X70.9737 Y42.8237 Z-0.5
G1 X18.9941 Y41.2236
G1 X17.4948 Y41.1775 Z1.4
G1 X16.4952 Y41.1467
G1 X14.996 Y41.1005 Z-0.5
G1 X12.4755 Y41.0229
G3 X9.0836 Y37.4708 I0.1077 J-3.4983
G3 X12.5832 Y34.0246 I3.4996 J0.0538
G1 X15.0
G1 X16.5 Z1.4
G1 X17.5
G1 X19.0 Z-0.5
G1 X42.5832
G2 X45.7652 Y32.7066 I0.0 J-4.5
G2 X47.0832 Y29.5246 I-3.182 J-3.182
G1 Y19.5246
G3 X47.8154 Y17.7568 I2.5 J0.0
G3 X49.5832 Y17.0246 I1.7678 J1.7678
G1 X51.0
G1 X52.5 Z1.4
G1 X53.5
G1 X55.0 Z-0.5
G1 X56.607
G3 X58.5492 Y17.9505 I0.0 J2.5
G2 X73.8359 Y26.7363 I19.034 J-15.4259
G1 F10.0 Z-1.0
G3 F50.0 X80.4551 Y30.4202 I-1.6562 J10.7645
G3 X83.0832 Y37.5248 I-8.27 J7.0976
G3 X81.412 Y41.4731 I-5.5 J-0.0002
G3 X77.414 Y43.022 I-3.8288 J-3.9485
G1 X74.9718 Y42.9468
G1 X73.4725 Y42.9007 Z1.4
G1 X72.473 Y42.8699
G1 X70.9737 Y42.8237 Z-1.0
G1 X18.9941 Y41.2236
G1 X17.4948 Y41.1775 Z1.4
G1 X16.4952 Y41.1467
G1 X14.996 Y41.1005 Z-1.0
G1 X12.4755 Y41.0229
G3 X9.0836 Y37.4708 I0.1077 J-3.4983
G3 X12.5832 Y34.0246 I3.4996 J0.0538
G1 X15.0
G1 X16.5 Z1.4
G1 X17.5
G1 X19.0 Z-1.0
G1 X42.5832
G2 X45.7652 Y32.7066 I0.0 J-4.5
G2 X47.0832 Y29.5246 I-3.182 J-3.182
G1 Y19.5246
G3 X47.8154 Y17.7568 I2.5 J0.0
G3 X49.5832 Y17.0246 I1.7678 J1.7678
G1 X51.0
G1 X52.5 Z1.4
G1 X53.5
G1 X55.0 Z-1.0
G1 X56.607
G3 X58.5492 Y17.9505 I0.0 J2.5
G2 X73.8359 Y26.7363 I19.034 J-15.4259
G1 F10.0 Z-1.5
G3 F50.0 X80.4551 Y30.4202 I-1.6562 J10.7645
G3 X83.0832 Y37.5248 I-8.27 J7.0976
G3 X81.412 Y41.4731 I-5.5 J-0.0002
G3 X77.414 Y43.022 I-3.8288 J-3.9485
G1 X74.9718 Y42.9468
G1 X73.4725 Y42.9007 Z1.4
G1 X72.473 Y42.8699
G1 X70.9737 Y42.8237 Z-1.5
G1 X18.9941 Y41.2236
G1 X17.4948 Y41.1775 Z1.4
G1 X16.4952 Y41.1467
G1 X14.996 Y41.1005 Z-1.5
G1 X12.4755 Y41.0229
G3 X9.0836 Y37.4708 I0.1077 J-3.4983
G3 X12.5832 Y34.0246 I3.4996 J0.0538
G1 X15.0
G1 X16.5 Z1.4
G1 X17.5
G1 X19.0 Z-1.5
G1 X42.5832
G2 X45.7652 Y32.7066 I0.0 J-4.5
G2 X47.0832 Y29.5246 I-3.182 J-3.182
G1 Y19.5246
G3 X47.8154 Y17.7568 I2.5 J0.0
G3 X49.5832 Y17.0246 I1.7678 J1.7678
G1 X51.0
G1 X52.5 Z1.4
G1 X53.5
G1 X55.0 Z-1.5
G1 X56.607
G3 X58.5492 Y17.9505 I0.0 J2.5
G2 X73.8359 Y26.7363 I19.034 J-15.4259
G1 F10.0 Z-1.6
G3 F50.0 X80.4551 Y30.4202 I-1.6562 J10.7645
G3 X83.0832 Y37.5248 I-8.27 J7.0976
G3 X81.412 Y41.4731 I-5.5 J-0.0002
G3 X77.414 Y43.022 I-3.8288 J-3.9485
G1 X74.9718 Y42.9468
G1 X73.4725 Y42.9007 Z1.4
G1 X72.473 Y42.8699
G1 X70.9737 Y42.8237 Z-1.6
G1 X18.9941 Y41.2236
G1 X17.4948 Y41.1775 Z1.4
G1 X16.4952 Y41.1467
G1 X14.996 Y41.1005 Z-1.6
G1 X12.4755 Y41.0229
G3 X9.0836 Y37.4708 I0.1077 J-3.4983
G3 X12.5832 Y34.0246 I3.4996 J0.0538
G1 X15.0
G1 X16.5 Z1.4
G1 X17.5
G1 X19.0 Z-1.6
G1 X42.5832
G2 X45.7652 Y32.7066 I0.0 J-4.5
G2 X47.0832 Y29.5246 I-3.182 J-3.182
G1 Y19.5246
G3 X47.8154 Y17.7568 I2.5 J0.0
G3 X49.5832 Y17.0246 I1.7678 J1.7678
G1 X51.0
G1 X52.5 Z1.4
G1 X53.5
G1 X55.0 Z-1.6
G1 X56.607
G3 X58.5492 Y17.9505 I0.0 J2.5
G2 X73.8359 Y26.7363 I19.034 J-15.4259
G0 F200
G0 Z3.0
M5
M30
