( Made using CamBam - http://www.cambam.co.uk )
( Calpinage Kit complet 1/10/2025 6:13:53 PM )
( Post-pro: GRBL )
( T0 : 2.0 )
G21 G90 G40
G0 Z3.0
( T0 : 2.0 )
T0 M6
( Contour1 )
G17
M3 S1000
G0 X30.9629 Y26.6389
G0 Z1.0
G1 F300.0 Z-1.0
F1500.0
G3X31.7209Y26.2911I0.7581J0.6522
G1 X35.7209
G3X36.7209Y27.2911I0.0J1.0
G1 Y29.2911
G1 X51.7209
G1 Y27.2911
G3X52.7209Y26.2911I1.0J0.0
G1 X56.7209
G3X57.7209Y27.2911I0.0J1.0
G1 Y35.2911
G3X56.8789Y36.2785I-1.0J0.0
G1 X31.8789 Y40.2785
G3X30.7209Y39.2911I-0.158J-0.9874
G1 Y27.2911
G3X30.9629Y26.6389I1.0J0.0
G1 F300.0 Z-2.0
F1500.0
G3X31.7209Y26.2911I0.7581J0.6522
G1 X35.7209
G3X36.7209Y27.2911I0.0J1.0
G1 Y29.2911
G1 X51.7209
G1 Y27.2911
G3X52.7209Y26.2911I1.0J0.0
G1 X56.7209
G3X57.7209Y27.2911I0.0J1.0
G1 Y35.2911
G3X56.8789Y36.2785I-1.0J0.0
G1 X31.8789 Y40.2785
G3X30.7209Y39.2911I-0.158J-0.9874
G1 Y27.2911
G3X30.9629Y26.6389I1.0J0.0
G1 F300.0 Z-3.0
F1500.0
G3X31.7209Y26.2911I0.7581J0.6522
G1 X35.7209
G3X36.7209Y27.2911I0.0J1.0
G1 Y29.2911
G1 X42.4108
G1 X43.9108 Z-2.0
G1 X45.9108
G1 X47.4108 Z-3.0
G1 X51.7209
G1 Y27.2911
G3X52.7209Y26.2911I1.0J0.0
G1 X56.7209
G3X57.7209Y27.2911I0.0J1.0
G1 Y35.2911
G3X56.8789Y36.2785I-1.0J0.0
G1 X48.2861 Y37.6534
G1 X46.8049 Y37.8904 Z-2.0
G1 X44.83 Y38.2063
G1 X43.3489 Y38.4433 Z-3.0
G1 X31.8789 Y40.2785
G3X30.7209Y39.2911I-0.158J-0.9874
G1 Y27.2911
G3X30.9629Y26.6389I1.0J0.0
G1 F300.0 Z-4.0
F1500.0
G3X31.7209Y26.2911I0.7581J0.6522
G1 X35.7209
G3X36.7209Y27.2911I0.0J1.0
G1 Y29.2911
G1 X42.4108
G1 X43.9108 Z-2.0
G1 X45.9108
G1 X47.4108 Z-4.0
G1 X51.7209
G1 Y27.2911
G3X52.7209Y26.2911I1.0J0.0
G1 X56.7209
G3X57.7209Y27.2911I0.0J1.0
G1 Y35.2911
G3X56.8789Y36.2785I-1.0J0.0
G1 X48.2861 Y37.6534
G1 X46.8049 Y37.8904 Z-2.0
G1 X44.83 Y38.2063
G1 X43.3489 Y38.4433 Z-4.0
G1 X31.8789 Y40.2785
G3X30.7209Y39.2911I-0.158J-0.9874
G1 Y27.2911
G3X30.9629Y26.6389I1.0J0.0
G1 F300.0 Z-5.0
F1500.0
G3X31.7209Y26.2911I0.7581J0.6522
G1 X35.7209
G3X36.7209Y27.2911I0.0J1.0
G1 Y29.2911
G1 X42.4108
G1 X43.9108 Z-2.0
G1 X45.9108
G1 X47.4108 Z-5.0
G1 X51.7209
G1 Y27.2911
G3X52.7209Y26.2911I1.0J0.0
G1 X56.7209
G3X57.7209Y27.2911I0.0J1.0
G1 Y35.2911
G3X56.8789Y36.2785I-1.0J0.0
G1 X48.2861 Y37.6534
G1 X46.8049 Y37.8904 Z-2.0
G1 X44.83 Y38.2063
G1 X43.3489 Y38.4433 Z-5.0
G1 X31.8789 Y40.2785
G3X30.7209Y39.2911I-0.158J-0.9874
G1 Y27.2911
G3X30.9629Y26.6389I1.0J0.0
( Contour4 )
S1000
G0 Z3.0
G0 X24.6716 Y23.9323
G0 Z1.0
G1 F300.0 Z-1.0
G1 F1500.0 Y42.3751
G1 X64.1716
G1 Y23.9323
G1 X24.6716
G1 F300.0 Z-2.0
G1 F1500.0 Y42.3751
G1 X64.1716
G1 Y23.9323
G1 X24.6716
G1 F300.0 Z-3.0
G1 F1500.0 Y42.3751
G1 X43.4108
G1 X44.9108 Z-2.0
G1 X46.9108
G1 X48.4108 Z-3.0
G1 X64.1716
G1 Y23.9323
G1 X47.4108
G1 X45.9108 Z-2.0
G1 X43.9108
G1 X42.4108 Z-3.0
G1 X24.6716
G1 F300.0 Z-4.0
G1 F1500.0 Y42.3751
G1 X43.4108
G1 X44.9108 Z-2.0
G1 X46.9108
G1 X48.4108 Z-4.0
G1 X64.1716
G1 Y23.9323
G1 X47.4108
G1 X45.9108 Z-2.0
G1 X43.9108
G1 X42.4108 Z-4.0
G1 X24.6716
G1 F300.0 Z-5.0
G1 F1500.0 Y42.3751
G1 X43.4108
G1 X44.9108 Z-2.0
G1 X46.9108
G1 X48.4108 Z-5.0
G1 X64.1716
G1 Y23.9323
G1 X47.4108
G1 X45.9108 Z-2.0
G1 X43.9108
G1 X42.4108 Z-5.0
G1 X24.6716
( Contour2 )
S1000
G0 Z3.0
G0 X31.1844 Y65.4427
G0 Z1.0
G1 F300.0 Z-1.0
F1500.0
G3X31.6146Y65.3454I0.4302J0.9027
G1 X35.6146
G3X36.6146Y66.3454I0.0J1.0
G1 Y68.3454
G1 X51.6146
G1 Y66.3454
G3X52.6146Y65.3454I1.0J0.0
G1 X56.6146
G3X57.6146Y66.3454I0.0J1.0
G1 Y83.3454
G3X56.4566Y84.3328I-1.0J0.0
G1 X31.4566 Y80.3328
G3X30.6146Y79.3454I0.158J-0.9874
G1 Y66.3454
G3X31.1844Y65.4427I1.0J0.0
G1 F300.0 Z-2.0
F1500.0
G3X31.6146Y65.3454I0.4302J0.9027
G1 X35.6146
G3X36.6146Y66.3454I0.0J1.0
G1 Y68.3454
G1 X51.6146
G1 Y66.3454
G3X52.6146Y65.3454I1.0J0.0
G1 X56.6146
G3X57.6146Y66.3454I0.0J1.0
G1 Y83.3454
G3X56.4566Y84.3328I-1.0J0.0
G1 X31.4566 Y80.3328
G3X30.6146Y79.3454I0.158J-0.9874
G1 Y66.3454
G3X31.1844Y65.4427I1.0J0.0
G1 F300.0 Z-3.0
F1500.0
G3X31.6146Y65.3454I0.4302J0.9027
G1 X35.6146
G3X36.6146Y66.3454I0.0J1.0
G1 Y68.3454
G1 X42.4108
G1 X43.9108 Z-2.0
G1 X45.9108
G1 X47.4108 Z-3.0
G1 X51.6146
G1 Y66.3454
G3X52.6146Y65.3454I1.0J0.0
G1 X56.6146
G3X57.6146Y66.3454I0.0J1.0
G1 Y83.3454
G3X56.4566Y84.3328I-1.0J0.0
G1 X46.2713 Y82.7032
G1 X44.7901 Y82.4662 Z-2.0
G1 X42.8152 Y82.1502
G1 X41.3341 Y81.9132 Z-3.0
G1 X31.4566 Y80.3328
G3X30.6146Y79.3454I0.158J-0.9874
G1 Y66.3454
G3X31.1844Y65.4427I1.0J0.0
G1 F300.0 Z-4.0
F1500.0
G3X31.6146Y65.3454I0.4302J0.9027
G1 X35.6146
G3X36.6146Y66.3454I0.0J1.0
G1 Y68.3454
G1 X42.4108
G1 X43.9108 Z-2.0
G1 X45.9108
G1 X47.4108 Z-4.0
G1 X51.6146
G1 Y66.3454
G3X52.6146Y65.3454I1.0J0.0
G1 X56.6146
G3X57.6146Y66.3454I0.0J1.0
G1 Y83.3454
G3X56.4566Y84.3328I-1.0J0.0
G1 X46.2713 Y82.7032
G1 X44.7901 Y82.4662 Z-2.0
G1 X42.8152 Y82.1502
G1 X41.3341 Y81.9132 Z-4.0
G1 X31.4566 Y80.3328
G3X30.6146Y79.3454I0.158J-0.9874
G1 Y66.3454
G3X31.1844Y65.4427I1.0J0.0
G1 F300.0 Z-5.0
F1500.0
G3X31.6146Y65.3454I0.4302J0.9027
G1 X35.6146
G3X36.6146Y66.3454I0.0J1.0
G1 Y68.3454
G1 X42.4108
G1 X43.9108 Z-2.0
G1 X45.9108
G1 X47.4108 Z-5.0
G1 X51.6146
G1 Y66.3454
G3X52.6146Y65.3454I1.0J0.0
G1 X56.6146
G3X57.6146Y66.3454I0.0J1.0
G1 Y83.3454
G3X56.4566Y84.3328I-1.0J0.0
G1 X46.2713 Y82.7032
G1 X44.7901 Y82.4662 Z-2.0
G1 X42.8152 Y82.1502
G1 X41.3341 Y81.9132 Z-5.0
G1 X31.4566 Y80.3328
G3X30.6146Y79.3454I0.158J-0.9874
G1 Y66.3454
G3X31.1844Y65.4427I1.0J0.0
( Contour3 )
S1000
G0 Z3.0
G0 X31.398 Y82.2748
G0 Z1.0
G1 F300.0 Z-1.0
F1500.0
G3X31.9125Y82.2216I0.3565J0.9343
G1 X56.9125 Y86.2216
G3X57.7545Y87.2091I-0.158J0.9874
G1 Y100.2091
G3X56.7545Y101.2091I-1.0J0.0
G1 X52.7545
G3X51.7545Y100.2091I0.0J-1.0
G1 Y98.2091
G1 X36.7545
G1 Y100.2091
G3X35.7545Y101.2091I-1.0J0.0
G1 X31.7545
G3X30.7545Y100.2091I0.0J-1.0
G1 Y83.2091
G3X31.398Y82.2748I1.0J0.0
G1 F300.0 Z-2.0
F1500.0
G3X31.9125Y82.2216I0.3565J0.9343
G1 X56.9125 Y86.2216
G3X57.7545Y87.2091I-0.158J0.9874
G1 Y100.2091
G3X56.7545Y101.2091I-1.0J0.0
G1 X52.7545
G3X51.7545Y100.2091I0.0J-1.0
G1 Y98.2091
G1 X36.7545
G1 Y100.2091
G3X35.7545Y101.2091I-1.0J0.0
G1 X31.7545
G3X30.7545Y100.2091I0.0J-1.0
G1 Y83.2091
G3X31.398Y82.2748I1.0J0.0
G1 F300.0 Z-3.0
F1500.0
G3X31.9125Y82.2216I0.3565J0.9343
G1 X40.6998 Y83.6276
G1 X42.1809 Y83.8646 Z-2.0
G1 X44.1558 Y84.1806
G1 X45.637 Y84.4175 Z-3.0
G1 X56.9125 Y86.2216
G3X57.7545Y87.2091I-0.158J0.9874
G1 Y100.2091
G3X56.7545Y101.2091I-1.0J0.0
G1 X52.7545
G3X51.7545Y100.2091I0.0J-1.0
G1 Y98.2091
G1 X46.4108
G1 X44.9108 Z-2.0
G1 X42.9108
G1 X41.4108 Z-3.0
G1 X36.7545
G1 Y100.2091
G3X35.7545Y101.2091I-1.0J0.0
G1 X31.7545
G3X30.7545Y100.2091I0.0J-1.0
G1 Y83.2091
G3X31.398Y82.2748I1.0J0.0
G1 F300.0 Z-4.0
F1500.0
G3X31.9125Y82.2216I0.3565J0.9343
G1 X40.6998 Y83.6276
G1 X42.1809 Y83.8646 Z-2.0
G1 X44.1558 Y84.1806
G1 X45.637 Y84.4175 Z-4.0
G1 X56.9125 Y86.2216
G3X57.7545Y87.2091I-0.158J0.9874
G1 Y100.2091
G3X56.7545Y101.2091I-1.0J0.0
G1 X52.7545
G3X51.7545Y100.2091I0.0J-1.0
G1 Y98.2091
G1 X46.4108
G1 X44.9108 Z-2.0
G1 X42.9108
G1 X41.4108 Z-4.0
G1 X36.7545
G1 Y100.2091
G3X35.7545Y101.2091I-1.0J0.0
G1 X31.7545
G3X30.7545Y100.2091I0.0J-1.0
G1 Y83.2091
G3X31.398Y82.2748I1.0J0.0
G1 F300.0 Z-5.0
F1500.0
G3X31.9125Y82.2216I0.3565J0.9343
G1 X40.6998 Y83.6276
G1 X42.1809 Y83.8646 Z-2.0
G1 X44.1558 Y84.1806
G1 X45.637 Y84.4175 Z-5.0
G1 X56.9125 Y86.2216
G3X57.7545Y87.2091I-0.158J0.9874
G1 Y100.2091
G3X56.7545Y101.2091I-1.0J0.0
G1 X52.7545
G3X51.7545Y100.2091I0.0J-1.0
G1 Y98.2091
G1 X46.4108
G1 X44.9108 Z-2.0
G1 X42.9108
G1 X41.4108 Z-5.0
G1 X36.7545
G1 Y100.2091
G3X35.7545Y101.2091I-1.0J0.0
G1 X31.7545
G3X30.7545Y100.2091I0.0J-1.0
G1 Y83.2091
G3X31.398Y82.2748I1.0J0.0
( Contour6 )
S1000
G0 Z3.0
G0 X24.6716 Y63.8751
G0 Z1.0
G1 F300.0 Z-1.0
G1 F1500.0 Y102.8751
G1 X64.1716
G1 Y63.8751
G1 X24.6716
G1 F300.0 Z-2.0
G1 F1500.0 Y102.8751
G1 X64.1716
G1 Y63.8751
G1 X24.6716
G1 F300.0 Z-3.0
G1 F1500.0 Y81.1321
G1 Y82.6321 Z-2.0
G1 Y84.6321
G1 Y86.1321 Z-3.0
G1 Y102.8751
G1 X41.4108
G1 X42.9108 Z-2.0
G1 X44.9108
G1 X46.4108 Z-3.0
G1 X64.1716
G1 Y87.1321
G1 Y85.6321 Z-2.0
G1 Y83.6321
G1 Y82.1321 Z-3.0
G1 Y63.8751
G1 X47.4108
G1 X45.9108 Z-2.0
G1 X43.9108
G1 X42.4108 Z-3.0
G1 X24.6716
G1 F300.0 Z-4.0
G1 F1500.0 Y81.1321
G1 Y82.6321 Z-2.0
G1 Y84.6321
G1 Y86.1321 Z-4.0
G1 Y102.8751
G1 X41.4108
G1 X42.9108 Z-2.0
G1 X44.9108
G1 X46.4108 Z-4.0
G1 X64.1716
G1 Y87.1321
G1 Y85.6321 Z-2.0
G1 Y83.6321
G1 Y82.1321 Z-4.0
G1 Y63.8751
G1 X47.4108
G1 X45.9108 Z-2.0
G1 X43.9108
G1 X42.4108 Z-4.0
G1 X24.6716
G1 F300.0 Z-5.0
G1 F1500.0 Y81.1321
G1 Y82.6321 Z-2.0
G1 Y84.6321
G1 Y86.1321 Z-5.0
G1 Y102.8751
G1 X41.4108
G1 X42.9108 Z-2.0
G1 X44.9108
G1 X46.4108 Z-5.0
G1 X64.1716
G1 Y87.1321
G1 Y85.6321 Z-2.0
G1 Y83.6321
G1 Y82.1321 Z-5.0
G1 Y63.8751
G1 X47.4108
G1 X45.9108 Z-2.0
G1 X43.9108
G1 X42.4108 Z-5.0
G1 X24.6716
( Contour7 )
S1000
G0 Z3.0
G0 X90.2119 Y94.8751
G0 Z1.0
G1 F300.0 Z-1.0
G1 F1500.0 Y102.8751
G1 X113.2119
G1 Y94.8751
G1 X90.2119
G1 F300.0 Z-2.0
G1 F1500.0 Y102.8751
G1 X113.2119
G1 Y94.8751
G1 X90.2119
G1 F300.0 Z-3.0
G1 F1500.0 Y102.8751
G1 X99.4108
G1 X100.9108 Z-2.0
G1 X102.9108
G1 X104.4108 Z-3.0
G1 X113.2119
G1 Y94.8751
G1 X104.4108
G1 X102.9108 Z-2.0
G1 X100.9108
G1 X99.4108 Z-3.0
G1 X90.2119
G1 F300.0 Z-4.0
G1 F1500.0 Y102.8751
G1 X99.4108
G1 X100.9108 Z-2.0
G1 X102.9108
G1 X104.4108 Z-4.0
G1 X113.2119
G1 Y94.8751
G1 X104.4108
G1 X102.9108 Z-2.0
G1 X100.9108
G1 X99.4108 Z-4.0
G1 X90.2119
G1 F300.0 Z-5.0
G1 F1500.0 Y102.8751
G1 X99.4108
G1 X100.9108 Z-2.0
G1 X102.9108
G1 X104.4108 Z-5.0
G1 X113.2119
G1 Y94.8751
G1 X104.4108
G1 X102.9108 Z-2.0
G1 X100.9108
G1 X99.4108 Z-5.0
G1 X90.2119
( Contour8 )
S1000
G0 Z3.0
G0 Y23.8751
G0 Z1.0
G1 F300.0 Z-1.0
G1 F1500.0 Y31.8751
G1 X113.2119
G1 Y23.8751
G1 X90.2119
G1 F300.0 Z-2.0
G1 F1500.0 Y31.8751
G1 X113.2119
G1 Y23.8751
G1 X90.2119
G1 F300.0 Z-3.0
G1 F1500.0 Y31.8751
G1 X98.3786
G1 X99.8786 Z-2.0
G1 X101.8786
G1 X103.3786 Z-3.0
G1 X113.2119
G1 Y23.8751
G1 X103.4108
G1 X101.9108 Z-2.0
G1 X99.9108
G1 X98.4108 Z-3.0
G1 X90.2119
G1 F300.0 Z-4.0
G1 F1500.0 Y31.8751
G1 X98.3786
G1 X99.8786 Z-2.0
G1 X101.8786
G1 X103.3786 Z-4.0
G1 X113.2119
G1 Y23.8751
G1 X103.4108
G1 X101.9108 Z-2.0
G1 X99.9108
G1 X98.4108 Z-4.0
G1 X90.2119
G1 F300.0 Z-5.0
G1 F1500.0 Y31.8751
G1 X98.3786
G1 X99.8786 Z-2.0
G1 X101.8786
G1 X103.3786 Z-5.0
G1 X113.2119
G1 Y23.8751
G1 X103.4108
G1 X101.9108 Z-2.0
G1 X99.9108
G1 X98.4108 Z-5.0
G1 X90.2119
( Contour9 )
S1000
G0 Z3.0
G0 X136.9418 Y38.3751
G0 Z1.0
G1 F300.0 Z-1.0
G1 F1500.0 Y88.3751
G1 X155.9418
G1 Y38.3751
G1 X136.9418
G1 F300.0 Z-2.0
G1 F1500.0 Y88.3751
G1 X155.9418
G1 Y38.3751
G1 X136.9418
G1 F300.0 Z-3.0
G1 F1500.0 Y61.1321
G1 Y62.6321 Z-2.0
G1 Y64.6321
G1 Y66.1321 Z-3.0
G1 Y88.3751
G1 X155.9418
G1 Y66.1321
G1 Y64.6321 Z-2.0
G1 Y62.6321
G1 Y61.1321 Z-3.0
G1 Y38.3751
G1 X136.9418
G1 F300.0 Z-4.0
G1 F1500.0 Y61.1321
G1 Y62.6321 Z-2.0
G1 Y64.6321
G1 Y66.1321 Z-4.0
G1 Y88.3751
G1 X155.9418
G1 Y66.1321
G1 Y64.6321 Z-2.0
G1 Y62.6321
G1 Y61.1321 Z-4.0
G1 Y38.3751
G1 X136.9418
G1 F300.0 Z-5.0
G1 F1500.0 Y61.1321
G1 Y62.6321 Z-2.0
G1 Y64.6321
G1 Y66.1321 Z-5.0
G1 Y88.3751
G1 X155.9418
G1 Y66.1321
G1 Y64.6321 Z-2.0
G1 Y62.6321
G1 Y61.1321 Z-5.0
G1 Y38.3751
G1 X136.9418
( Contour10 )
S1000
G0 Z3.0
G0 X171.7252 Y49.3751
G0 Z1.0
G1 F300.0 Z-1.0
G1 F1500.0 Y62.3751
G1 X179.7252
G1 Y49.3751
G1 X171.7252
G1 F300.0 Z-2.0
G1 F1500.0 Y62.3751
G1 X179.7252
G1 Y49.3751
G1 X171.7252
G1 F300.0 Z-3.0
G1 F1500.0 Y53.1321
G1 Y54.6321 Z-2.0
G1 Y56.6321
G1 Y58.1321 Z-3.0
G1 Y62.3751
G1 X179.7252
G1 Y58.1321
G1 Y56.6321 Z-2.0
G1 Y54.6321
G1 Y53.1321 Z-3.0
G1 Y49.3751
G1 X171.7252
G1 F300.0 Z-4.0
G1 F1500.0 Y53.1321
G1 Y54.6321 Z-2.0
G1 Y56.6321
G1 Y58.1321 Z-4.0
G1 Y62.3751
G1 X179.7252
G1 Y58.1321
G1 Y56.6321 Z-2.0
G1 Y54.6321
G1 Y53.1321 Z-4.0
G1 Y49.3751
G1 X171.7252
G1 F300.0 Z-5.0
G1 F1500.0 Y53.1321
G1 Y54.6321 Z-2.0
G1 Y56.6321
G1 Y58.1321 Z-5.0
G1 Y62.3751
G1 X179.7252
G1 Y58.1321
G1 Y56.6321 Z-2.0
G1 Y54.6321
G1 Y53.1321 Z-5.0
G1 Y49.3751
G1 X171.7252
( Contour11 )
S1000
G0 Z3.0
G0 X173.6338 Y86.3864
G0 Z1.0
G1 F300.0 Z-1.0
G1 F1500.0 X176.6597 Y104.5793
G1 X215.6244 Y98.0985
G1 X212.5985 Y79.9056
G1 X173.6338 Y86.3864
G1 F300.0 Z-2.0
G1 F1500.0 X176.6597 Y104.5793
G1 X215.6244 Y98.0985
G1 X212.5985 Y79.9056
G1 X173.6338 Y86.3864
G1 F300.0 Z-3.0
G1 F1500.0 X176.6597 Y104.5793
G1 X193.2416 Y101.8213
G1 X194.7213 Y101.5752 Z-2.0
G1 X196.6942 Y101.247
G1 X198.1739 Y101.0009 Z-3.0
G1 X215.6244 Y98.0985
G1 X212.5985 Y79.9056
G1 X195.6275 Y82.7283
G1 X194.1479 Y82.9744 Z-2.0
G1 X192.175 Y83.3026
G1 X190.6953 Y83.5487 Z-3.0
G1 X173.6338 Y86.3864
G1 F300.0 Z-4.0
G1 F1500.0 X176.6597 Y104.5793
G1 X193.2416 Y101.8213
G1 X194.7213 Y101.5752 Z-2.0
G1 X196.6942 Y101.247
G1 X198.1739 Y101.0009 Z-4.0
G1 X215.6244 Y98.0985
G1 X212.5985 Y79.9056
G1 X195.6275 Y82.7283
G1 X194.1479 Y82.9744 Z-2.0
G1 X192.175 Y83.3026
G1 X190.6953 Y83.5487 Z-4.0
G1 X173.6338 Y86.3864
G1 F300.0 Z-5.0
G1 F1500.0 X176.6597 Y104.5793
G1 X193.2416 Y101.8213
G1 X194.7213 Y101.5752 Z-2.0
G1 X196.6942 Y101.247
G1 X198.1739 Y101.0009 Z-5.0
G1 X215.6244 Y98.0985
G1 X212.5985 Y79.9056
G1 X195.6275 Y82.7283
G1 X194.1479 Y82.9744 Z-2.0
G1 X192.175 Y83.3026
G1 X190.6953 Y83.5487 Z-5.0
G1 X173.6338 Y86.3864
( Contour12 )
S1000
G0 Z3.0
G0 X196.1468 Y41.7867
G0 Z1.0
G1 F300.0 Z-1.0
F1500.0
G3X197.1248Y40.9951I0.9781J0.2084
G1 X205.1248
G3X206.1123Y41.8371I0.0J1.0
G1 X210.1123 Y66.8371
G3X209.1248Y67.9951I-0.9874J0.158
G1 X197.1248
G3X196.1248Y66.9951I0.0J-1.0
G1 Y62.9951
G3X197.1248Y61.9951I1.0J0.0
G1 X199.1248
G1 Y46.9951
G1 X197.1248
G3X196.1248Y45.9951I0.0J-1.0
G1 Y41.9951
G3X196.1468Y41.7867I1.0J0.0
G1 F300.0 Z-2.0
F1500.0
G3X197.1248Y40.9951I0.9781J0.2084
G1 X205.1248
G3X206.1123Y41.8371I0.0J1.0
G1 X210.1123 Y66.8371
G3X209.1248Y67.9951I-0.9874J0.158
G1 X197.1248
G3X196.1248Y66.9951I0.0J-1.0
G1 Y62.9951
G3X197.1248Y61.9951I1.0J0.0
G1 X199.1248
G1 Y46.9951
G1 X197.1248
G3X196.1248Y45.9951I0.0J-1.0
G1 Y41.9951
G3X196.1468Y41.7867I1.0J0.0
G1 F300.0 Z-3.0
F1500.0
G3X197.1248Y40.9951I0.9781J0.2084
G1 X205.1248
G3X206.1123Y41.8371I0.0J1.0
G1 X207.7084 Y51.8127
G1 X207.9454 Y53.2938 Z-2.0
G1 X208.2613 Y55.2687
G1 X208.4983 Y56.7499 Z-3.0
G1 X210.1123 Y66.8371
G3X209.1248Y67.9951I-0.9874J0.158
G1 X197.1248
G3X196.1248Y66.9951I0.0J-1.0
G1 Y62.9951
G3X197.1248Y61.9951I1.0J0.0
G1 X199.1248
G1 Y57.1321
G1 Y55.6321 Z-2.0
G1 Y53.6321
G1 Y52.1321 Z-3.0
G1 Y46.9951
G1 X197.1248
G3X196.1248Y45.9951I0.0J-1.0
G1 Y41.9951
G3X196.1468Y41.7867I1.0J0.0
G1 F300.0 Z-4.0
F1500.0
G3X197.1248Y40.9951I0.9781J0.2084
G1 X205.1248
G3X206.1123Y41.8371I0.0J1.0
G1 X207.7084 Y51.8127
G1 X207.9454 Y53.2938 Z-2.0
G1 X208.2613 Y55.2687
G1 X208.4983 Y56.7499 Z-4.0
G1 X210.1123 Y66.8371
G3X209.1248Y67.9951I-0.9874J0.158
G1 X197.1248
G3X196.1248Y66.9951I0.0J-1.0
G1 Y62.9951
G3X197.1248Y61.9951I1.0J0.0
G1 X199.1248
G1 Y57.1321
G1 Y55.6321 Z-2.0
G1 Y53.6321
G1 Y52.1321 Z-4.0
G1 Y46.9951
G1 X197.1248
G3X196.1248Y45.9951I0.0J-1.0
G1 Y41.9951
G3X196.1468Y41.7867I1.0J0.0
G1 F300.0 Z-5.0
F1500.0
G3X197.1248Y40.9951I0.9781J0.2084
G1 X205.1248
G3X206.1123Y41.8371I0.0J1.0
G1 X207.7084 Y51.8127
G1 X207.9454 Y53.2938 Z-2.0
G1 X208.2613 Y55.2687
G1 X208.4983 Y56.7499 Z-5.0
G1 X210.1123 Y66.8371
G3X209.1248Y67.9951I-0.9874J0.158
G1 X197.1248
G3X196.1248Y66.9951I0.0J-1.0
G1 Y62.9951
G3X197.1248Y61.9951I1.0J0.0
G1 X199.1248
G1 Y57.1321
G1 Y55.6321 Z-2.0
G1 Y53.6321
G1 Y52.1321 Z-5.0
G1 Y46.9951
G1 X197.1248
G3X196.1248Y45.9951I0.0J-1.0
G1 Y41.9951
G3X196.1468Y41.7867I1.0J0.0
( Contour13 )
S1000
G0 Z3.0
G0 X207.5726 Y41.8305
G0 Z1.0
G1 F300.0 Z-1.0
F1500.0
G3X208.5528Y41.0281I0.9803J0.1976
G1 X220.5528
G3X221.5528Y42.0281I0.0J1.0
G1 Y46.0281
G3X220.5528Y47.0281I-1.0J0.0
G1 X218.5528
G1 Y62.0281
G1 X220.5528
G3X221.5528Y63.0281I0.0J1.0
G1 Y67.0281
G3X220.5528Y68.0281I-1.0J0.0
G1 X212.5528
G3X211.5654Y67.1861I0.0J-1.0
G1 X207.5654 Y42.1861
G3X207.5726Y41.8305I0.9874J-0.158
G1 F300.0 Z-2.0
F1500.0
G3X208.5528Y41.0281I0.9803J0.1976
G1 X220.5528
G3X221.5528Y42.0281I0.0J1.0
G1 Y46.0281
G3X220.5528Y47.0281I-1.0J0.0
G1 X218.5528
G1 Y62.0281
G1 X220.5528
G3X221.5528Y63.0281I0.0J1.0
G1 Y67.0281
G3X220.5528Y68.0281I-1.0J0.0
G1 X212.5528
G3X211.5654Y67.1861I0.0J-1.0
G1 X207.5654 Y42.1861
G3X207.5726Y41.8305I0.9874J-0.158
G1 F300.0 Z-3.0
F1500.0
G3X208.5528Y41.0281I0.9803J0.1976
G1 X220.5528
G3X221.5528Y42.0281I0.0J1.0
G1 Y46.0281
G3X220.5528Y47.0281I-1.0J0.0
G1 X218.5528
G1 Y62.0281
G1 X220.5528
G3X221.5528Y63.0281I0.0J1.0
G1 Y67.0281
G3X220.5528Y68.0281I-1.0J0.0
G1 X212.5528
G3X211.5654Y67.1861I0.0J-1.0
G1 X207.5654 Y42.1861
G3X207.5726Y41.8305I0.9874J-0.158
G1 F300.0 Z-4.0
F1500.0
G3X208.5528Y41.0281I0.9803J0.1976
G1 X220.5528
G3X221.5528Y42.0281I0.0J1.0
G1 Y46.0281
G3X220.5528Y47.0281I-1.0J0.0
G1 X218.5528
G1 Y62.0281
G1 X220.5528
G3X221.5528Y63.0281I0.0J1.0
G1 Y67.0281
G3X220.5528Y68.0281I-1.0J0.0
G1 X212.5528
G3X211.5654Y67.1861I0.0J-1.0
G1 X207.5654 Y42.1861
G3X207.5726Y41.8305I0.9874J-0.158
G1 F300.0 Z-5.0
F1500.0
G3X208.5528Y41.0281I0.9803J0.1976
G1 X220.5528
G3X221.5528Y42.0281I0.0J1.0
G1 Y46.0281
G3X220.5528Y47.0281I-1.0J0.0
G1 X218.5528
G1 Y52.1321
G0 Z-4.8
G1 Y57.1321
G1 F300.0 Z-5.0
G1 F1500.0 Y62.0281
G1 X220.5528
G3X221.5528Y63.0281I0.0J1.0
G1 Y67.0281
G3X220.5528Y68.0281I-1.0J0.0
G1 X212.5528
G3X211.5654Y67.1861I0.0J-1.0
G1 X209.8295 Y56.3369
G0 Z-4.8
G1 X209.0396 Y51.3997
G1 F300.0 Z-5.0
G1 F1500.0 X207.5654 Y42.1861
G3X207.5726Y41.8305I0.9874J-0.158
( Contour14 )
S1000
G0 Z3.0
G0 X222.2191 Y41.8002
G0 Z1.0
G1 F300.0 Z-1.0
F1500.0
G3X223.2018Y40.9851I0.9828J0.1849
G1 X231.2018
G3X232.1893Y41.8271I0.0J1.0
G1 X236.1893 Y66.8271
G3X235.2018Y67.9851I-0.9874J0.158
G1 X223.2018
G3X222.2018Y66.9851I0.0J-1.0
G1 Y62.9851
G3X223.2018Y61.9851I1.0J0.0
G1 X225.2018
G1 Y46.9851
G1 X223.2018
G3X222.2018Y45.9851I0.0J-1.0
G1 Y41.9851
G3X222.2191Y41.8002I1.0J0.0
G1 F300.0 Z-2.0
F1500.0
G3X223.2018Y40.9851I0.9828J0.1849
G1 X231.2018
G3X232.1893Y41.8271I0.0J1.0
G1 X236.1893 Y66.8271
G3X235.2018Y67.9851I-0.9874J0.158
G1 X223.2018
G3X222.2018Y66.9851I0.0J-1.0
G1 Y62.9851
G3X223.2018Y61.9851I1.0J0.0
G1 X225.2018
G1 Y46.9851
G1 X223.2018
G3X222.2018Y45.9851I0.0J-1.0
G1 Y41.9851
G3X222.2191Y41.8002I1.0J0.0
G1 F300.0 Z-3.0
F1500.0
G3X223.2018Y40.9851I0.9828J0.1849
G1 X231.2018
G3X232.1893Y41.8271I0.0J1.0
G1 X233.8349 Y52.1124
G1 X234.0719 Y53.5936 Z-2.0
G1 X234.3879 Y55.5685
G1 X234.6249 Y57.0496 Z-3.0
G1 X236.1893 Y66.8271
G3X235.2018Y67.9851I-0.9874J0.158
G1 X223.2018
G3X222.2018Y66.9851I0.0J-1.0
G1 Y62.9851
G3X223.2018Y61.9851I1.0J0.0
G1 X225.2018
G1 Y57.1321
G1 Y55.6321 Z-2.0
G1 Y53.6321
G1 Y52.1321 Z-3.0
G1 Y46.9851
G1 X223.2018
G3X222.2018Y45.9851I0.0J-1.0
G1 Y41.9851
G3X222.2191Y41.8002I1.0J0.0
G1 F300.0 Z-4.0
F1500.0
G3X223.2018Y40.9851I0.9828J0.1849
G1 X231.2018
G3X232.1893Y41.8271I0.0J1.0
G1 X233.8349 Y52.1124
G1 X234.0719 Y53.5936 Z-2.0
G1 X234.3879 Y55.5685
G1 X234.6249 Y57.0496 Z-4.0
G1 X236.1893 Y66.8271
G3X235.2018Y67.9851I-0.9874J0.158
G1 X223.2018
G3X222.2018Y66.9851I0.0J-1.0
G1 Y62.9851
G3X223.2018Y61.9851I1.0J0.0
G1 X225.2018
G1 Y57.1321
G1 Y55.6321 Z-2.0
G1 Y53.6321
G1 Y52.1321 Z-4.0
G1 Y46.9851
G1 X223.2018
G3X222.2018Y45.9851I0.0J-1.0
G1 Y41.9851
G3X222.2191Y41.8002I1.0J0.0
G1 F300.0 Z-5.0
F1500.0
G3X223.2018Y40.9851I0.9828J0.1849
G1 X231.2018
G3X232.1893Y41.8271I0.0J1.0
G1 X233.8349 Y52.1124
G1 X234.0719 Y53.5936 Z-2.0
G1 X234.3879 Y55.5685
G1 X234.6249 Y57.0496 Z-5.0
G1 X236.1893 Y66.8271
G3X235.2018Y67.9851I-0.9874J0.158
G1 X223.2018
G3X222.2018Y66.9851I0.0J-1.0
G1 Y62.9851
G3X223.2018Y61.9851I1.0J0.0
G1 X225.2018
G1 Y57.1321
G1 Y55.6321 Z-2.0
G1 Y53.6321
G1 Y52.1321 Z-5.0
G1 Y46.9851
G1 X223.2018
G3X222.2018Y45.9851I0.0J-1.0
G1 Y41.9851
G3X222.2191Y41.8002I1.0J0.0
( Contour15 )
S1000
G0 Z3.0
G0 X233.4635 Y41.8407
G0 Z1.0
G1 F300.0 Z-1.0
F1500.0
G3X234.4478Y41.0171I0.9843J0.1764
G1 X246.4478
G3X247.4478Y42.0171I0.0J1.0
G1 Y46.0171
G3X246.4478Y47.0171I-1.0J0.0
G1 X244.4478
G1 Y62.0171
G1 X246.4478
G3X247.4478Y63.0171I0.0J1.0
G1 Y67.0171
G3X246.4478Y68.0171I-1.0J0.0
G1 X238.4478
G3X237.4604Y67.1751I0.0J-1.0
G1 X233.4604 Y42.1751
G3X233.4635Y41.8407I0.9874J-0.158
G1 F300.0 Z-2.0
F1500.0
G3X234.4478Y41.0171I0.9843J0.1764
G1 X246.4478
G3X247.4478Y42.0171I0.0J1.0
G1 Y46.0171
G3X246.4478Y47.0171I-1.0J0.0
G1 X244.4478
G1 Y62.0171
G1 X246.4478
G3X247.4478Y63.0171I0.0J1.0
G1 Y67.0171
G3X246.4478Y68.0171I-1.0J0.0
G1 X238.4478
G3X237.4604Y67.1751I0.0J-1.0
G1 X233.4604 Y42.1751
G3X233.4635Y41.8407I0.9874J-0.158
G1 F300.0 Z-3.0
F1500.0
G3X234.4478Y41.0171I0.9843J0.1764
G1 X246.4478
G3X247.4478Y42.0171I0.0J1.0
G1 Y46.0171
G3X246.4478Y47.0171I-1.0J0.0
G1 X244.4478
G1 Y52.1321
G1 Y53.6321 Z-2.0
G1 Y55.6321
G1 Y57.1321 Z-3.0
G1 Y62.0171
G1 X246.4478
G3X247.4478Y63.0171I0.0J1.0
G1 Y67.0171
G3X246.4478Y68.0171I-1.0J0.0
G1 X238.4478
G3X237.4604Y67.1751I0.0J-1.0
G1 X235.835 Y57.016
G1 X235.598 Y55.5349 Z-2.0
G1 X235.282 Y53.56
G1 X235.045 Y52.0788 Z-3.0
G1 X233.4604 Y42.1751
G3X233.4635Y41.8407I0.9874J-0.158
G1 F300.0 Z-4.0
F1500.0
G3X234.4478Y41.0171I0.9843J0.1764
G1 X246.4478
G3X247.4478Y42.0171I0.0J1.0
G1 Y46.0171
G3X246.4478Y47.0171I-1.0J0.0
G1 X244.4478
G1 Y52.1321
G1 Y53.6321 Z-2.0
G1 Y55.6321
G1 Y57.1321 Z-4.0
G1 Y62.0171
G1 X246.4478
G3X247.4478Y63.0171I0.0J1.0
G1 Y67.0171
G3X246.4478Y68.0171I-1.0J0.0
G1 X238.4478
G3X237.4604Y67.1751I0.0J-1.0
G1 X235.835 Y57.016
G1 X235.598 Y55.5349 Z-2.0
G1 X235.282 Y53.56
G1 X235.045 Y52.0788 Z-4.0
G1 X233.4604 Y42.1751
G3X233.4635Y41.8407I0.9874J-0.158
G1 F300.0 Z-5.0
F1500.0
G3X234.4478Y41.0171I0.9843J0.1764
G1 X246.4478
G3X247.4478Y42.0171I0.0J1.0
G1 Y46.0171
G3X246.4478Y47.0171I-1.0J0.0
G1 X244.4478
G1 Y52.1321
G1 Y53.6321 Z-2.0
G1 Y55.6321
G1 Y57.1321 Z-5.0
G1 Y62.0171
G1 X246.4478
G3X247.4478Y63.0171I0.0J1.0
G1 Y67.0171
G3X246.4478Y68.0171I-1.0J0.0
G1 X238.4478
G3X237.4604Y67.1751I0.0J-1.0
G1 X235.835 Y57.016
G1 X235.598 Y55.5349 Z-2.0
G1 X235.282 Y53.56
G1 X235.045 Y52.0788 Z-5.0
G1 X233.4604 Y42.1751
G3X233.4635Y41.8407I0.9874J-0.158
( Contour16 )
S1000
G0 Z3.0
G0 X247.6308 Y41.7568
G0 Z1.0
G1 F300.0 Z-1.0
F1500.0
G3X248.6168Y40.9231I0.9861J0.1663
G1 X256.6168
G3X257.6043Y41.7651I0.0J1.0
G1 X261.6043 Y66.7651
G3X260.6168Y67.9231I-0.9874J0.158
G1 X248.6168
G3X247.6168Y66.9231I0.0J-1.0
G1 Y62.9231
G3X248.6168Y61.9231I1.0J0.0
G1 X250.6168
G1 Y46.9231
G1 X248.6168
G3X247.6168Y45.9231I0.0J-1.0
G1 Y41.9231
G3X247.6308Y41.7568I1.0J0.0
G1 F300.0 Z-2.0
F1500.0
G3X248.6168Y40.9231I0.9861J0.1663
G1 X256.6168
G3X257.6043Y41.7651I0.0J1.0
G1 X261.6043 Y66.7651
G3X260.6168Y67.9231I-0.9874J0.158
G1 X248.6168
G3X247.6168Y66.9231I0.0J-1.0
G1 Y62.9231
G3X248.6168Y61.9231I1.0J0.0
G1 X250.6168
G1 Y46.9231
G1 X248.6168
G3X247.6168Y45.9231I0.0J-1.0
G1 Y41.9231
G3X247.6308Y41.7568I1.0J0.0
G1 F300.0 Z-3.0
F1500.0
G3X248.6168Y40.9231I0.9861J0.1663
G1 X256.6168
G3X257.6043Y41.7651I0.0J1.0
G1 X259.2243 Y51.8901
G1 X259.4613 Y53.3713 Z-2.0
G1 X259.7773 Y55.3462
G1 X260.0142 Y56.8273 Z-3.0
G1 X261.6043 Y66.7651
G3X260.6168Y67.9231I-0.9874J0.158
G1 X248.6168
G3X247.6168Y66.9231I0.0J-1.0
G1 Y62.9231
G3X248.6168Y61.9231I1.0J0.0
G1 X250.6168
G1 Y57.1321
G1 Y55.6321 Z-2.0
G1 Y53.6321
G1 Y52.1321 Z-3.0
G1 Y46.9231
G1 X248.6168
G3X247.6168Y45.9231I0.0J-1.0
G1 Y41.9231
G3X247.6308Y41.7568I1.0J0.0
G1 F300.0 Z-4.0
F1500.0
G3X248.6168Y40.9231I0.9861J0.1663
G1 X256.6168
G3X257.6043Y41.7651I0.0J1.0
G1 X259.2243 Y51.8901
G1 X259.4613 Y53.3713 Z-2.0
G1 X259.7773 Y55.3462
G1 X260.0142 Y56.8273 Z-4.0
G1 X261.6043 Y66.7651
G3X260.6168Y67.9231I-0.9874J0.158
G1 X248.6168
G3X247.6168Y66.9231I0.0J-1.0
G1 Y62.9231
G3X248.6168Y61.9231I1.0J0.0
G1 X250.6168
G1 Y57.1321
G1 Y55.6321 Z-2.0
G1 Y53.6321
G1 Y52.1321 Z-4.0
G1 Y46.9231
G1 X248.6168
G3X247.6168Y45.9231I0.0J-1.0
G1 Y41.9231
G3X247.6308Y41.7568I1.0J0.0
G1 F300.0 Z-5.0
F1500.0
G3X248.6168Y40.9231I0.9861J0.1663
G1 X256.6168
G3X257.6043Y41.7651I0.0J1.0
G1 X259.2243 Y51.8901
G1 X259.4613 Y53.3713 Z-2.0
G1 X259.7773 Y55.3462
G1 X260.0142 Y56.8273 Z-5.0
G1 X261.6043 Y66.7651
G3X260.6168Y67.9231I-0.9874J0.158
G1 X248.6168
G3X247.6168Y66.9231I0.0J-1.0
G1 Y62.9231
G3X248.6168Y61.9231I1.0J0.0
G1 X250.6168
G1 Y57.1321
G1 Y55.6321 Z-2.0
G1 Y53.6321
G1 Y52.1321 Z-5.0
G1 Y46.9231
G1 X248.6168
G3X247.6168Y45.9231I0.0J-1.0
G1 Y41.9231
G3X247.6308Y41.7568I1.0J0.0
( Contour17 )
S1000
G0 Z3.0
G0 X258.3477 Y41.8023
G0 Z1.0
G1 F300.0 Z-1.0
F1500.0
G3X259.3348Y40.962I0.9872J0.1597
G1 X276.3348
G3X277.3348Y41.962I0.0J1.0
G1 Y45.962
G3X276.3348Y46.962I-1.0J0.0
G1 X274.3348
G1 Y61.962
G1 X276.3348
G3X277.3348Y62.962I0.0J1.0
G1 Y66.962
G3X276.3348Y67.962I-1.0J0.0
G1 X263.3348
G3X262.3474Y67.12I0.0J-1.0
G1 X258.3474 Y42.12
G3X258.3477Y41.8023I0.9874J-0.158
G1 F300.0 Z-2.0
F1500.0
G3X259.3348Y40.962I0.9872J0.1597
G1 X276.3348
G3X277.3348Y41.962I0.0J1.0
G1 Y45.962
G3X276.3348Y46.962I-1.0J0.0
G1 X274.3348
G1 Y61.962
G1 X276.3348
G3X277.3348Y62.962I0.0J1.0
G1 Y66.962
G3X276.3348Y67.962I-1.0J0.0
G1 X263.3348
G3X262.3474Y67.12I0.0J-1.0
G1 X258.3474 Y42.12
G3X258.3477Y41.8023I0.9874J-0.158
G1 F300.0 Z-3.0
F1500.0
G3X259.3348Y40.962I0.9872J0.1597
G1 X276.3348
G3X277.3348Y41.962I0.0J1.0
G1 Y45.962
G3X276.3348Y46.962I-1.0J0.0
G1 X274.3348
G1 Y52.1321
G1 Y53.6321 Z-2.0
G1 Y55.6321
G1 Y57.1321 Z-3.0
G1 Y61.962
G1 X276.3348
G3X277.3348Y62.962I0.0J1.0
G1 Y66.962
G3X276.3348Y67.962I-1.0J0.0
G1 X263.3348
G3X262.3474Y67.12I0.0J-1.0
G1 X260.7583 Y57.1883
G1 X260.5213 Y55.7071 Z-2.0
G1 X260.2053 Y53.7322
G1 X259.9683 Y52.2511 Z-3.0
G1 X258.3474 Y42.12
G3X258.3477Y41.8023I0.9874J-0.158
G1 F300.0 Z-4.0
F1500.0
G3X259.3348Y40.962I0.9872J0.1597
G1 X276.3348
G3X277.3348Y41.962I0.0J1.0
G1 Y45.962
G3X276.3348Y46.962I-1.0J0.0
G1 X274.3348
G1 Y52.1321
G1 Y53.6321 Z-2.0
G1 Y55.6321
G1 Y57.1321 Z-4.0
G1 Y61.962
G1 X276.3348
G3X277.3348Y62.962I0.0J1.0
G1 Y66.962
G3X276.3348Y67.962I-1.0J0.0
G1 X263.3348
G3X262.3474Y67.12I0.0J-1.0
G1 X260.7583 Y57.1883
G1 X260.5213 Y55.7071 Z-2.0
G1 X260.2053 Y53.7322
G1 X259.9683 Y52.2511 Z-4.0
G1 X258.3474 Y42.12
G3X258.3477Y41.8023I0.9874J-0.158
G1 F300.0 Z-5.0
F1500.0
G3X259.3348Y40.962I0.9872J0.1597
G1 X276.3348
G3X277.3348Y41.962I0.0J1.0
G1 Y45.962
G3X276.3348Y46.962I-1.0J0.0
G1 X274.3348
G1 Y52.1321
G1 Y53.6321 Z-2.0
G1 Y55.6321
G1 Y57.1321 Z-5.0
G1 Y61.962
G1 X276.3348
G3X277.3348Y62.962I0.0J1.0
G1 Y66.962
G3X276.3348Y67.962I-1.0J0.0
G1 X263.3348
G3X262.3474Y67.12I0.0J-1.0
G1 X260.7583 Y57.1883
G1 X260.5213 Y55.7071 Z-2.0
G1 X260.2053 Y53.7322
G1 X259.9683 Y52.2511 Z-5.0
G1 X258.3474 Y42.12
G3X258.3477Y41.8023I0.9874J-0.158
( Contour18 )
S1000
G0 Z3.0
G0 X191.6716 Y40.3235
G0 Z1.0
G1 F300.0 Z-1.0
G1 F1500.0 Y68.3235
G1 X282.6716
G1 Y40.3235
G1 X191.6716
G1 F300.0 Z-2.0
G1 F1500.0 Y68.3235
G1 X282.6716
G1 Y40.3235
G1 X191.6716
G1 F300.0 Z-3.0
G1 F1500.0 Y52.1321
G1 Y53.6321 Z-2.0
G1 Y55.6321
G1 Y57.1321 Z-3.0
G1 Y68.3235
G1 X208.6716
G1 X210.1716 Z-2.0
G1 X212.1716
G1 X213.6716 Z-3.0
G1 X257.4108
G1 X258.9108 Z-2.0
G1 X260.9108
G1 X262.4108 Z-3.0
G1 X282.6716
G1 Y56.1321
G1 Y54.6321 Z-2.0
G1 Y52.6321
G1 Y51.1321 Z-3.0
G1 Y40.3235
G1 X261.4108
G1 X259.9108 Z-2.0
G1 X257.9108
G1 X256.4108 Z-3.0
G1 X213.4108
G1 X211.9108 Z-2.0
G1 X209.9108
G1 X208.4108 Z-3.0
G1 X191.6716
G1 F300.0 Z-4.0
G1 F1500.0 Y52.1321
G1 Y53.6321 Z-2.0
G1 Y55.6321
G1 Y57.1321 Z-4.0
G1 Y68.3235
G1 X208.6716
G1 X210.1716 Z-2.0
G1 X212.1716
G1 X213.6716 Z-4.0
G1 X257.4108
G1 X258.9108 Z-2.0
G1 X260.9108
G1 X262.4108 Z-4.0
G1 X282.6716
G1 Y56.1321
G1 Y54.6321 Z-2.0
G1 Y52.6321
G1 Y51.1321 Z-4.0
G1 Y40.3235
G1 X261.4108
G1 X259.9108 Z-2.0
G1 X257.9108
G1 X256.4108 Z-4.0
G1 X213.4108
G1 X211.9108 Z-2.0
G1 X209.9108
G1 X208.4108 Z-4.0
G1 X191.6716
G1 F300.0 Z-5.0
G1 F1500.0 Y52.1321
G1 Y53.6321 Z-2.0
G1 Y55.6321
G1 Y57.1321 Z-5.0
G1 Y68.3235
G1 X208.6716
G1 X210.1716 Z-2.0
G1 X212.1716
G1 X213.6716 Z-5.0
G1 X257.4108
G1 X258.9108 Z-2.0
G1 X260.9108
G1 X262.4108 Z-5.0
G1 X282.6716
G1 Y56.1321
G1 Y54.6321 Z-2.0
G1 Y52.6321
G1 Y51.1321 Z-5.0
G1 Y40.3235
G1 X261.4108
G1 X259.9108 Z-2.0
G1 X257.9108
G1 X256.4108 Z-5.0
G1 X213.4108
G1 X211.9108 Z-2.0
G1 X209.9108
G1 X208.4108 Z-5.0
G1 X191.6716
( Contour19 )
S1000
G0 Z3.0
G0 X188.3682 Y14.0769
G0 Z1.0
G1 F300.0 Z-1.0
G1 F1500.0 X189.2615 Y14.2072
G3X189.2638Y14.2075I-0.1443J0.9895
G1 X191.5412 Y14.5449
G3X191.5427Y14.5452I-0.1466J0.9892
G1 X193.8197 Y14.8861
G1 X193.8201 Y14.8862
G1 X196.3232 Y15.262
G1 X196.3239 Y15.2621
G1 X198.5139 Y15.5924
G3X198.515Y15.5926I-0.1491J0.9888
G1 X200.431 Y15.8838
G3X200.4324Y15.884I-0.1503J0.9886
G1 X202.1085 Y16.1413
G3X202.11Y16.1415I-0.1517J0.9884
G1 X203.5762 Y16.3689
G3X203.5778Y16.3692I-0.1533J0.9882
G1 X204.8604 Y16.5702
G3X204.8628Y16.5706I-0.1549J0.9879
G1 X207.1066 Y16.9279
G3X207.109Y16.9283I-0.1573J0.9876
G1 X207.95 Y17.0644
G3X207.9514Y17.0646I-0.1597J0.9872
G1 X208.6872 Y17.1846
G3X208.6884Y17.1848I-0.161J0.987
G1 X209.3321 Y17.2906
G3X209.3332Y17.2908I-0.1622J0.9868
G1 X209.8964 Y17.384
G3X209.8979Y17.3843I-0.1633J0.9866
G1 X210.883 Y17.5489
G3X210.8855Y17.5494I-0.1648J0.9863
G1 X212.3627 Y17.8002
G3X212.366Y17.8007I-0.1674J0.9859
G1 X213.8422 Y18.0564
G3X213.8454Y18.057I-0.1707J0.9853
G1 X215.096 Y18.2777
G3X215.0979Y18.278I-0.1738J0.9848
G1 X215.6839 Y18.3826
G1 X215.6843 Y18.3827
G3X220.229Y19.2115I-119.5236J668.2948
G1 X221.9298 Y19.5259
G3X221.9331Y19.5265I-0.1818J0.9833
G2X222.2988Y19.5941I10.4092J-55.2475
G3X222.3069Y19.5956I-0.1786J0.9839
G2X222.6575Y19.6605I6.6145J-34.7861
G3X222.6685Y19.6625I-0.1769J0.9842
G2X223.0056Y19.7248I5.1964J-27.1692
G3X223.0108Y19.7258I-0.1757J0.9844
G1 X225.7178 Y20.2236
G3X225.7269Y20.2254I-0.1809J0.9835
G2X225.9599Y20.2679I2.1271J-10.995
G3X225.9806Y20.2717I-0.1691J0.9856
G2X226.2054Y20.3126I2.0224J-10.4633
G3X226.2263Y20.3164I-0.1687J0.9857
G2X226.4433Y20.3559I1.9277J-9.9841
G3X226.4644Y20.3597I-0.1682J0.9857
G2X226.6737Y20.3977I1.8414J-9.5489
G3X226.695Y20.4016I-0.1678J0.9858
G2X226.897Y20.4382I1.7623J-9.1513
G3X226.9184Y20.442I-0.1674J0.9859
G2X227.1133Y20.4773I1.6894J-8.7859
G3X227.1348Y20.4812I-0.167J0.986
G2X227.3228Y20.5151I1.6218J-8.4482
G3X227.3444Y20.519I-0.1667J0.986
G2X227.5258Y20.5517I1.559J-8.135
G3X227.5474Y20.5556I-0.1663J0.9861
G2X227.7225Y20.587I1.5003J-7.8432
G3X227.7441Y20.5909I-0.166J0.9861
G2X227.9131Y20.6212I1.4454J-7.5704
G3X227.9346Y20.6251I-0.1656J0.9862
G2X228.0976Y20.6543I1.3938J-7.3144
G3X228.1192Y20.6581I-0.1653J0.9862
G2X228.2765Y20.6863I1.3452J-7.0736
G3X228.298Y20.6901I-0.165J0.9863
G2X228.4497Y20.7172I1.2993J-6.8463
G3X228.4711Y20.721I-0.1647J0.9863
G2X228.6176Y20.747I1.2559J-6.6315
G3X228.6389Y20.7508I-0.1644J0.9864
G2X228.7802Y20.7759I1.2147J-6.4279
G3X228.8014Y20.7797I-0.1641J0.9864
G2X228.9378Y20.8039I1.1756J-6.2343
G3X228.9589Y20.8076I-0.1638J0.9865
G2X229.0904Y20.8309I1.1384J-6.05
G3X229.1033Y20.8331I-0.1635J0.9865
G2X230.281Y21.0396I27.9956J-156.1867
G3X230.297Y21.0425I-0.169J0.9856
G2X230.4914Y21.0762I1.2895J-6.8525
G3X230.5184Y21.0809I-0.1571J0.9876
G2X230.6996Y21.1123I1.2216J-6.5226
G3X230.7108Y21.1141I-0.1568J0.9876
G1 X232.2745 Y21.3806
G3X232.2861Y21.3826I-0.168J0.9858
G2X232.4531Y21.4106I1.0495J-5.7475
G3X232.4649Y21.4125I-0.151J0.9885
G1 X233.8344 Y21.6384
G3X233.8443Y21.6401I-0.1628J0.9867
G2X233.9883Y21.6635I0.9881J-5.637
G3X233.9995Y21.6652I-0.1475J0.9891
G1 X234.6704 Y21.773
G1 X234.9946 Y21.8245
G1 X235.3139 Y21.875
G1 X235.9436 Y21.9736
G1 X236.2478 Y22.0209
G1 X237.45 Y22.2055
G1 X238.0131 Y22.2911
G1 X239.1058 Y22.4558
G1 X241.1565 Y22.7624
G1 X241.1566
G1 X241.1564
G1 X241.1565
G1 X242.0539 Y22.8965
G1 X242.0547 Y22.8966
G1 X243.7373 Y23.1494
G3X243.7392Y23.1497I-0.1486J0.9889
G1 X245.211 Y23.3736
G3X245.2127Y23.3739I-0.1504J0.9886
G1 X245.8565 Y23.473
G3X245.8584Y23.4733I-0.1522J0.9884
G1 X247.0651 Y23.6614
G1 X247.0656 Y23.6615
G3X251.297Y24.3518I-50.6338J323.6746
G3X251.2986Y24.3521I-0.1675J0.9859
G1 X252.3518 Y24.5327
G3X252.3549Y24.5333I-0.169J0.9856
G1 X253.1443 Y24.6712
G3X253.1462Y24.6715I-0.1721J0.9851
G1 X253.4422 Y24.7238
G3X253.4445Y24.7242I-0.174J0.9847
G1 X254.4799 Y24.9097
G3X254.4836Y24.9104I-0.1763J0.9843
G1 X255.5183 Y25.0997
G3X255.5207Y25.1002I-0.18J0.9837
G1 X255.8212 Y25.156
G3X255.8238Y25.1564I-0.1825J0.9832
G1 X257.0157 Y25.3808
G3X257.0194Y25.3815I-0.185J0.9827
G1 X258.1733 Y25.6032
G3X258.1756Y25.6037I-0.1887J0.982
G1 X258.7343 Y25.7124
G3X258.7363Y25.7128I-0.191J0.9816
G1 X259.8358 Y25.929
G3X259.8371Y25.9293I-0.193J0.9812
G1 X259.9037 Y25.9425
G1 X259.9038
G1 X259.9702 Y25.9557
G1 X259.9709 Y25.9558
G3X264.2159Y26.8133I-143.6425J722.0202
G1 X264.2165 Y26.8135
G1 X266.0698 Y27.1946
G3X266.0712Y27.1949I-0.2015J0.9795
G1 X269.5452 Y27.9146
G1 X269.5456 Y27.9147
G1 X275.624 Y29.1767
G1 X280.1832 Y30.1181
G1 X281.0379 Y30.2937
G1 X281.4384 Y30.376
G1 X284.5453 Y31.0116
G1 X286.8743 Y31.4855
G1 X290.3708 Y32.1925
G1 X293.8684 Y32.8946
G3X294.6716Y33.8751I-0.1968J0.9804
G1 Y92.8751
G3X293.8682Y93.8556I-1.0J0.0
G1 X291.4711 Y94.3362
G1 X282.4906 Y96.1585
G1 X279.1236 Y96.8503
G1 X276.1784 Y97.4587
G1 X273.6014 Y97.993
G1 X269.0914 Y98.9298
G1 X269.091 Y98.9299
G1 X267.3995 Y99.2806
G1 X267.3989 Y99.2808
G1 X265.9187 Y99.5867
G3X265.9173Y99.587I-0.2024J-0.9793
G1 X263.3261 Y100.1187
G3X263.3237Y100.1192I-0.201J-0.9796
G1 X261.3793 Y100.513
G3X261.3766Y100.5136I-0.1985J-0.9801
G1 X259.9176 Y100.8049
G3X259.9156Y100.8053I-0.1958J-0.9806
G1 X259.3681 Y100.9134
G3X259.367Y100.9137I-0.1938J-0.981
G1 X258.8879 Y101.0077
G3X258.8863Y101.0081I-0.1927J-0.9813
G1 X258.0476 Y101.1713
G3X255.5195Y101.6502I-49.0432J-251.9847
G3X255.5177Y101.6505I-0.1812J-0.9834
G1 X254.1686 Y101.8966
G3X254.1657Y101.8972I-0.1795J-0.9838
G1 X253.8492 Y101.9539
G3X253.8465Y101.9544I-0.1765J-0.9843
G1 X252.6001 Y102.1743
G3X252.598Y102.1747I-0.1737J-0.9848
G3X251.4248Y102.3766I-51.5934J-296.2285
G3X251.423Y102.3769I-0.1677J-0.9858
G1 X250.3262 Y102.5615
G3X250.3229Y102.562I-0.166J-0.9861
G1 X249.294 Y102.7317
G3X249.2918Y102.732I-0.1627J-0.9867
G1 X248.8093 Y102.8105
G3X248.8073Y102.8108I-0.1605J-0.987
G1 X247.8723 Y102.961
G3X247.8708Y102.9612I-0.1586J-0.9874
G1 X247.6515 Y102.9961
G1 X247.651
G1 X247.4351 Y103.0304
G3X247.4339Y103.0306I-0.1565J-0.9877
G1 X246.584 Y103.1641
G3X246.5822Y103.1644I-0.1552J-0.9879
G1 X245.7851 Y103.2882
G3X245.7836Y103.2884I-0.1534J-0.9882
G1 X245.0485 Y103.4014
G3X244.9785Y103.4121I-0.2891J-1.6564
G1 X243.5943 Y103.6223
G3X243.5924Y103.6226I-0.1502J-0.9887
G1 X241.1482 Y103.989
G1 X241.1477
G1 X240.6893 Y104.0575
G1 X240.689
G1 X237.2566 Y104.5741
G1 X235.5421 Y104.8393
G1 X234.687 Y104.9745
G1 X233.8318 Y105.1122
G1 X233.2075 Y105.2143
G1 X232.6031 Y105.3146
G1 X231.4309 Y105.5124
G1 X230.3325 Y105.7016
G1 X229.8182 Y105.7913
G1 X229.3204 Y105.8787
G1 X227.3873 Y106.2235
G1 X226.5427 Y106.3763
G1 X225.7505 Y106.5205
G1 X224.2645 Y106.7931
G1 X222.9642 Y107.033
G1 X221.828 Y107.2431
G3X221.3292Y107.3354I-12.1876J-64.4817
G3X220.8617Y107.4218I-7.2797J-38.0569
G3X220.4236Y107.5028I-5.6585J-29.3958
G3X220.0129Y107.5786I-4.7654J-24.6651
G3X219.6278Y107.6496I-4.1736J-21.5577
G3X219.2667Y107.7161I-3.7411J-19.3066
G3X218.9282Y107.7783I-3.4051J-17.5722
G3X218.6108Y107.8366I-3.1332J-16.1791
G3X218.3132Y107.8911I-2.9065J-15.025
G3X218.0291Y107.943I-2.7131J-14.0466
G3X213.8448Y108.6933I-115.6135J-632.7156
G1 X213.8441 Y108.6934
G3X211.3436Y109.1235I-71.167J-406.2503
G3X206.9648Y109.845I-89.507J-529.5808
G3X206.9638Y109.8452I-0.1585J-0.9874
G1 X205.3234 Y110.1068
G3X205.3213Y110.1071I-0.1575J-0.9875
G1 X203.8855 Y110.333
G3X203.8832Y110.3333I-0.1554J-0.9879
G1 X201.3696 Y110.7226
G3X201.3675Y110.7229I-0.1531J-0.9882
G1 X199.4818 Y111.011
G3X199.4802Y111.0112I-0.151J-0.9885
G1 X196.6534 Y111.4385
G3X196.296Y111.4923I-4.8627J-31.0989
G3X195.9873Y111.5387I-4.8364J-31.1196
G3X195.4442Y111.6203I-7.0558J-45.1209
G3X195.0387Y111.6812I-6.9894J-45.1777
G3X194.4284Y111.7727I-10.6069J-68.6113
G3X193.8184Y111.8642I-18.1939J-119.2161
G1 X190.9096 Y112.2993
G3X190.9085Y112.2995I-0.1479J-0.989
G1 X190.2718 Y112.3939
G3X190.2708Y112.3941I-0.1468J-0.9892
G1 X189.0372 Y112.5759
G1 X189.0363 Y112.576
G1 X188.8921 Y112.5971
G3X179.6813Y113.8657I-72.2098J-490.2319
G3X179.6795Y113.8659I-0.1271J-0.9919
G1 X178.5288 Y114.0114
G3X178.5269Y114.0116I-0.1254J-0.9921
G3X170.446Y114.9526I-63.3932J-509.2552
G1 X170.4454
G1 X169.8736 Y115.0143
G3X169.8721Y115.0145I-0.1072J-0.9942
G1 X168.7463 Y115.1342
G3X168.7436Y115.1344I-0.1057J-0.9944
G1 X166.5616 Y115.3605
G3X166.5596Y115.3607I-0.1031J-0.9947
G1 X166.0481 Y115.4127
G1 X166.0472 Y115.4128
G3X157.9777Y116.1879I-88.5536J-879.4858
G1 X157.9768 Y116.188
G1 X156.4647 Y116.325
G3X156.4635Y116.3251I-0.0902J-0.9959
G1 X145.1067 Y117.2824
G1 X145.1062
G1 X144.3967 Y117.3383
G3X144.3952Y117.3384I-0.0785J-0.9969
G1 X141.7343 Y117.5438
G3X141.7326Y117.544I-0.077J-0.997
G1 X140.7346 Y117.6194
G1 X140.734
G1 X140.2973 Y117.6521
G1 X140.2969 Y117.6522
G1 X139.8875 Y117.6827
G1 X139.8867 Y117.6828
G1 X138.3515 Y117.7959
G1 X138.3507
G1 X138.0628 Y117.8169
G3X138.0617Y117.817I-0.0727J-0.9974
G1 X135.9026 Y117.9719
G3X135.9006Y117.972I-0.0716J-0.9974
G1 X133.7412 Y118.1226
G3X133.7395Y118.1228I-0.0696J-0.9976
G1 X132.3868 Y118.2149
G3X132.3849Y118.215I-0.068J-0.9977
G1 X129.7635 Y118.3887
G3X129.7622I-0.0661J-0.9978
G1 X129.4549 Y118.4087
G3X129.4536Y118.4088I-0.0647J-0.9979
G1 X127.0149 Y118.5637
G3X127.0132Y118.5638I-0.0634J-0.998
G1 X125.8699 Y118.6345
G3X125.8683Y118.6346I-0.0617J-0.9981
G1 X123.653 Y118.7681
G3X123.6515Y118.7682I-0.0601J-0.9982
G1 X122.6129 Y118.8291
G1 X122.6122 Y118.8292
G1 X106.4949 Y119.6542
G1 X106.4945
G1 X104.4809 Y119.7427
G3X104.4795Y119.7428I-0.0439J-0.999
G1 X102.7175 Y119.8179
G3X102.7159Y119.818I-0.0426J-0.9991
G1 X99.632 Y119.9446
G3X99.6309I-0.041J-0.9992
G1 X99.0526 Y119.9677
G1 X99.0521
G1 X97.9678 Y120.0104
G1 X97.9672 Y120.0105
G1 X97.0185 Y120.0473
G3X97.0173I-0.0388J-0.9992
G1 X93.6966 Y120.1721
G1 X93.6956
G1 X93.488 Y120.1797
G1 X93.4872
G1 X90.374 Y120.2911
G3X90.3729I-0.0357J-0.9994
G1 X89.1754 Y120.3327
G1 X89.1749
G1 X87.996 Y120.373
G1 X87.9954
G1 X86.835 Y120.4119
G1 X86.8344
G1 X85.6921 Y120.4495
G1 X85.6915 Y120.4496
G1 X84.567 Y120.486
G1 X84.5666
G1 X84.0131 Y120.5036
G1 X84.0124 Y120.5037
G1 X81.8158 Y120.5722
G1 X81.8151 Y120.5723
G1 X81.2831 Y120.5885
G1 X81.2827
G1 X80.227 Y120.6203
G1 X80.2265
G1 X79.1872 Y120.6511
G1 X79.1869
G1 X78.6753 Y120.666
G1 X78.675
G1 X78.1675 Y120.6807
G3X78.1664I-0.0289J-0.9996
G1 X74.1383 Y120.7928
G3X72.247Y120.8428I-13.9296J-490.9892
G1 X71.7903 Y120.8547
G1 X71.7895
G1 X68.1592 Y120.9456
G3X68.1578I-0.025J-0.9997
G1 X64.7543 Y121.026
G1 X64.7534
G1 X63.1579 Y121.0621
G1 X63.1571 Y121.0622
G1 X60.066 Y121.1297
G1 X60.0652
G1 X58.6161 Y121.1602
G1 X58.6158
G1 X57.9139 Y121.1748
G1 X57.9137
G1 X57.224 Y121.1889
G3X56.5408Y121.2028I-2.8133J-121.658
G1 X55.203 Y121.2296
G1 X55.2021
G1 X50.0136 Y121.3288
G3X50.0123I-0.0191J-0.9998
G1 X45.4722 Y121.41
G1 X45.4716
G1 X45.3474 Y121.4122
G1 X45.347
G1 X41.3898 Y121.4791
G1 X41.3891
G1 X37.9265 Y121.5351
G1 X37.9261
G1 X37.1686 Y121.5471
G1 X37.168
G1 X31.2978 Y121.6364
G1 X31.297
G1 X26.8943 Y121.6999
G1 X26.8939
G1 X26.0683 Y121.7115
G1 X26.0682
G1 X25.2943 Y121.7222
G1 X25.2939
G1 X19.4895 Y121.8006
G1 X19.489
G1 X16.5867 Y121.8383
G1 X16.5864
G1 X13.6842 Y121.875
G3X12.6716Y120.8751I-0.0127J-0.9999
G1 Y5.8751
G3X13.6843Y4.8752I1.0J0.0
G1 X18.4767 Y4.9363
G1 X18.4773
G1 X22.9701 Y4.996
G1 X22.9705
G1 X25.0765 Y5.0249
G1 X25.0769
G1 X29.1573 Y5.0825
G1 X29.1579 Y5.0826
G1 X32.9831 Y5.1388
G1 X32.9837
G1 X36.5699 Y5.1937
G1 X36.5705
G1 X39.9325 Y5.2472
G1 X39.933
G1 X41.509 Y5.273
G1 X41.5093
G1 X43.0359 Y5.2985
G1 X48.9534 Y5.402
G1 X48.9539
G1 X54.1301 Y5.4994
G1 X54.1309 Y5.4995
G1 X55.2632 Y5.5217
G1 X55.2637 Y5.5218
G1 X57.4575 Y5.566
G1 X57.458
G1 X58.4863 Y5.5872
G1 X58.4871
G1 X62.4696 Y5.6727
G3X62.9112Y5.6825I-0.7265J42.6634
G1 X64.6248 Y5.7212
G1 X64.6257
G1 X67.8432 Y5.7969
G1 X67.8441
G1 X69.2325 Y5.8309
G3X69.3347Y5.8329I0.0147J1.8654
G3X69.4365Y5.8359I-0.0051J1.8638
G1 X72.036 Y5.9018
G1 X72.0363
G1 X90.3733 Y6.459
G1 X90.3734
G1 X91.0509 Y6.4828
G1 X91.0514 Y6.4829
G1 X92.3853 Y6.5304
G1 X92.386 Y6.5305
G1 X93.6782 Y6.5774
G3X93.6792I-0.0363J0.9993
G1 X96.1689 Y6.6704
G3X96.2568Y6.6734I-0.0283J2.0923
G3X96.3445Y6.6771I-0.043J2.0913
G1 X98.6684 Y6.7672
G3X98.6695Y6.7673I-0.0388J0.9992
G1 X99.7653 Y6.8109
G3X99.7663I-0.0398J0.9992
G1 X101.8892 Y6.8976
G3X101.8906Y6.8977I-0.0408J0.9992
G1 X103.8807 Y6.9816
G1 X103.8817
G1 X104.8146 Y7.0219
G1 X104.8151
G1 X105.267 Y7.0416
G1 X105.2673 Y7.0417
G1 X105.7121 Y7.0612
G1 X105.7129
G1 X107.4487 Y7.1389
G3X107.5677Y7.1439I-0.0416J2.4058
G3X107.67Y7.1486I-0.0582J2.4043
G3X107.772Y7.1533I-0.0586J2.4032
G3X107.8894Y7.159I-0.0589J2.4021
G1 X109.4902 Y7.2332
G3X109.492I-0.0463J0.9989
G1 X112.522 Y7.3791
G3X112.5238Y7.3792I-0.0481J0.9988
G1 X113.8493 Y7.4453
G3X113.8504Y7.4454I-0.0498J0.9988
G1 X115.093 Y7.5087
G3X115.094Y7.5088I-0.0509J0.9987
G1 X116.2589 Y7.5694
G3X116.2604I-0.0519J0.9987
G1 X118.4444 Y7.6862
G1 X118.4451 Y7.6863
G1 X126.0945 Y8.1294
G1 X126.0953 Y8.1295
G1 X128.0052 Y8.2487
G3X128.0075Y8.2488I-0.0623J0.9981
G1 X130.8721 Y8.4341
G3X130.8741Y8.4343I-0.0645J0.9979
G1 X132.3011 Y8.5295
G3X132.4869Y8.542I-0.5071J8.9341
G3X132.642Y8.5524I-0.5333J9.0363
G3X132.9188Y8.5712I-0.747J13.0542
G3X133.1239Y8.5852I-0.8265J13.6363
G3X133.7431Y8.6276I-3.0979J49.7671
G1 X152.1047 Y10.0432
G3X152.1058Y10.0433I-0.0852J0.9964
G1 X154.3963 Y10.2416
G3X155.4043Y10.3305I-10.8122J128.3437
G1 X157.2826 Y10.4989
G3X157.284Y10.4991I-0.0893J0.996
G1 X158.1062 Y10.574
G3X158.1074Y10.5741I-0.0907J0.9959
G1 X159.6488 Y10.7164
G3X159.65Y10.7165I-0.092J0.9958
G1 X160.3243 Y10.7796
G3X160.3254Y10.7797I-0.0932J0.9957
G1 X161.5895 Y10.8994
G3X161.5906Y10.8995I-0.0943J0.9955
G1 X162.1436 Y10.9525
G1 X162.1445 Y10.9526
G1 X163.1813 Y11.0529
G3X163.1825Y11.053I-0.0963J0.9954
G1 X164.0897 Y11.1419
G3X164.0908Y11.142I-0.0975J0.9952
G1 X164.8843 Y11.2206
G1 X164.8853 Y11.2207
G1 X165.5797 Y11.2902
G1 X165.5806 Y11.2903
G1 X166.1881 Y11.3516
G3X166.1901Y11.3518I-0.1005J0.9949
G1 X168.3158 Y11.5708
G3X168.3192Y11.5711I-0.1025J0.9947
G1 X170.4375 Y11.7967
G3X170.6299Y11.8174I-0.6352J6.7867
G3X170.8171Y11.8379I-0.7139J7.3964
G3X173.6956Y12.1597I-41.5718J384.8641
G1 X174.0101 Y12.1959
G3X174.0117Y12.1961I-0.1142J0.9935
G1 X175.2507 Y12.3405
G3X175.2523Y12.3407I-0.1158J0.9933
G3X184.5513Y13.5334I-55.2371J467.5351
G3X184.5527Y13.5335I-0.1371J0.9906
G1 X185.7109 Y13.6955
G3X185.7139Y13.6959I-0.1385J0.9904
G1 X187.7398 Y13.9853
G3X187.7427Y13.9857I-0.1414J0.9899
G1 X188.3682 Y14.0769
G1 F300.0 Z-2.0
G1 F1500.0 X189.2615 Y14.2072
G3X189.2638Y14.2075I-0.1443J0.9895
G1 X191.5412 Y14.5449
G3X191.5427Y14.5452I-0.1466J0.9892
G1 X193.8197 Y14.8861
G1 X193.8201 Y14.8862
G1 X196.3232 Y15.262
G1 X196.3239 Y15.2621
G1 X198.5139 Y15.5924
G3X198.515Y15.5926I-0.1491J0.9888
G1 X200.431 Y15.8838
G3X200.4324Y15.884I-0.1503J0.9886
G1 X202.1085 Y16.1413
G3X202.11Y16.1415I-0.1517J0.9884
G1 X203.5762 Y16.3689
G3X203.5778Y16.3692I-0.1533J0.9882
G1 X204.8604 Y16.5702
G3X204.8628Y16.5706I-0.1549J0.9879
G1 X207.1066 Y16.9279
G3X207.109Y16.9283I-0.1573J0.9876
G1 X207.95 Y17.0644
G3X207.9514Y17.0646I-0.1597J0.9872
G1 X208.6872 Y17.1846
G3X208.6884Y17.1848I-0.161J0.987
G1 X209.3321 Y17.2906
G3X209.3332Y17.2908I-0.1622J0.9868
G1 X209.8964 Y17.384
G3X209.8979Y17.3843I-0.1633J0.9866
G1 X210.883 Y17.5489
G3X210.8855Y17.5494I-0.1648J0.9863
G1 X212.3627 Y17.8002
G3X212.366Y17.8007I-0.1674J0.9859
G1 X213.8422 Y18.0564
G3X213.8454Y18.057I-0.1707J0.9853
G1 X215.096 Y18.2777
G3X215.0979Y18.278I-0.1738J0.9848
G1 X215.6839 Y18.3826
G1 X215.6843 Y18.3827
G3X220.229Y19.2115I-119.5236J668.2948
G1 X221.9298 Y19.5259
G3X221.9331Y19.5265I-0.1818J0.9833
G2X222.2988Y19.5941I10.4092J-55.2475
G3X222.3069Y19.5956I-0.1786J0.9839
G2X222.6575Y19.6605I6.6145J-34.7861
G3X222.6685Y19.6625I-0.1769J0.9842
G2X223.0056Y19.7248I5.1964J-27.1692
G3X223.0108Y19.7258I-0.1757J0.9844
G1 X225.7178 Y20.2236
G3X225.7269Y20.2254I-0.1809J0.9835
G2X225.9599Y20.2679I2.1271J-10.995
G3X225.9806Y20.2717I-0.1691J0.9856
G2X226.2054Y20.3126I2.0224J-10.4633
G3X226.2263Y20.3164I-0.1687J0.9857
G2X226.4433Y20.3559I1.9277J-9.9841
G3X226.4644Y20.3597I-0.1682J0.9857
G2X226.6737Y20.3977I1.8414J-9.5489
G3X226.695Y20.4016I-0.1678J0.9858
G2X226.897Y20.4382I1.7623J-9.1513
G3X226.9184Y20.442I-0.1674J0.9859
G2X227.1133Y20.4773I1.6894J-8.7859
G3X227.1348Y20.4812I-0.167J0.986
G2X227.3228Y20.5151I1.6218J-8.4482
G3X227.3444Y20.519I-0.1667J0.986
G2X227.5258Y20.5517I1.559J-8.135
G3X227.5474Y20.5556I-0.1663J0.9861
G2X227.7225Y20.587I1.5003J-7.8432
G3X227.7441Y20.5909I-0.166J0.9861
G2X227.9131Y20.6212I1.4454J-7.5704
G3X227.9346Y20.6251I-0.1656J0.9862
G2X228.0976Y20.6543I1.3938J-7.3144
G3X228.1192Y20.6581I-0.1653J0.9862
G2X228.2765Y20.6863I1.3452J-7.0736
G3X228.298Y20.6901I-0.165J0.9863
G2X228.4497Y20.7172I1.2993J-6.8463
G3X228.4711Y20.721I-0.1647J0.9863
G2X228.6176Y20.747I1.2559J-6.6315
G3X228.6389Y20.7508I-0.1644J0.9864
G2X228.7802Y20.7759I1.2147J-6.4279
G3X228.8014Y20.7797I-0.1641J0.9864
G2X228.9378Y20.8039I1.1756J-6.2343
G3X228.9589Y20.8076I-0.1638J0.9865
G2X229.0904Y20.8309I1.1384J-6.05
G3X229.1033Y20.8331I-0.1635J0.9865
G2X230.281Y21.0396I27.9956J-156.1867
G3X230.297Y21.0425I-0.169J0.9856
G2X230.4914Y21.0762I1.2895J-6.8525
G3X230.5184Y21.0809I-0.1571J0.9876
G2X230.6996Y21.1123I1.2216J-6.5226
G3X230.7108Y21.1141I-0.1568J0.9876
G1 X232.2745 Y21.3806
G3X232.2861Y21.3826I-0.168J0.9858
G2X232.4531Y21.4106I1.0495J-5.7475
G3X232.4649Y21.4125I-0.151J0.9885
G1 X233.8344 Y21.6384
G3X233.8443Y21.6401I-0.1628J0.9867
G2X233.9883Y21.6635I0.9881J-5.637
G3X233.9995Y21.6652I-0.1475J0.9891
G1 X234.6704 Y21.773
G1 X234.9946 Y21.8245
G1 X235.3139 Y21.875
G1 X235.9436 Y21.9736
G1 X236.2478 Y22.0209
G1 X237.45 Y22.2055
G1 X238.0131 Y22.2911
G1 X239.1058 Y22.4558
G1 X241.1565 Y22.7624
G1 X241.1566
G1 X241.1564
G1 X241.1565
G1 X242.0539 Y22.8965
G1 X242.0547 Y22.8966
G1 X243.7373 Y23.1494
G3X243.7392Y23.1497I-0.1486J0.9889
G1 X245.211 Y23.3736
G3X245.2127Y23.3739I-0.1504J0.9886
G1 X245.8565 Y23.473
G3X245.8584Y23.4733I-0.1522J0.9884
G1 X247.0651 Y23.6614
G1 X247.0656 Y23.6615
G3X251.297Y24.3518I-50.6338J323.6746
G3X251.2986Y24.3521I-0.1675J0.9859
G1 X252.3518 Y24.5327
G3X252.3549Y24.5333I-0.169J0.9856
G1 X253.1443 Y24.6712
G3X253.1462Y24.6715I-0.1721J0.9851
G1 X253.4422 Y24.7238
G3X253.4445Y24.7242I-0.174J0.9847
G1 X254.4799 Y24.9097
G3X254.4836Y24.9104I-0.1763J0.9843
G1 X255.5183 Y25.0997
G3X255.5207Y25.1002I-0.18J0.9837
G1 X255.8212 Y25.156
G3X255.8238Y25.1564I-0.1825J0.9832
G1 X257.0157 Y25.3808
G3X257.0194Y25.3815I-0.185J0.9827
G1 X258.1733 Y25.6032
G3X258.1756Y25.6037I-0.1887J0.982
G1 X258.7343 Y25.7124
G3X258.7363Y25.7128I-0.191J0.9816
G1 X259.8358 Y25.929
G3X259.8371Y25.9293I-0.193J0.9812
G1 X259.9037 Y25.9425
G1 X259.9038
G1 X259.9702 Y25.9557
G1 X259.9709 Y25.9558
G3X264.2159Y26.8133I-143.6425J722.0202
G1 X264.2165 Y26.8135
G1 X266.0698 Y27.1946
G3X266.0712Y27.1949I-0.2015J0.9795
G1 X269.5452 Y27.9146
G1 X269.5456 Y27.9147
G1 X275.624 Y29.1767
G1 X280.1832 Y30.1181
G1 X281.0379 Y30.2937
G1 X281.4384 Y30.376
G1 X284.5453 Y31.0116
G1 X286.8743 Y31.4855
G1 X290.3708 Y32.1925
G1 X293.8684 Y32.8946
G3X294.6716Y33.8751I-0.1968J0.9804
G1 Y92.8751
G3X293.8682Y93.8556I-1.0J0.0
G1 X291.4711 Y94.3362
G1 X282.4906 Y96.1585
G1 X279.1236 Y96.8503
G1 X276.1784 Y97.4587
G1 X273.6014 Y97.993
G1 X269.0914 Y98.9298
G1 X269.091 Y98.9299
G1 X267.3995 Y99.2806
G1 X267.3989 Y99.2808
G1 X265.9187 Y99.5867
G3X265.9173Y99.587I-0.2024J-0.9793
G1 X263.3261 Y100.1187
G3X263.3237Y100.1192I-0.201J-0.9796
G1 X261.3793 Y100.513
G3X261.3766Y100.5136I-0.1985J-0.9801
G1 X259.9176 Y100.8049
G3X259.9156Y100.8053I-0.1958J-0.9806
G1 X259.3681 Y100.9134
G3X259.367Y100.9137I-0.1938J-0.981
G1 X258.8879 Y101.0077
G3X258.8863Y101.0081I-0.1927J-0.9813
G1 X258.0476 Y101.1713
G3X255.5195Y101.6502I-49.0432J-251.9847
G3X255.5177Y101.6505I-0.1812J-0.9834
G1 X254.1686 Y101.8966
G3X254.1657Y101.8972I-0.1795J-0.9838
G1 X253.8492 Y101.9539
G3X253.8465Y101.9544I-0.1765J-0.9843
G1 X252.6001 Y102.1743
G3X252.598Y102.1747I-0.1737J-0.9848
G3X251.4248Y102.3766I-51.5934J-296.2285
G3X251.423Y102.3769I-0.1677J-0.9858
G1 X250.3262 Y102.5615
G3X250.3229Y102.562I-0.166J-0.9861
G1 X249.294 Y102.7317
G3X249.2918Y102.732I-0.1627J-0.9867
G1 X248.8093 Y102.8105
G3X248.8073Y102.8108I-0.1605J-0.987
G1 X247.8723 Y102.961
G3X247.8708Y102.9612I-0.1586J-0.9874
G1 X247.6515 Y102.9961
G1 X247.651
G1 X247.4351 Y103.0304
G3X247.4339Y103.0306I-0.1565J-0.9877
G1 X246.584 Y103.1641
G3X246.5822Y103.1644I-0.1552J-0.9879
G1 X245.7851 Y103.2882
G3X245.7836Y103.2884I-0.1534J-0.9882
G1 X245.0485 Y103.4014
G3X244.9785Y103.4121I-0.2891J-1.6564
G1 X243.5943 Y103.6223
G3X243.5924Y103.6226I-0.1502J-0.9887
G1 X241.1482 Y103.989
G1 X241.1477
G1 X240.6893 Y104.0575
G1 X240.689
G1 X237.2566 Y104.5741
G1 X235.5421 Y104.8393
G1 X234.687 Y104.9745
G1 X233.8318 Y105.1122
G1 X233.2075 Y105.2143
G1 X232.6031 Y105.3146
G1 X231.4309 Y105.5124
G1 X230.3325 Y105.7016
G1 X229.8182 Y105.7913
G1 X229.3204 Y105.8787
G1 X227.3873 Y106.2235
G1 X226.5427 Y106.3763
G1 X225.7505 Y106.5205
G1 X224.2645 Y106.7931
G1 X222.9642 Y107.033
G1 X221.828 Y107.2431
G3X221.3292Y107.3354I-12.1876J-64.4817
G3X220.8617Y107.4218I-7.2797J-38.0569
G3X220.4236Y107.5028I-5.6585J-29.3958
G3X220.0129Y107.5786I-4.7654J-24.6651
G3X219.6278Y107.6496I-4.1736J-21.5577
G3X219.2667Y107.7161I-3.7411J-19.3066
G3X218.9282Y107.7783I-3.4051J-17.5722
G3X218.6108Y107.8366I-3.1332J-16.1791
G3X218.3132Y107.8911I-2.9065J-15.025
G3X218.0291Y107.943I-2.7131J-14.0466
G3X213.8448Y108.6933I-115.6135J-632.7156
G1 X213.8441 Y108.6934
G3X211.3436Y109.1235I-71.167J-406.2503
G3X206.9648Y109.845I-89.507J-529.5808
G3X206.9638Y109.8452I-0.1585J-0.9874
G1 X205.3234 Y110.1068
G3X205.3213Y110.1071I-0.1575J-0.9875
G1 X203.8855 Y110.333
G3X203.8832Y110.3333I-0.1554J-0.9879
G1 X201.3696 Y110.7226
G3X201.3675Y110.7229I-0.1531J-0.9882
G1 X199.4818 Y111.011
G3X199.4802Y111.0112I-0.151J-0.9885
G1 X196.6534 Y111.4385
G3X196.296Y111.4923I-4.8627J-31.0989
G3X195.9873Y111.5387I-4.8364J-31.1196
G3X195.4442Y111.6203I-7.0558J-45.1209
G3X195.0387Y111.6812I-6.9894J-45.1777
G3X194.4284Y111.7727I-10.6069J-68.6113
G3X193.8184Y111.8642I-18.1939J-119.2161
G1 X190.9096 Y112.2993
G3X190.9085Y112.2995I-0.1479J-0.989
G1 X190.2718 Y112.3939
G3X190.2708Y112.3941I-0.1468J-0.9892
G1 X189.0372 Y112.5759
G1 X189.0363 Y112.576
G1 X188.8921 Y112.5971
G3X179.6813Y113.8657I-72.2098J-490.2319
G3X179.6795Y113.8659I-0.1271J-0.9919
G1 X178.5288 Y114.0114
G3X178.5269Y114.0116I-0.1254J-0.9921
G3X170.446Y114.9526I-63.3932J-509.2552
G1 X170.4454
G1 X169.8736 Y115.0143
G3X169.8721Y115.0145I-0.1072J-0.9942
G1 X168.7463 Y115.1342
G3X168.7436Y115.1344I-0.1057J-0.9944
G1 X166.5616 Y115.3605
G3X166.5596Y115.3607I-0.1031J-0.9947
G1 X166.0481 Y115.4127
G1 X166.0472 Y115.4128
G3X157.9777Y116.1879I-88.5536J-879.4858
G1 X157.9768 Y116.188
G1 X156.4647 Y116.325
G3X156.4635Y116.3251I-0.0902J-0.9959
G1 X145.1067 Y117.2824
G1 X145.1062
G1 X144.3967 Y117.3383
G3X144.3952Y117.3384I-0.0785J-0.9969
G1 X141.7343 Y117.5438
G3X141.7326Y117.544I-0.077J-0.997
G1 X140.7346 Y117.6194
G1 X140.734
G1 X140.2973 Y117.6521
G1 X140.2969 Y117.6522
G1 X139.8875 Y117.6827
G1 X139.8867 Y117.6828
G1 X138.3515 Y117.7959
G1 X138.3507
G1 X138.0628 Y117.8169
G3X138.0617Y117.817I-0.0727J-0.9974
G1 X135.9026 Y117.9719
G3X135.9006Y117.972I-0.0716J-0.9974
G1 X133.7412 Y118.1226
G3X133.7395Y118.1228I-0.0696J-0.9976
G1 X132.3868 Y118.2149
G3X132.3849Y118.215I-0.068J-0.9977
G1 X129.7635 Y118.3887
G3X129.7622I-0.0661J-0.9978
G1 X129.4549 Y118.4087
G3X129.4536Y118.4088I-0.0647J-0.9979
G1 X127.0149 Y118.5637
G3X127.0132Y118.5638I-0.0634J-0.998
G1 X125.8699 Y118.6345
G3X125.8683Y118.6346I-0.0617J-0.9981
G1 X123.653 Y118.7681
G3X123.6515Y118.7682I-0.0601J-0.9982
G1 X122.6129 Y118.8291
G1 X122.6122 Y118.8292
G1 X106.4949 Y119.6542
G1 X106.4945
G1 X104.4809 Y119.7427
G3X104.4795Y119.7428I-0.0439J-0.999
G1 X102.7175 Y119.8179
G3X102.7159Y119.818I-0.0426J-0.9991
G1 X99.632 Y119.9446
G3X99.6309I-0.041J-0.9992
G1 X99.0526 Y119.9677
G1 X99.0521
G1 X97.9678 Y120.0104
G1 X97.9672 Y120.0105
G1 X97.0185 Y120.0473
G3X97.0173I-0.0388J-0.9992
G1 X93.6966 Y120.1721
G1 X93.6956
G1 X93.488 Y120.1797
G1 X93.4872
G1 X90.374 Y120.2911
G3X90.3729I-0.0357J-0.9994
G1 X89.1754 Y120.3327
G1 X89.1749
G1 X87.996 Y120.373
G1 X87.9954
G1 X86.835 Y120.4119
G1 X86.8344
G1 X85.6921 Y120.4495
G1 X85.6915 Y120.4496
G1 X84.567 Y120.486
G1 X84.5666
G1 X84.0131 Y120.5036
G1 X84.0124 Y120.5037
G1 X81.8158 Y120.5722
G1 X81.8151 Y120.5723
G1 X81.2831 Y120.5885
G1 X81.2827
G1 X80.227 Y120.6203
G1 X80.2265
G1 X79.1872 Y120.6511
G1 X79.1869
G1 X78.6753 Y120.666
G1 X78.675
G1 X78.1675 Y120.6807
G3X78.1664I-0.0289J-0.9996
G1 X74.1383 Y120.7928
G3X72.247Y120.8428I-13.9296J-490.9892
G1 X71.7903 Y120.8547
G1 X71.7895
G1 X68.1592 Y120.9456
G3X68.1578I-0.025J-0.9997
G1 X64.7543 Y121.026
G1 X64.7534
G1 X63.1579 Y121.0621
G1 X63.1571 Y121.0622
G1 X60.066 Y121.1297
G1 X60.0652
G1 X58.6161 Y121.1602
G1 X58.6158
G1 X57.9139 Y121.1748
G1 X57.9137
G1 X57.224 Y121.1889
G3X56.5408Y121.2028I-2.8133J-121.658
G1 X55.203 Y121.2296
G1 X55.2021
G1 X50.0136 Y121.3288
G3X50.0123I-0.0191J-0.9998
G1 X45.4722 Y121.41
G1 X45.4716
G1 X45.3474 Y121.4122
G1 X45.347
G1 X41.3898 Y121.4791
G1 X41.3891
G1 X37.9265 Y121.5351
G1 X37.9261
G1 X37.1686 Y121.5471
G1 X37.168
G1 X31.2978 Y121.6364
G1 X31.297
G1 X26.8943 Y121.6999
G1 X26.8939
G1 X26.0683 Y121.7115
G1 X26.0682
G1 X25.2943 Y121.7222
G1 X25.2939
G1 X19.4895 Y121.8006
G1 X19.489
G1 X16.5867 Y121.8383
G1 X16.5864
G1 X13.6842 Y121.875
G3X12.6716Y120.8751I-0.0127J-0.9999
G1 Y5.8751
G3X13.6843Y4.8752I1.0J0.0
G1 X18.4767 Y4.9363
G1 X18.4773
G1 X22.9701 Y4.996
G1 X22.9705
G1 X25.0765 Y5.0249
G1 X25.0769
G1 X29.1573 Y5.0825
G1 X29.1579 Y5.0826
G1 X32.9831 Y5.1388
G1 X32.9837
G1 X36.5699 Y5.1937
G1 X36.5705
G1 X39.9325 Y5.2472
G1 X39.933
G1 X41.509 Y5.273
G1 X41.5093
G1 X43.0359 Y5.2985
G1 X48.9534 Y5.402
G1 X48.9539
G1 X54.1301 Y5.4994
G1 X54.1309 Y5.4995
G1 X55.2632 Y5.5217
G1 X55.2637 Y5.5218
G1 X57.4575 Y5.566
G1 X57.458
G1 X58.4863 Y5.5872
G1 X58.4871
G1 X62.4696 Y5.6727
G3X62.9112Y5.6825I-0.7265J42.6634
G1 X64.6248 Y5.7212
G1 X64.6257
G1 X67.8432 Y5.7969
G1 X67.8441
G1 X69.2325 Y5.8309
G3X69.3347Y5.8329I0.0147J1.8654
G3X69.4365Y5.8359I-0.0051J1.8638
G1 X72.036 Y5.9018
G1 X72.0363
G1 X90.3733 Y6.459
G1 X90.3734
G1 X91.0509 Y6.4828
G1 X91.0514 Y6.4829
G1 X92.3853 Y6.5304
G1 X92.386 Y6.5305
G1 X93.6782 Y6.5774
G3X93.6792I-0.0363J0.9993
G1 X96.1689 Y6.6704
G3X96.2568Y6.6734I-0.0283J2.0923
G3X96.3445Y6.6771I-0.043J2.0913
G1 X98.6684 Y6.7672
G3X98.6695Y6.7673I-0.0388J0.9992
G1 X99.7653 Y6.8109
G3X99.7663I-0.0398J0.9992
G1 X101.8892 Y6.8976
G3X101.8906Y6.8977I-0.0408J0.9992
G1 X103.8807 Y6.9816
G1 X103.8817
G1 X104.8146 Y7.0219
G1 X104.8151
G1 X105.267 Y7.0416
G1 X105.2673 Y7.0417
G1 X105.7121 Y7.0612
G1 X105.7129
G1 X107.4487 Y7.1389
G3X107.5677Y7.1439I-0.0416J2.4058
G3X107.67Y7.1486I-0.0582J2.4043
G3X107.772Y7.1533I-0.0586J2.4032
G3X107.8894Y7.159I-0.0589J2.4021
G1 X109.4902 Y7.2332
G3X109.492I-0.0463J0.9989
G1 X112.522 Y7.3791
G3X112.5238Y7.3792I-0.0481J0.9988
G1 X113.8493 Y7.4453
G3X113.8504Y7.4454I-0.0498J0.9988
G1 X115.093 Y7.5087
G3X115.094Y7.5088I-0.0509J0.9987
G1 X116.2589 Y7.5694
G3X116.2604I-0.0519J0.9987
G1 X118.4444 Y7.6862
G1 X118.4451 Y7.6863
G1 X126.0945 Y8.1294
G1 X126.0953 Y8.1295
G1 X128.0052 Y8.2487
G3X128.0075Y8.2488I-0.0623J0.9981
G1 X130.8721 Y8.4341
G3X130.8741Y8.4343I-0.0645J0.9979
G1 X132.3011 Y8.5295
G3X132.4869Y8.542I-0.5071J8.9341
G3X132.642Y8.5524I-0.5333J9.0363
G3X132.9188Y8.5712I-0.747J13.0542
G3X133.1239Y8.5852I-0.8265J13.6363
G3X133.7431Y8.6276I-3.0979J49.7671
G1 X152.1047 Y10.0432
G3X152.1058Y10.0433I-0.0852J0.9964
G1 X154.3963 Y10.2416
G3X155.4043Y10.3305I-10.8122J128.3437
G1 X157.2826 Y10.4989
G3X157.284Y10.4991I-0.0893J0.996
G1 X158.1062 Y10.574
G3X158.1074Y10.5741I-0.0907J0.9959
G1 X159.6488 Y10.7164
G3X159.65Y10.7165I-0.092J0.9958
G1 X160.3243 Y10.7796
G3X160.3254Y10.7797I-0.0932J0.9957
G1 X161.5895 Y10.8994
G3X161.5906Y10.8995I-0.0943J0.9955
G1 X162.1436 Y10.9525
G1 X162.1445 Y10.9526
G1 X163.1813 Y11.0529
G3X163.1825Y11.053I-0.0963J0.9954
G1 X164.0897 Y11.1419
G3X164.0908Y11.142I-0.0975J0.9952
G1 X164.8843 Y11.2206
G1 X164.8853 Y11.2207
G1 X165.5797 Y11.2902
G1 X165.5806 Y11.2903
G1 X166.1881 Y11.3516
G3X166.1901Y11.3518I-0.1005J0.9949
G1 X168.3158 Y11.5708
G3X168.3192Y11.5711I-0.1025J0.9947
G1 X170.4375 Y11.7967
G3X170.6299Y11.8174I-0.6352J6.7867
G3X170.8171Y11.8379I-0.7139J7.3964
G3X173.6956Y12.1597I-41.5718J384.8641
G1 X174.0101 Y12.1959
G3X174.0117Y12.1961I-0.1142J0.9935
G1 X175.2507 Y12.3405
G3X175.2523Y12.3407I-0.1158J0.9933
G3X184.5513Y13.5334I-55.2371J467.5351
G3X184.5527Y13.5335I-0.1371J0.9906
G1 X185.7109 Y13.6955
G3X185.7139Y13.6959I-0.1385J0.9904
G1 X187.7398 Y13.9853
G3X187.7427Y13.9857I-0.1414J0.9899
G1 X188.3682 Y14.0769
G1 F300.0 Z-3.0
G1 F1500.0 X189.2615 Y14.2072
G3X189.2638Y14.2075I-0.1443J0.9895
G1 X191.5412 Y14.5449
G3X191.5427Y14.5452I-0.1466J0.9892
G1 X193.8197 Y14.8861
G1 X193.8201 Y14.8862
G1 X196.3232 Y15.262
G1 X196.3239 Y15.2621
G1 X198.5139 Y15.5924
G3X198.515Y15.5926I-0.1491J0.9888
G1 X200.431 Y15.8838
G3X200.4324Y15.884I-0.1503J0.9886
G1 X202.1085 Y16.1413
G3X202.11Y16.1415I-0.1517J0.9884
G1 X203.5762 Y16.3689
G3X203.5778Y16.3692I-0.1533J0.9882
G1 X204.8604 Y16.5702
G3X204.8628Y16.5706I-0.1549J0.9879
G1 X207.1066 Y16.9279
G3X207.109Y16.9283I-0.1573J0.9876
G1 X207.95 Y17.0644
G3X207.9514Y17.0646I-0.1597J0.9872
G1 X208.6872 Y17.1846
G3X208.6884Y17.1848I-0.161J0.987
G1 X209.3321 Y17.2906
G3X209.3332Y17.2908I-0.1622J0.9868
G1 X209.8964 Y17.384
G3X209.8979Y17.3843I-0.1633J0.9866
G1 X210.883 Y17.5489
G3X210.8855Y17.5494I-0.1648J0.9863
G1 X212.3627 Y17.8002
G3X212.366Y17.8007I-0.1674J0.9859
G1 X213.8422 Y18.0564
G3X213.8454Y18.057I-0.1707J0.9853
G1 X215.096 Y18.2777
G3X215.0979Y18.278I-0.1738J0.9848
G1 X215.6839 Y18.3826
G1 X215.6843 Y18.3827
G3X220.229Y19.2115I-119.5236J668.2948
G1 X221.9298 Y19.5259
G3X221.9331Y19.5265I-0.1818J0.9833
G2X222.2988Y19.5941I10.4092J-55.2475
G3X222.3069Y19.5956I-0.1786J0.9839
G2X222.6575Y19.6605I6.6145J-34.7861
G3X222.6685Y19.6625I-0.1769J0.9842
G2X223.0056Y19.7248I5.1964J-27.1692
G3X223.0108Y19.7258I-0.1757J0.9844
G1 X225.7178 Y20.2236
G3X225.7269Y20.2254I-0.1809J0.9835
G2X225.9599Y20.2679I2.1271J-10.995
G3X225.9806Y20.2717I-0.1691J0.9856
G2X226.2054Y20.3126I2.0224J-10.4633
G3X226.2263Y20.3164I-0.1687J0.9857
G2X226.4433Y20.3559I1.9277J-9.9841
G3X226.4644Y20.3597I-0.1682J0.9857
G2X226.6737Y20.3977I1.8414J-9.5489
G3X226.695Y20.4016I-0.1678J0.9858
G2X226.897Y20.4382I1.7623J-9.1513
G3X226.9184Y20.442I-0.1674J0.9859
G2X227.1133Y20.4773I1.6894J-8.7859
G3X227.1348Y20.4812I-0.167J0.986
G2X227.3228Y20.5151I1.6218J-8.4482
G3X227.3444Y20.519I-0.1667J0.986
G2X227.5258Y20.5517I1.559J-8.135
G3X227.5474Y20.5556I-0.1663J0.9861
G2X227.7225Y20.587I1.5003J-7.8432
G3X227.7441Y20.5909I-0.166J0.9861
G2X227.9131Y20.6212I1.4454J-7.5704
G3X227.9346Y20.6251I-0.1656J0.9862
G2X228.0976Y20.6543I1.3938J-7.3144
G3X228.1192Y20.6581I-0.1653J0.9862
G2X228.2765Y20.6863I1.3452J-7.0736
G3X228.298Y20.6901I-0.165J0.9863
G2X228.4497Y20.7172I1.2993J-6.8463
G3X228.4711Y20.721I-0.1647J0.9863
G2X228.6176Y20.747I1.2559J-6.6315
G3X228.6389Y20.7508I-0.1644J0.9864
G2X228.7802Y20.7759I1.2147J-6.4279
G3X228.8014Y20.7797I-0.1641J0.9864
G2X228.9378Y20.8039I1.1756J-6.2343
G3X228.9589Y20.8076I-0.1638J0.9865
G2X229.0904Y20.8309I1.1384J-6.05
G3X229.1033Y20.8331I-0.1635J0.9865
G2X230.281Y21.0396I27.9956J-156.1867
G3X230.297Y21.0425I-0.169J0.9856
G2X230.4914Y21.0762I1.2895J-6.8525
G3X230.5184Y21.0809I-0.1571J0.9876
G2X230.6996Y21.1123I1.2216J-6.5226
G3X230.7108Y21.1141I-0.1568J0.9876
G1 X232.2745 Y21.3806
G3X232.2861Y21.3826I-0.168J0.9858
G2X232.4531Y21.4106I1.0495J-5.7475
G3X232.4649Y21.4125I-0.151J0.9885
G1 X233.8344 Y21.6384
G3X233.8443Y21.6401I-0.1628J0.9867
G2X233.9883Y21.6635I0.9881J-5.637
G3X233.9995Y21.6652I-0.1475J0.9891
G1 X234.6704 Y21.773
G1 X234.9946 Y21.8245
G1 X235.3139 Y21.875
G1 X235.9436 Y21.9736
G1 X236.2478 Y22.0209
G1 X237.45 Y22.2055
G1 X238.0131 Y22.2911
G1 X239.1058 Y22.4558
G1 X241.1565 Y22.7624
G1 X241.1566
G1 X241.1564
G1 X241.1565
G1 X242.0539 Y22.8965
G1 X242.0547 Y22.8966
G1 X243.7373 Y23.1494
G3X243.7392Y23.1497I-0.1486J0.9889
G1 X245.211 Y23.3736
G3X245.2127Y23.3739I-0.1504J0.9886
G1 X245.8565 Y23.473
G3X245.8584Y23.4733I-0.1522J0.9884
G1 X247.0651 Y23.6614
G1 X247.0656 Y23.6615
G3X251.297Y24.3518I-50.6338J323.6746
G3X251.2986Y24.3521I-0.1675J0.9859
G1 X252.3518 Y24.5327
G3X252.3549Y24.5333I-0.169J0.9856
G1 X253.1443 Y24.6712
G3X253.1462Y24.6715I-0.1721J0.9851
G1 X253.4422 Y24.7238
G3X253.4445Y24.7242I-0.174J0.9847
G1 X254.4799 Y24.9097
G3X254.4836Y24.9104I-0.1763J0.9843
G1 X255.5183 Y25.0997
G3X255.5207Y25.1002I-0.18J0.9837
G1 X255.8212 Y25.156
G3X255.8238Y25.1564I-0.1825J0.9832
G1 X257.0157 Y25.3808
G3X257.0194Y25.3815I-0.185J0.9827
G1 X258.1733 Y25.6032
G3X258.1756Y25.6037I-0.1887J0.982
G1 X258.7343 Y25.7124
G3X258.7363Y25.7128I-0.191J0.9816
G1 X259.8358 Y25.929
G3X259.8371Y25.9293I-0.193J0.9812
G1 X259.9037 Y25.9425
G1 X259.9038
G1 X259.9702 Y25.9557
G1 X259.9709 Y25.9558
G3X264.2159Y26.8133I-143.6425J722.0202
G1 X264.2165 Y26.8135
G1 X266.0698 Y27.1946
G3X266.0712Y27.1949I-0.2015J0.9795
G1 X268.3503 Y27.667
G1 X269.5452 Y27.9146 Z-2.1865
G1 X269.5456 Y27.9147 Z-2.1862
G1 X269.8191 Y27.9714 Z-2.0
G1 X271.7773 Y28.378
G1 X273.246 Y28.6829 Z-3.0
G1 X275.624 Y29.1767
G1 X280.1832 Y30.1181
G1 X281.0379 Y30.2937
G1 X281.4384 Y30.376
G1 X284.5453 Y31.0116
G1 X286.8743 Y31.4855
G1 X290.3708 Y32.1925
G1 X293.8684 Y32.8946
G3X294.6716Y33.8751I-0.1968J0.9804
G1 Y92.8751
G3X293.8682Y93.8556I-1.0J0.0
G1 X291.4711 Y94.3362
G1 X282.4906 Y96.1585
G1 X279.1236 Y96.8503
G1 X276.1784 Y97.4587
G1 X276.0491 Y97.4855
G1 X274.5804 Y97.79 Z-2.0
G1 X273.6014 Y97.993
G1 X272.6221 Y98.1964
G1 X271.1535 Y98.5015 Z-3.0
G1 X269.0914 Y98.9298
G1 X269.091 Y98.9299
G1 X267.3995 Y99.2806
G1 X267.3989 Y99.2808
G1 X265.9187 Y99.5867
G3X265.9173Y99.587I-0.2024J-0.9793
G1 X263.3261 Y100.1187
G3X263.3237Y100.1192I-0.201J-0.9796
G1 X261.3793 Y100.513
G3X261.3766Y100.5136I-0.1985J-0.9801
G1 X259.9176 Y100.8049
G3X259.9156Y100.8053I-0.1958J-0.9806
G1 X259.3681 Y100.9134
G3X259.367Y100.9137I-0.1938J-0.981
G1 X258.8879 Y101.0077
G3X258.8863Y101.0081I-0.1927J-0.9813
G1 X258.0476 Y101.1713
G3X255.5195Y101.6502I-49.0432J-251.9847
G3X255.5177Y101.6505I-0.1812J-0.9834
G1 X254.1686 Y101.8966
G3X254.1657Y101.8972I-0.1795J-0.9838
G1 X253.8492 Y101.9539
G3X253.8465Y101.9544I-0.1765J-0.9843
G1 X252.6001 Y102.1743
G3X252.598Y102.1747I-0.1737J-0.9848
G3X251.4248Y102.3766I-51.5934J-296.2285
G3X251.423Y102.3769I-0.1677J-0.9858
G1 X250.3262 Y102.5615
G3X250.3229Y102.562I-0.166J-0.9861
G1 X249.294 Y102.7317
G3X249.2918Y102.732I-0.1627J-0.9867
G1 X248.8093 Y102.8105
G3X248.8073Y102.8108I-0.1605J-0.987
G1 X247.8723 Y102.961
G3X247.8708Y102.9612I-0.1586J-0.9874
G1 X247.6515 Y102.9961
G1 X247.651
G1 X247.4351 Y103.0304
G3X247.4339Y103.0306I-0.1565J-0.9877
G1 X246.584 Y103.1641
G3X246.5822Y103.1644I-0.1552J-0.9879
G1 X245.7851 Y103.2882
G3X245.7836Y103.2884I-0.1534J-0.9882
G1 X245.0485 Y103.4014
G3X244.9785Y103.4121I-0.2891J-1.6564
G1 X243.5943 Y103.6223
G3X243.5924Y103.6226I-0.1502J-0.9887
G1 X241.1482 Y103.989
G1 X241.1477
G1 X240.6893 Y104.0575
G1 X240.689
G1 X237.2566 Y104.5741
G1 X235.5421 Y104.8393
G1 X234.687 Y104.9745
G1 X233.8318 Y105.1122
G1 X233.2075 Y105.2143
G1 X232.6031 Y105.3146
G1 X231.4309 Y105.5124
G1 X230.3325 Y105.7016
G1 X229.8182 Y105.7913
G1 X229.3204 Y105.8787
G1 X227.3873 Y106.2235
G1 X226.5427 Y106.3763
G1 X225.7505 Y106.5205
G1 X224.2645 Y106.7931
G1 X222.9642 Y107.033
G1 X221.828 Y107.2431
G3X221.3292Y107.3354I-12.1876J-64.4817
G3X220.8617Y107.4218I-7.2797J-38.0569
G3X220.4236Y107.5028I-5.6585J-29.3958
G3X220.0129Y107.5786I-4.7654J-24.6651
G3X219.6278Y107.6496I-4.1736J-21.5577
G3X219.2667Y107.7161I-3.7411J-19.3066
G3X218.9282Y107.7783I-3.4051J-17.5722
G3X218.6108Y107.8366I-3.1332J-16.1791
G3X218.3132Y107.8911I-2.9065J-15.025
G3X218.0291Y107.943I-2.7131J-14.0466
G3X213.8448Y108.6933I-115.6135J-632.7156
G1 X213.8441 Y108.6934
G3X211.3436Y109.1235I-71.167J-406.2503
G3X206.9648Y109.845I-89.507J-529.5808
G3X206.9638Y109.8452I-0.1585J-0.9874
G1 X205.3234 Y110.1068
G3X205.3213Y110.1071I-0.1575J-0.9875
G1 X203.8855 Y110.333
G3X203.8832Y110.3333I-0.1554J-0.9879
G1 X201.3696 Y110.7226
G3X201.3675Y110.7229I-0.1531J-0.9882
G1 X199.4818 Y111.011
G3X199.4802Y111.0112I-0.151J-0.9885
G1 X196.6534 Y111.4385
G3X196.296Y111.4923I-4.8627J-31.0989
G3X195.9873Y111.5387I-4.8364J-31.1196
G3X195.4442Y111.6203I-7.0558J-45.1209
G3X195.0387Y111.6812I-6.9894J-45.1777
G3X194.4284Y111.7727I-10.6069J-68.6113
G3X193.8184Y111.8642I-18.1939J-119.2161
G1 X190.9096 Y112.2993
G3X190.9085Y112.2995I-0.1479J-0.989
G1 X190.2718 Y112.3939
G3X190.2708Y112.3941I-0.1468J-0.9892
G1 X189.0372 Y112.5759
G1 X189.0363 Y112.576
G1 X188.8921 Y112.5971
G3X179.6813Y113.8657I-72.2098J-490.2319
G3X179.6795Y113.8659I-0.1271J-0.9919
G1 X178.5288 Y114.0114
G3X178.5269Y114.0116I-0.1254J-0.9921
G3X170.446Y114.9526I-63.3932J-509.2552
G1 X170.4454
G1 X169.8736 Y115.0143
G3X169.8721Y115.0145I-0.1072J-0.9942
G1 X168.7463 Y115.1342
G3X168.7436Y115.1344I-0.1057J-0.9944
G1 X166.5616 Y115.3605
G3X166.5596Y115.3607I-0.1031J-0.9947
G1 X166.0481 Y115.4127
G1 X166.0472 Y115.4128
G3X157.9777Y116.1879I-88.5536J-879.4858
G1 X157.9768 Y116.188
G1 X156.4647 Y116.325
G3X156.4635Y116.3251I-0.0902J-0.9959
G1 X155.2762 Y116.4305
G1 X153.7819 Y116.5615 Z-2.0
G1 X151.7893 Y116.7329
G1 X150.2946 Y116.8593 Z-3.0
G1 X145.1067 Y117.2824
G1 X145.1062
G1 X144.3967 Y117.3383
G3X144.3952Y117.3384I-0.0785J-0.9969
G1 X141.7343 Y117.5438
G3X141.7326Y117.544I-0.077J-0.997
G1 X140.7346 Y117.6194
G1 X140.734
G1 X140.2973 Y117.6521
G1 X140.2969 Y117.6522
G1 X139.8875 Y117.6827
G1 X139.8867 Y117.6828
G1 X138.3515 Y117.7959
G1 X138.3507
G1 X138.0628 Y117.8169
G3X138.0617Y117.817I-0.0727J-0.9974
G1 X135.9026 Y117.9719
G3X135.9006Y117.972I-0.0716J-0.9974
G1 X133.7412 Y118.1226
G3X133.7395Y118.1228I-0.0696J-0.9976
G1 X132.3868 Y118.2149
G3X132.3849Y118.215I-0.068J-0.9977
G1 X129.7635 Y118.3887
G3X129.7622I-0.0661J-0.9978
G1 X129.4549 Y118.4087
G3X129.4536Y118.4088I-0.0647J-0.9979
G1 X127.0149 Y118.5637
G3X127.0132Y118.5638I-0.0634J-0.998
G1 X125.8699 Y118.6345
G3X125.8683Y118.6346I-0.0617J-0.9981
G1 X123.653 Y118.7681
G3X123.6515Y118.7682I-0.0601J-0.9982
G1 X122.6129 Y118.8291
G1 X122.6122 Y118.8292
G1 X106.4949 Y119.6542
G1 X106.4945
G1 X104.4809 Y119.7427
G3X104.4795Y119.7428I-0.0439J-0.999
G1 X102.7175 Y119.8179
G3X102.7159Y119.818I-0.0426J-0.9991
G1 X99.632 Y119.9446
G3X99.6309I-0.041J-0.9992
G1 X99.0526 Y119.9677
G1 X99.0521
G1 X97.9678 Y120.0104
G1 X97.9672 Y120.0105
G1 X97.0185 Y120.0473
G3X97.0173I-0.0388J-0.9992
G1 X93.6966 Y120.1721
G1 X93.6956
G1 X93.488 Y120.1797
G1 X93.4872
G1 X90.374 Y120.2911
G3X90.3729I-0.0357J-0.9994
G1 X89.1754 Y120.3327
G1 X89.1749
G1 X87.996 Y120.373
G1 X87.9954
G1 X86.835 Y120.4119
G1 X86.8344
G1 X85.6921 Y120.4495
G1 X85.6915 Y120.4496
G1 X84.567 Y120.486
G1 X84.5666
G1 X84.0131 Y120.5036
G1 X84.0124 Y120.5037
G1 X81.8158 Y120.5722
G1 X81.8151 Y120.5723
G1 X81.2831 Y120.5885
G1 X81.2827
G1 X80.227 Y120.6203
G1 X80.2265
G1 X79.1872 Y120.6511
G1 X79.1869
G1 X78.6753 Y120.666
G1 X78.675
G1 X78.1675 Y120.6807
G3X78.1664I-0.0289J-0.9996
G1 X74.1383 Y120.7928
G3X72.247Y120.8428I-13.9296J-490.9892
G1 X71.7903 Y120.8547
G1 X71.7895
G1 X68.1592 Y120.9456
G3X68.1578I-0.025J-0.9997
G1 X64.7543 Y121.026
G1 X64.7534
G1 X63.1579 Y121.0621
G1 X63.1571 Y121.0622
G1 X60.066 Y121.1297
G1 X60.0652
G1 X58.6161 Y121.1602
G1 X58.6158
G1 X57.9139 Y121.1748
G1 X57.9137
G1 X57.224 Y121.1889
G3X56.5408Y121.2028I-2.8133J-121.658
G1 X55.203 Y121.2296
G1 X55.2021
G1 X50.0136 Y121.3288
G3X50.0123I-0.0191J-0.9998
G1 X45.4722 Y121.41
G1 X45.4716
G1 X45.3474 Y121.4122
G1 X45.347
G1 X41.3898 Y121.4791
G1 X41.3891
G1 X37.9265 Y121.5351
G1 X37.9261
G1 X37.1686 Y121.5471
G1 X37.168
G1 X32.3287 Y121.6207
G1 X31.2978 Y121.6364 Z-2.3127
G1 X31.297 Z-2.3122
G1 X30.8288 Y121.6432 Z-2.0
G1 X28.829 Y121.672
G1 X27.3292 Y121.6936 Z-3.0
G1 X26.8943 Y121.6999
G1 X26.8939
G1 X26.0683 Y121.7115
G1 X26.0682
G1 X25.2943 Y121.7222
G1 X25.2939
G1 X19.4895 Y121.8006
G1 X19.489
G1 X16.5867 Y121.8383
G1 X16.5864
G1 X13.6842 Y121.875
G3X12.6716Y120.8751I-0.0127J-0.9999
G1 Y5.8751
G3X13.6843Y4.8752I1.0J0.0
G1 X18.4767 Y4.9363
G1 X18.4773
G1 X22.9701 Y4.996
G1 X22.9705
G1 X25.0765 Y5.0249
G1 X25.0769
G1 X26.3907 Y5.0435
G1 X27.8905 Y5.0646 Z-2.0
G1 X29.1573 Y5.0825
G1 X29.1579 Y5.0826
G1 X29.8903 Y5.0933
G1 X31.3901 Y5.1154 Z-3.0
G1 X32.9831 Y5.1388
G1 X32.9837
G1 X36.5699 Y5.1937
G1 X36.5705
G1 X39.9325 Y5.2472
G1 X39.933
G1 X41.509 Y5.273
G1 X41.5093
G1 X43.0359 Y5.2985
G1 X48.9534 Y5.402
G1 X48.9539
G1 X54.1301 Y5.4994
G1 X54.1309 Y5.4995
G1 X55.2632 Y5.5217
G1 X55.2637 Y5.5218
G1 X57.4575 Y5.566
G1 X57.458
G1 X58.4863 Y5.5872
G1 X58.4871
G1 X62.4696 Y5.6727
G3X62.9112Y5.6825I-0.7265J42.6634
G1 X64.6248 Y5.7212
G1 X64.6257
G1 X67.8432 Y5.7969
G1 X67.8441
G1 X69.2325 Y5.8309
G3X69.3347Y5.8329I0.0147J1.8654
G3X69.4365Y5.8359I-0.0051J1.8638
G1 X72.036 Y5.9018
G1 X72.0363
G1 X90.3733 Y6.459
G1 X90.3734
G1 X91.0509 Y6.4828
G1 X91.0514 Y6.4829
G1 X92.3853 Y6.5304
G1 X92.386 Y6.5305
G1 X93.6782 Y6.5774
G3X93.6792I-0.0363J0.9993
G1 X96.1689 Y6.6704
G3X96.2568Y6.6734I-0.0283J2.0923
G3X96.3445Y6.6771I-0.043J2.0913
G1 X98.6684 Y6.7672
G3X98.6695Y6.7673I-0.0388J0.9992
G1 X99.7653 Y6.8109
G3X99.7663I-0.0398J0.9992
G1 X101.8892 Y6.8976
G3X101.8906Y6.8977I-0.0408J0.9992
G1 X103.8807 Y6.9816
G1 X103.8817
G1 X104.8146 Y7.0219
G1 X104.8151
G1 X105.267 Y7.0416
G1 X105.2673 Y7.0417
G1 X105.7121 Y7.0612
G1 X105.7129
G1 X107.4487 Y7.1389
G3X107.5677Y7.1439I-0.0416J2.4058
G3X107.67Y7.1486I-0.0582J2.4043
G3X107.772Y7.1533I-0.0586J2.4032
G3X107.8894Y7.159I-0.0589J2.4021
G1 X109.4902 Y7.2332
G3X109.492I-0.0463J0.9989
G1 X112.522 Y7.3791
G3X112.5238Y7.3792I-0.0481J0.9988
G1 X113.8493 Y7.4453
G3X113.8504Y7.4454I-0.0498J0.9988
G1 X115.093 Y7.5087
G3X115.094Y7.5088I-0.0509J0.9987
G1 X116.2589 Y7.5694
G3X116.2604I-0.0519J0.9987
G1 X118.4444 Y7.6862
G1 X118.4451 Y7.6863
G1 X126.0945 Y8.1294
G1 X126.0953 Y8.1295
G1 X128.0052 Y8.2487
G3X128.0075Y8.2488I-0.0623J0.9981
G1 X130.8721 Y8.4341
G3X130.8741Y8.4343I-0.0645J0.9979
G1 X132.3011 Y8.5295
G3X132.4869Y8.542I-0.5071J8.9341
G3X132.642Y8.5524I-0.5333J9.0363
G3X132.9188Y8.5712I-0.747J13.0542
G3X133.1239Y8.5852I-0.8265J13.6363
G3X133.7431Y8.6276I-3.0979J49.7671
G1 X152.1047 Y10.0432
G3X152.1058Y10.0433I-0.0852J0.9964
G1 X154.3963 Y10.2416
G3X155.3375Y10.3244I-10.8122J128.3437
G3X155.4043Y10.3305Z-2.9552I-11.7533J128.261
G1 X156.8314 Y10.4585 Z-2.0
G1 X157.2826 Y10.4989
G3X157.284Y10.4991I-0.0893J0.996
G1 X158.1062 Y10.574
G3X158.1074Y10.5741I-0.0907J0.9959
G1 X158.8232 Y10.6402
G1 X159.6488 Y10.7164 Z-2.5527
G3X159.65Y10.7165Z-2.5535I-0.092J0.9958
G1 X160.3167 Y10.7789 Z-3.0
G1 X160.3243 Y10.7796
G3X160.3254Y10.7797I-0.0932J0.9957
G1 X161.5895 Y10.8994
G3X161.5906Y10.8995I-0.0943J0.9955
G1 X162.1436 Y10.9525
G1 X162.1445 Y10.9526
G1 X163.1813 Y11.0529
G3X163.1825Y11.053I-0.0963J0.9954
G1 X164.0897 Y11.1419
G3X164.0908Y11.142I-0.0975J0.9952
G1 X164.8843 Y11.2206
G1 X164.8853 Y11.2207
G1 X165.5797 Y11.2902
G1 X165.5806 Y11.2903
G1 X166.1881 Y11.3516
G3X166.1901Y11.3518I-0.1005J0.9949
G1 X168.3158 Y11.5708
G3X168.3192Y11.5711I-0.1025J0.9947
G1 X170.4375 Y11.7967
G3X170.6299Y11.8174I-0.6352J6.7867
G3X170.8171Y11.8379I-0.7139J7.3964
G3X173.6956Y12.1597I-41.5718J384.8641
G1 X174.0101 Y12.1959
G3X174.0117Y12.1961I-0.1142J0.9935
G1 X175.2507 Y12.3405
G3X175.2523Y12.3407I-0.1158J0.9933
G3X184.5513Y13.5334I-55.2371J467.5351
G3X184.5527Y13.5335I-0.1371J0.9906
G1 X185.7109 Y13.6955
G3X185.7139Y13.6959I-0.1385J0.9904
G1 X187.7398 Y13.9853
G3X187.7427Y13.9857I-0.1414J0.9899
G1 X188.3682 Y14.0769
G1 F300.0 Z-4.0
G1 F1500.0 X189.2615 Y14.2072
G3X189.2638Y14.2075I-0.1443J0.9895
G1 X191.5412 Y14.5449
G3X191.5427Y14.5452I-0.1466J0.9892
G1 X193.8197 Y14.8861
G1 X193.8201 Y14.8862
G1 X196.3232 Y15.262
G1 X196.3239 Y15.2621
G1 X198.5139 Y15.5924
G3X198.515Y15.5926I-0.1491J0.9888
G1 X200.431 Y15.8838
G3X200.4324Y15.884I-0.1503J0.9886
G1 X202.1085 Y16.1413
G3X202.11Y16.1415I-0.1517J0.9884
G1 X203.5762 Y16.3689
G3X203.5778Y16.3692I-0.1533J0.9882
G1 X204.8604 Y16.5702
G3X204.8628Y16.5706I-0.1549J0.9879
G1 X207.1066 Y16.9279
G3X207.109Y16.9283I-0.1573J0.9876
G1 X207.95 Y17.0644
G3X207.9514Y17.0646I-0.1597J0.9872
G1 X208.6872 Y17.1846
G3X208.6884Y17.1848I-0.161J0.987
G1 X209.3321 Y17.2906
G3X209.3332Y17.2908I-0.1622J0.9868
G1 X209.8964 Y17.384
G3X209.8979Y17.3843I-0.1633J0.9866
G1 X210.883 Y17.5489
G3X210.8855Y17.5494I-0.1648J0.9863
G1 X212.3627 Y17.8002
G3X212.366Y17.8007I-0.1674J0.9859
G1 X213.8422 Y18.0564
G3X213.8454Y18.057I-0.1707J0.9853
G1 X215.096 Y18.2777
G3X215.0979Y18.278I-0.1738J0.9848
G1 X215.6839 Y18.3826
G1 X215.6843 Y18.3827
G3X220.229Y19.2115I-119.5236J668.2948
G1 X221.9298 Y19.5259
G3X221.9331Y19.5265I-0.1818J0.9833
G2X222.2988Y19.5941I10.4092J-55.2475
G3X222.3069Y19.5956I-0.1786J0.9839
G2X222.6575Y19.6605I6.6145J-34.7861
G3X222.6685Y19.6625I-0.1769J0.9842
G2X223.0056Y19.7248I5.1964J-27.1692
G3X223.0108Y19.7258I-0.1757J0.9844
G1 X225.7178 Y20.2236
G3X225.7269Y20.2254I-0.1809J0.9835
G2X225.9599Y20.2679I2.1271J-10.995
G3X225.9806Y20.2717I-0.1691J0.9856
G2X226.2054Y20.3126I2.0224J-10.4633
G3X226.2263Y20.3164I-0.1687J0.9857
G2X226.4433Y20.3559I1.9277J-9.9841
G3X226.4644Y20.3597I-0.1682J0.9857
G2X226.6737Y20.3977I1.8414J-9.5489
G3X226.695Y20.4016I-0.1678J0.9858
G2X226.897Y20.4382I1.7623J-9.1513
G3X226.9184Y20.442I-0.1674J0.9859
G2X227.1133Y20.4773I1.6894J-8.7859
G3X227.1348Y20.4812I-0.167J0.986
G2X227.3228Y20.5151I1.6218J-8.4482
G3X227.3444Y20.519I-0.1667J0.986
G2X227.5258Y20.5517I1.559J-8.135
G3X227.5474Y20.5556I-0.1663J0.9861
G2X227.7225Y20.587I1.5003J-7.8432
G3X227.7441Y20.5909I-0.166J0.9861
G2X227.9131Y20.6212I1.4454J-7.5704
G3X227.9346Y20.6251I-0.1656J0.9862
G2X228.0976Y20.6543I1.3938J-7.3144
G3X228.1192Y20.6581I-0.1653J0.9862
G2X228.2765Y20.6863I1.3452J-7.0736
G3X228.298Y20.6901I-0.165J0.9863
G2X228.4497Y20.7172I1.2993J-6.8463
G3X228.4711Y20.721I-0.1647J0.9863
G2X228.6176Y20.747I1.2559J-6.6315
G3X228.6389Y20.7508I-0.1644J0.9864
G2X228.7802Y20.7759I1.2147J-6.4279
G3X228.8014Y20.7797I-0.1641J0.9864
G2X228.9378Y20.8039I1.1756J-6.2343
G3X228.9589Y20.8076I-0.1638J0.9865
G2X229.0904Y20.8309I1.1384J-6.05
G3X229.1033Y20.8331I-0.1635J0.9865
G2X230.281Y21.0396I27.9956J-156.1867
G3X230.297Y21.0425I-0.169J0.9856
G2X230.4914Y21.0762I1.2895J-6.8525
G3X230.5184Y21.0809I-0.1571J0.9876
G2X230.6996Y21.1123I1.2216J-6.5226
G3X230.7108Y21.1141I-0.1568J0.9876
G1 X232.2745 Y21.3806
G3X232.2861Y21.3826I-0.168J0.9858
G2X232.4531Y21.4106I1.0495J-5.7475
G3X232.4649Y21.4125I-0.151J0.9885
G1 X233.8344 Y21.6384
G3X233.8443Y21.6401I-0.1628J0.9867
G2X233.9883Y21.6635I0.9881J-5.637
G3X233.9995Y21.6652I-0.1475J0.9891
G1 X234.6704 Y21.773
G1 X234.9946 Y21.8245
G1 X235.3139 Y21.875
G1 X235.9436 Y21.9736
G1 X236.2478 Y22.0209
G1 X237.45 Y22.2055
G1 X238.0131 Y22.2911
G1 X239.1058 Y22.4558
G1 X241.1565 Y22.7624
G1 X241.1566
G1 X241.1564
G1 X241.1565
G1 X242.0539 Y22.8965
G1 X242.0547 Y22.8966
G1 X243.7373 Y23.1494
G3X243.7392Y23.1497I-0.1486J0.9889
G1 X245.211 Y23.3736
G3X245.2127Y23.3739I-0.1504J0.9886
G1 X245.8565 Y23.473
G3X245.8584Y23.4733I-0.1522J0.9884
G1 X247.0651 Y23.6614
G1 X247.0656 Y23.6615
G3X251.297Y24.3518I-50.6338J323.6746
G3X251.2986Y24.3521I-0.1675J0.9859
G1 X252.3518 Y24.5327
G3X252.3549Y24.5333I-0.169J0.9856
G1 X253.1443 Y24.6712
G3X253.1462Y24.6715I-0.1721J0.9851
G1 X253.4422 Y24.7238
G3X253.4445Y24.7242I-0.174J0.9847
G1 X254.4799 Y24.9097
G3X254.4836Y24.9104I-0.1763J0.9843
G1 X255.5183 Y25.0997
G3X255.5207Y25.1002I-0.18J0.9837
G1 X255.8212 Y25.156
G3X255.8238Y25.1564I-0.1825J0.9832
G1 X257.0157 Y25.3808
G3X257.0194Y25.3815I-0.185J0.9827
G1 X258.1733 Y25.6032
G3X258.1756Y25.6037I-0.1887J0.982
G1 X258.7343 Y25.7124
G3X258.7363Y25.7128I-0.191J0.9816
G1 X259.8358 Y25.929
G3X259.8371Y25.9293I-0.193J0.9812
G1 X259.9037 Y25.9425
G1 X259.9038
G1 X259.9702 Y25.9557
G1 X259.9709 Y25.9558
G3X264.2159Y26.8133I-143.6425J722.0202
G1 X264.2165 Y26.8135
G1 X266.0698 Y27.1946
G3X266.0712Y27.1949I-0.2015J0.9795
G1 X268.3503 Y27.667
G1 X269.5452 Y27.9146 Z-2.373
G1 X269.5456 Y27.9147 Z-2.3723
G1 X269.8191 Y27.9714 Z-2.0
G1 X271.7773 Y28.378
G1 X273.246 Y28.6829 Z-4.0
G1 X275.624 Y29.1767
G1 X280.1832 Y30.1181
G1 X281.0379 Y30.2937
G1 X281.4384 Y30.376
G1 X284.5453 Y31.0116
G1 X286.8743 Y31.4855
G1 X290.3708 Y32.1925
G1 X293.8684 Y32.8946
G3X294.6716Y33.8751I-0.1968J0.9804
G1 Y92.8751
G3X293.8682Y93.8556I-1.0J0.0
G1 X291.4711 Y94.3362
G1 X282.4906 Y96.1585
G1 X279.1236 Y96.8503
G1 X276.1784 Y97.4587
G1 X276.0491 Y97.4855
G1 X274.5804 Y97.79 Z-2.0
G1 X273.6014 Y97.993
G1 X272.6221 Y98.1964
G1 X271.1535 Y98.5015 Z-4.0
G1 X269.0914 Y98.9298
G1 X269.091 Y98.9299
G1 X267.3995 Y99.2806
G1 X267.3989 Y99.2808
G1 X265.9187 Y99.5867
G3X265.9173Y99.587I-0.2024J-0.9793
G1 X263.3261 Y100.1187
G3X263.3237Y100.1192I-0.201J-0.9796
G1 X261.3793 Y100.513
G3X261.3766Y100.5136I-0.1985J-0.9801
G1 X259.9176 Y100.8049
G3X259.9156Y100.8053I-0.1958J-0.9806
G1 X259.3681 Y100.9134
G3X259.367Y100.9137I-0.1938J-0.981
G1 X258.8879 Y101.0077
G3X258.8863Y101.0081I-0.1927J-0.9813
G1 X258.0476 Y101.1713
G3X255.5195Y101.6502I-49.0432J-251.9847
G3X255.5177Y101.6505I-0.1812J-0.9834
G1 X254.1686 Y101.8966
G3X254.1657Y101.8972I-0.1795J-0.9838
G1 X253.8492 Y101.9539
G3X253.8465Y101.9544I-0.1765J-0.9843
G1 X252.6001 Y102.1743
G3X252.598Y102.1747I-0.1737J-0.9848
G3X251.4248Y102.3766I-51.5934J-296.2285
G3X251.423Y102.3769I-0.1677J-0.9858
G1 X250.3262 Y102.5615
G3X250.3229Y102.562I-0.166J-0.9861
G1 X249.294 Y102.7317
G3X249.2918Y102.732I-0.1627J-0.9867
G1 X248.8093 Y102.8105
G3X248.8073Y102.8108I-0.1605J-0.987
G1 X247.8723 Y102.961
G3X247.8708Y102.9612I-0.1586J-0.9874
G1 X247.6515 Y102.9961
G1 X247.651
G1 X247.4351 Y103.0304
G3X247.4339Y103.0306I-0.1565J-0.9877
G1 X246.584 Y103.1641
G3X246.5822Y103.1644I-0.1552J-0.9879
G1 X245.7851 Y103.2882
G3X245.7836Y103.2884I-0.1534J-0.9882
G1 X245.0485 Y103.4014
G3X244.9785Y103.4121I-0.2891J-1.6564
G1 X243.5943 Y103.6223
G3X243.5924Y103.6226I-0.1502J-0.9887
G1 X241.1482 Y103.989
G1 X241.1477
G1 X240.6893 Y104.0575
G1 X240.689
G1 X237.2566 Y104.5741
G1 X235.5421 Y104.8393
G1 X234.687 Y104.9745
G1 X233.8318 Y105.1122
G1 X233.2075 Y105.2143
G1 X232.6031 Y105.3146
G1 X231.4309 Y105.5124
G1 X230.3325 Y105.7016
G1 X229.8182 Y105.7913
G1 X229.3204 Y105.8787
G1 X227.3873 Y106.2235
G1 X226.5427 Y106.3763
G1 X225.7505 Y106.5205
G1 X224.2645 Y106.7931
G1 X222.9642 Y107.033
G1 X221.828 Y107.2431
G3X221.3292Y107.3354I-12.1876J-64.4817
G3X220.8617Y107.4218I-7.2797J-38.0569
G3X220.4236Y107.5028I-5.6585J-29.3958
G3X220.0129Y107.5786I-4.7654J-24.6651
G3X219.6278Y107.6496I-4.1736J-21.5577
G3X219.2667Y107.7161I-3.7411J-19.3066
G3X218.9282Y107.7783I-3.4051J-17.5722
G3X218.6108Y107.8366I-3.1332J-16.1791
G3X218.3132Y107.8911I-2.9065J-15.025
G3X218.0291Y107.943I-2.7131J-14.0466
G3X213.8448Y108.6933I-115.6135J-632.7156
G1 X213.8441 Y108.6934
G3X211.3436Y109.1235I-71.167J-406.2503
G3X206.9648Y109.845I-89.507J-529.5808
G3X206.9638Y109.8452I-0.1585J-0.9874
G1 X205.3234 Y110.1068
G3X205.3213Y110.1071I-0.1575J-0.9875
G1 X203.8855 Y110.333
G3X203.8832Y110.3333I-0.1554J-0.9879
G1 X201.3696 Y110.7226
G3X201.3675Y110.7229I-0.1531J-0.9882
G1 X199.4818 Y111.011
G3X199.4802Y111.0112I-0.151J-0.9885
G1 X196.6534 Y111.4385
G3X196.296Y111.4923I-4.8627J-31.0989
G3X195.9873Y111.5387I-4.8364J-31.1196
G3X195.4442Y111.6203I-7.0558J-45.1209
G3X195.0387Y111.6812I-6.9894J-45.1777
G3X194.4284Y111.7727I-10.6069J-68.6113
G3X193.8184Y111.8642I-18.1939J-119.2161
G1 X190.9096 Y112.2993
G3X190.9085Y112.2995I-0.1479J-0.989
G1 X190.2718 Y112.3939
G3X190.2708Y112.3941I-0.1468J-0.9892
G1 X189.0372 Y112.5759
G1 X189.0363 Y112.576
G1 X188.8921 Y112.5971
G3X179.6813Y113.8657I-72.2098J-490.2319
G3X179.6795Y113.8659I-0.1271J-0.9919
G1 X178.5288 Y114.0114
G3X178.5269Y114.0116I-0.1254J-0.9921
G3X170.446Y114.9526I-63.3932J-509.2552
G1 X170.4454
G1 X169.8736 Y115.0143
G3X169.8721Y115.0145I-0.1072J-0.9942
G1 X168.7463 Y115.1342
G3X168.7436Y115.1344I-0.1057J-0.9944
G1 X166.5616 Y115.3605
G3X166.5596Y115.3607I-0.1031J-0.9947
G1 X166.0481 Y115.4127
G1 X166.0472 Y115.4128
G3X157.9777Y116.1879I-88.5536J-879.4858
G1 X157.9768 Y116.188
G1 X156.4647 Y116.325
G3X156.4635Y116.3251I-0.0902J-0.9959
G1 X155.2762 Y116.4305
G1 X153.7819 Y116.5615 Z-2.0
G1 X151.7893 Y116.7329
G1 X150.2946 Y116.8593 Z-4.0
G1 X145.1067 Y117.2824
G1 X145.1062
G1 X144.3967 Y117.3383
G3X144.3952Y117.3384I-0.0785J-0.9969
G1 X141.7343 Y117.5438
G3X141.7326Y117.544I-0.077J-0.997
G1 X140.7346 Y117.6194
G1 X140.734
G1 X140.2973 Y117.6521
G1 X140.2969 Y117.6522
G1 X139.8875 Y117.6827
G1 X139.8867 Y117.6828
G1 X138.3515 Y117.7959
G1 X138.3507
G1 X138.0628 Y117.8169
G3X138.0617Y117.817I-0.0727J-0.9974
G1 X135.9026 Y117.9719
G3X135.9006Y117.972I-0.0716J-0.9974
G1 X133.7412 Y118.1226
G3X133.7395Y118.1228I-0.0696J-0.9976
G1 X132.3868 Y118.2149
G3X132.3849Y118.215I-0.068J-0.9977
G1 X129.7635 Y118.3887
G3X129.7622I-0.0661J-0.9978
G1 X129.4549 Y118.4087
G3X129.4536Y118.4088I-0.0647J-0.9979
G1 X127.0149 Y118.5637
G3X127.0132Y118.5638I-0.0634J-0.998
G1 X125.8699 Y118.6345
G3X125.8683Y118.6346I-0.0617J-0.9981
G1 X123.653 Y118.7681
G3X123.6515Y118.7682I-0.0601J-0.9982
G1 X122.6129 Y118.8291
G1 X122.6122 Y118.8292
G1 X106.4949 Y119.6542
G1 X106.4945
G1 X104.4809 Y119.7427
G3X104.4795Y119.7428I-0.0439J-0.999
G1 X102.7175 Y119.8179
G3X102.7159Y119.818I-0.0426J-0.9991
G1 X99.632 Y119.9446
G3X99.6309I-0.041J-0.9992
G1 X99.0526 Y119.9677
G1 X99.0521
G1 X97.9678 Y120.0104
G1 X97.9672 Y120.0105
G1 X97.0185 Y120.0473
G3X97.0173I-0.0388J-0.9992
G1 X93.6966 Y120.1721
G1 X93.6956
G1 X93.488 Y120.1797
G1 X93.4872
G1 X90.374 Y120.2911
G3X90.3729I-0.0357J-0.9994
G1 X89.1754 Y120.3327
G1 X89.1749
G1 X87.996 Y120.373
G1 X87.9954
G1 X86.835 Y120.4119
G1 X86.8344
G1 X85.6921 Y120.4495
G1 X85.6915 Y120.4496
G1 X84.567 Y120.486
G1 X84.5666
G1 X84.0131 Y120.5036
G1 X84.0124 Y120.5037
G1 X81.8158 Y120.5722
G1 X81.8151 Y120.5723
G1 X81.2831 Y120.5885
G1 X81.2827
G1 X80.227 Y120.6203
G1 X80.2265
G1 X79.1872 Y120.6511
G1 X79.1869
G1 X78.6753 Y120.666
G1 X78.675
G1 X78.1675 Y120.6807
G3X78.1664I-0.0289J-0.9996
G1 X74.1383 Y120.7928
G3X72.247Y120.8428I-13.9296J-490.9892
G1 X71.7903 Y120.8547
G1 X71.7895
G1 X68.1592 Y120.9456
G3X68.1578I-0.025J-0.9997
G1 X64.7543 Y121.026
G1 X64.7534
G1 X63.1579 Y121.0621
G1 X63.1571 Y121.0622
G1 X60.066 Y121.1297
G1 X60.0652
G1 X58.6161 Y121.1602
G1 X58.6158
G1 X57.9139 Y121.1748
G1 X57.9137
G1 X57.224 Y121.1889
G3X56.5408Y121.2028I-2.8133J-121.658
G1 X55.203 Y121.2296
G1 X55.2021
G1 X50.0136 Y121.3288
G3X50.0123I-0.0191J-0.9998
G1 X45.4722 Y121.41
G1 X45.4716
G1 X45.3474 Y121.4122
G1 X45.347
G1 X41.3898 Y121.4791
G1 X41.3891
G1 X37.9265 Y121.5351
G1 X37.9261
G1 X37.1686 Y121.5471
G1 X37.168
G1 X32.3287 Y121.6207
G1 X31.2978 Y121.6364 Z-2.6254
G1 X31.297 Z-2.6243
G1 X30.8288 Y121.6432 Z-2.0
G1 X28.829 Y121.672
G1 X27.3292 Y121.6936 Z-4.0
G1 X26.8943 Y121.6999
G1 X26.8939
G1 X26.0683 Y121.7115
G1 X26.0682
G1 X25.2943 Y121.7222
G1 X25.2939
G1 X19.4895 Y121.8006
G1 X19.489
G1 X16.5867 Y121.8383
G1 X16.5864
G1 X13.6842 Y121.875
G3X12.6716Y120.8751I-0.0127J-0.9999
G1 Y5.8751
G3X13.6843Y4.8752I1.0J0.0
G1 X18.4767 Y4.9363
G1 X18.4773
G1 X22.9701 Y4.996
G1 X22.9705
G1 X25.0765 Y5.0249
G1 X25.0769
G1 X26.3907 Y5.0435
G1 X27.8905 Y5.0646 Z-2.0
G1 X29.1573 Y5.0825
G1 X29.1579 Y5.0826
G1 X29.8903 Y5.0933
G1 X31.3901 Y5.1154 Z-4.0
G1 X32.9831 Y5.1388
G1 X32.9837
G1 X36.5699 Y5.1937
G1 X36.5705
G1 X39.9325 Y5.2472
G1 X39.933
G1 X41.509 Y5.273
G1 X41.5093
G1 X43.0359 Y5.2985
G1 X48.9534 Y5.402
G1 X48.9539
G1 X54.1301 Y5.4994
G1 X54.1309 Y5.4995
G1 X55.2632 Y5.5217
G1 X55.2637 Y5.5218
G1 X57.4575 Y5.566
G1 X57.458
G1 X58.4863 Y5.5872
G1 X58.4871
G1 X62.4696 Y5.6727
G3X62.9112Y5.6825I-0.7265J42.6634
G1 X64.6248 Y5.7212
G1 X64.6257
G1 X67.8432 Y5.7969
G1 X67.8441
G1 X69.2325 Y5.8309
G3X69.3347Y5.8329I0.0147J1.8654
G3X69.4365Y5.8359I-0.0051J1.8638
G1 X72.036 Y5.9018
G1 X72.0363
G1 X90.3733 Y6.459
G1 X90.3734
G1 X91.0509 Y6.4828
G1 X91.0514 Y6.4829
G1 X92.3853 Y6.5304
G1 X92.386 Y6.5305
G1 X93.6782 Y6.5774
G3X93.6792I-0.0363J0.9993
G1 X96.1689 Y6.6704
G3X96.2568Y6.6734I-0.0283J2.0923
G3X96.3445Y6.6771I-0.043J2.0913
G1 X98.6684 Y6.7672
G3X98.6695Y6.7673I-0.0388J0.9992
G1 X99.7653 Y6.8109
G3X99.7663I-0.0398J0.9992
G1 X101.8892 Y6.8976
G3X101.8906Y6.8977I-0.0408J0.9992
G1 X103.8807 Y6.9816
G1 X103.8817
G1 X104.8146 Y7.0219
G1 X104.8151
G1 X105.267 Y7.0416
G1 X105.2673 Y7.0417
G1 X105.7121 Y7.0612
G1 X105.7129
G1 X107.4487 Y7.1389
G3X107.5677Y7.1439I-0.0416J2.4058
G3X107.67Y7.1486I-0.0582J2.4043
G3X107.772Y7.1533I-0.0586J2.4032
G3X107.8894Y7.159I-0.0589J2.4021
G1 X109.4902 Y7.2332
G3X109.492I-0.0463J0.9989
G1 X112.522 Y7.3791
G3X112.5238Y7.3792I-0.0481J0.9988
G1 X113.8493 Y7.4453
G3X113.8504Y7.4454I-0.0498J0.9988
G1 X115.093 Y7.5087
G3X115.094Y7.5088I-0.0509J0.9987
G1 X116.2589 Y7.5694
G3X116.2604I-0.0519J0.9987
G1 X118.4444 Y7.6862
G1 X118.4451 Y7.6863
G1 X126.0945 Y8.1294
G1 X126.0953 Y8.1295
G1 X128.0052 Y8.2487
G3X128.0075Y8.2488I-0.0623J0.9981
G1 X130.8721 Y8.4341
G3X130.8741Y8.4343I-0.0645J0.9979
G1 X132.3011 Y8.5295
G3X132.4869Y8.542I-0.5071J8.9341
G3X132.642Y8.5524I-0.5333J9.0363
G3X132.9188Y8.5712I-0.747J13.0542
G3X133.1239Y8.5852I-0.8265J13.6363
G3X133.7431Y8.6276I-3.0979J49.7671
G1 X152.1047 Y10.0432
G3X152.1058Y10.0433I-0.0852J0.9964
G1 X154.3963 Y10.2416
G3X155.3375Y10.3244I-10.8122J128.3437
G3X155.4043Y10.3305Z-3.9105I-11.7533J128.261
G1 X156.8314 Y10.4585 Z-2.0
G1 X157.2826 Y10.4989
G3X157.284Y10.4991I-0.0893J0.996
G1 X158.1062 Y10.574
G3X158.1074Y10.5741I-0.0907J0.9959
G1 X158.8232 Y10.6402
G1 X159.6488 Y10.7164 Z-3.1055
G3X159.65Y10.7165Z-3.1071I-0.092J0.9958
G1 X160.3167 Y10.7789 Z-4.0
G1 X160.3243 Y10.7796
G3X160.3254Y10.7797I-0.0932J0.9957
G1 X161.5895 Y10.8994
G3X161.5906Y10.8995I-0.0943J0.9955
G1 X162.1436 Y10.9525
G1 X162.1445 Y10.9526
G1 X163.1813 Y11.0529
G3X163.1825Y11.053I-0.0963J0.9954
G1 X164.0897 Y11.1419
G3X164.0908Y11.142I-0.0975J0.9952
G1 X164.8843 Y11.2206
G1 X164.8853 Y11.2207
G1 X165.5797 Y11.2902
G1 X165.5806 Y11.2903
G1 X166.1881 Y11.3516
G3X166.1901Y11.3518I-0.1005J0.9949
G1 X168.3158 Y11.5708
G3X168.3192Y11.5711I-0.1025J0.9947
G1 X170.4375 Y11.7967
G3X170.6299Y11.8174I-0.6352J6.7867
G3X170.8171Y11.8379I-0.7139J7.3964
G3X173.6956Y12.1597I-41.5718J384.8641
G1 X174.0101 Y12.1959
G3X174.0117Y12.1961I-0.1142J0.9935
G1 X175.2507 Y12.3405
G3X175.2523Y12.3407I-0.1158J0.9933
G3X184.5513Y13.5334I-55.2371J467.5351
G3X184.5527Y13.5335I-0.1371J0.9906
G1 X185.7109 Y13.6955
G3X185.7139Y13.6959I-0.1385J0.9904
G1 X187.7398 Y13.9853
G3X187.7427Y13.9857I-0.1414J0.9899
G1 X188.3682 Y14.0769
G1 F300.0 Z-5.0
G1 F1500.0 X189.2615 Y14.2072
G3X189.2638Y14.2075I-0.1443J0.9895
G1 X191.5412 Y14.5449
G3X191.5427Y14.5452I-0.1466J0.9892
G1 X193.8197 Y14.8861
G1 X193.8201 Y14.8862
G1 X196.3232 Y15.262
G1 X196.3239 Y15.2621
G1 X198.5139 Y15.5924
G3X198.515Y15.5926I-0.1491J0.9888
G1 X200.431 Y15.8838
G3X200.4324Y15.884I-0.1503J0.9886
G1 X202.1085 Y16.1413
G3X202.11Y16.1415I-0.1517J0.9884
G1 X203.5762 Y16.3689
G3X203.5778Y16.3692I-0.1533J0.9882
G1 X204.8604 Y16.5702
G3X204.8628Y16.5706I-0.1549J0.9879
G1 X207.1066 Y16.9279
G3X207.109Y16.9283I-0.1573J0.9876
G1 X207.95 Y17.0644
G3X207.9514Y17.0646I-0.1597J0.9872
G1 X208.6872 Y17.1846
G3X208.6884Y17.1848I-0.161J0.987
G1 X209.3321 Y17.2906
G3X209.3332Y17.2908I-0.1622J0.9868
G1 X209.8964 Y17.384
G3X209.8979Y17.3843I-0.1633J0.9866
G1 X210.883 Y17.5489
G3X210.8855Y17.5494I-0.1648J0.9863
G1 X212.3627 Y17.8002
G3X212.366Y17.8007I-0.1674J0.9859
G1 X213.8422 Y18.0564
G3X213.8454Y18.057I-0.1707J0.9853
G1 X215.096 Y18.2777
G3X215.0979Y18.278I-0.1738J0.9848
G1 X215.6839 Y18.3826
G1 X215.6843 Y18.3827
G3X220.229Y19.2115I-119.5236J668.2948
G1 X221.9298 Y19.5259
G3X221.9331Y19.5265I-0.1818J0.9833
G2X222.2988Y19.5941I10.4092J-55.2475
G3X222.3069Y19.5956I-0.1786J0.9839
G2X222.6575Y19.6605I6.6145J-34.7861
G3X222.6685Y19.6625I-0.1769J0.9842
G2X223.0056Y19.7248I5.1964J-27.1692
G3X223.0108Y19.7258I-0.1757J0.9844
G1 X225.7178 Y20.2236
G3X225.7269Y20.2254I-0.1809J0.9835
G2X225.9599Y20.2679I2.1271J-10.995
G3X225.9806Y20.2717I-0.1691J0.9856
G2X226.2054Y20.3126I2.0224J-10.4633
G3X226.2263Y20.3164I-0.1687J0.9857
G2X226.4433Y20.3559I1.9277J-9.9841
G3X226.4644Y20.3597I-0.1682J0.9857
G2X226.6737Y20.3977I1.8414J-9.5489
G3X226.695Y20.4016I-0.1678J0.9858
G2X226.897Y20.4382I1.7623J-9.1513
G3X226.9184Y20.442I-0.1674J0.9859
G2X227.1133Y20.4773I1.6894J-8.7859
G3X227.1348Y20.4812I-0.167J0.986
G2X227.3228Y20.5151I1.6218J-8.4482
G3X227.3444Y20.519I-0.1667J0.986
G2X227.5258Y20.5517I1.559J-8.135
G3X227.5474Y20.5556I-0.1663J0.9861
G2X227.7225Y20.587I1.5003J-7.8432
G3X227.7441Y20.5909I-0.166J0.9861
G2X227.9131Y20.6212I1.4454J-7.5704
G3X227.9346Y20.6251I-0.1656J0.9862
G2X228.0976Y20.6543I1.3938J-7.3144
G3X228.1192Y20.6581I-0.1653J0.9862
G2X228.2765Y20.6863I1.3452J-7.0736
G3X228.298Y20.6901I-0.165J0.9863
G2X228.4497Y20.7172I1.2993J-6.8463
G3X228.4711Y20.721I-0.1647J0.9863
G2X228.6176Y20.747I1.2559J-6.6315
G3X228.6389Y20.7508I-0.1644J0.9864
G2X228.7802Y20.7759I1.2147J-6.4279
G3X228.8014Y20.7797I-0.1641J0.9864
G2X228.9378Y20.8039I1.1756J-6.2343
G3X228.9589Y20.8076I-0.1638J0.9865
G2X229.0904Y20.8309I1.1384J-6.05
G3X229.1033Y20.8331I-0.1635J0.9865
G2X230.281Y21.0396I27.9956J-156.1867
G3X230.297Y21.0425I-0.169J0.9856
G2X230.4914Y21.0762I1.2895J-6.8525
G3X230.5184Y21.0809I-0.1571J0.9876
G2X230.6996Y21.1123I1.2216J-6.5226
G3X230.7108Y21.1141I-0.1568J0.9876
G1 X232.2745 Y21.3806
G3X232.2861Y21.3826I-0.168J0.9858
G2X232.4531Y21.4106I1.0495J-5.7475
G3X232.4649Y21.4125I-0.151J0.9885
G1 X233.8344 Y21.6384
G3X233.8443Y21.6401I-0.1628J0.9867
G2X233.9883Y21.6635I0.9881J-5.637
G3X233.9995Y21.6652I-0.1475J0.9891
G1 X234.6704 Y21.773
G1 X234.9946 Y21.8245
G1 X235.3139 Y21.875
G1 X235.9436 Y21.9736
G1 X236.2478 Y22.0209
G1 X237.45 Y22.2055
G1 X238.0131 Y22.2911
G1 X239.1058 Y22.4558
G1 X241.1565 Y22.7624
G1 X241.1566
G1 X241.1564
G1 X241.1565
G1 X242.0539 Y22.8965
G1 X242.0547 Y22.8966
G1 X243.7373 Y23.1494
G3X243.7392Y23.1497I-0.1486J0.9889
G1 X245.211 Y23.3736
G3X245.2127Y23.3739I-0.1504J0.9886
G1 X245.8565 Y23.473
G3X245.8584Y23.4733I-0.1522J0.9884
G1 X247.0651 Y23.6614
G1 X247.0656 Y23.6615
G3X251.297Y24.3518I-50.6338J323.6746
G3X251.2986Y24.3521I-0.1675J0.9859
G1 X252.3518 Y24.5327
G3X252.3549Y24.5333I-0.169J0.9856
G1 X253.1443 Y24.6712
G3X253.1462Y24.6715I-0.1721J0.9851
G1 X253.4422 Y24.7238
G3X253.4445Y24.7242I-0.174J0.9847
G1 X254.4799 Y24.9097
G3X254.4836Y24.9104I-0.1763J0.9843
G1 X255.5183 Y25.0997
G3X255.5207Y25.1002I-0.18J0.9837
G1 X255.8212 Y25.156
G3X255.8238Y25.1564I-0.1825J0.9832
G1 X257.0157 Y25.3808
G3X257.0194Y25.3815I-0.185J0.9827
G1 X258.1733 Y25.6032
G3X258.1756Y25.6037I-0.1887J0.982
G1 X258.7343 Y25.7124
G3X258.7363Y25.7128I-0.191J0.9816
G1 X259.8358 Y25.929
G3X259.8371Y25.9293I-0.193J0.9812
G1 X259.9037 Y25.9425
G1 X259.9038
G1 X259.9702 Y25.9557
G1 X259.9709 Y25.9558
G3X264.2159Y26.8133I-143.6425J722.0202
G1 X264.2165 Y26.8135
G1 X266.0698 Y27.1946
G3X266.0712Y27.1949I-0.2015J0.9795
G1 X268.3503 Y27.667
G1 X269.5452 Y27.9146 Z-2.5594
G1 X269.5456 Y27.9147 Z-2.5585
G1 X269.8191 Y27.9714 Z-2.0
G1 X271.7773 Y28.378
G1 X273.246 Y28.6829 Z-5.0
G1 X275.624 Y29.1767
G1 X280.1832 Y30.1181
G1 X281.0379 Y30.2937
G1 X281.4384 Y30.376
G1 X284.5453 Y31.0116
G1 X286.8743 Y31.4855
G1 X290.3708 Y32.1925
G1 X293.8684 Y32.8946
G3X294.6716Y33.8751I-0.1968J0.9804
G1 Y92.8751
G3X293.8682Y93.8556I-1.0J0.0
G1 X291.4711 Y94.3362
G1 X282.4906 Y96.1585
G1 X279.1236 Y96.8503
G1 X276.1784 Y97.4587
G1 X276.0491 Y97.4855
G1 X274.5804 Y97.79 Z-2.0
G1 X273.6014 Y97.993
G1 X272.6221 Y98.1964
G1 X271.1535 Y98.5015 Z-5.0
G1 X269.0914 Y98.9298
G1 X269.091 Y98.9299
G1 X267.3995 Y99.2806
G1 X267.3989 Y99.2808
G1 X265.9187 Y99.5867
G3X265.9173Y99.587I-0.2024J-0.9793
G1 X263.3261 Y100.1187
G3X263.3237Y100.1192I-0.201J-0.9796
G1 X261.3793 Y100.513
G3X261.3766Y100.5136I-0.1985J-0.9801
G1 X259.9176 Y100.8049
G3X259.9156Y100.8053I-0.1958J-0.9806
G1 X259.3681 Y100.9134
G3X259.367Y100.9137I-0.1938J-0.981
G1 X258.8879 Y101.0077
G3X258.8863Y101.0081I-0.1927J-0.9813
G1 X258.0476 Y101.1713
G3X255.5195Y101.6502I-49.0432J-251.9847
G3X255.5177Y101.6505I-0.1812J-0.9834
G1 X254.1686 Y101.8966
G3X254.1657Y101.8972I-0.1795J-0.9838
G1 X253.8492 Y101.9539
G3X253.8465Y101.9544I-0.1765J-0.9843
G1 X252.6001 Y102.1743
G3X252.598Y102.1747I-0.1737J-0.9848
G3X251.4248Y102.3766I-51.5934J-296.2285
G3X251.423Y102.3769I-0.1677J-0.9858
G1 X250.3262 Y102.5615
G3X250.3229Y102.562I-0.166J-0.9861
G1 X249.294 Y102.7317
G3X249.2918Y102.732I-0.1627J-0.9867
G1 X248.8093 Y102.8105
G3X248.8073Y102.8108I-0.1605J-0.987
G1 X247.8723 Y102.961
G3X247.8708Y102.9612I-0.1586J-0.9874
G1 X247.6515 Y102.9961
G1 X247.651
G1 X247.4351 Y103.0304
G3X247.4339Y103.0306I-0.1565J-0.9877
G1 X246.584 Y103.1641
G3X246.5822Y103.1644I-0.1552J-0.9879
G1 X245.7851 Y103.2882
G3X245.7836Y103.2884I-0.1534J-0.9882
G1 X245.0485 Y103.4014
G3X244.9785Y103.4121I-0.2891J-1.6564
G1 X243.5943 Y103.6223
G3X243.5924Y103.6226I-0.1502J-0.9887
G1 X241.1482 Y103.989
G1 X241.1477
G1 X240.6893 Y104.0575
G1 X240.689
G1 X237.2566 Y104.5741
G1 X235.5421 Y104.8393
G1 X234.687 Y104.9745
G1 X233.8318 Y105.1122
G1 X233.2075 Y105.2143
G1 X232.6031 Y105.3146
G1 X231.4309 Y105.5124
G1 X230.3325 Y105.7016
G1 X229.8182 Y105.7913
G1 X229.3204 Y105.8787
G1 X227.3873 Y106.2235
G1 X226.5427 Y106.3763
G1 X225.7505 Y106.5205
G1 X224.2645 Y106.7931
G1 X222.9642 Y107.033
G1 X221.828 Y107.2431
G3X221.3292Y107.3354I-12.1876J-64.4817
G3X220.8617Y107.4218I-7.2797J-38.0569
G3X220.4236Y107.5028I-5.6585J-29.3958
G3X220.0129Y107.5786I-4.7654J-24.6651
G3X219.6278Y107.6496I-4.1736J-21.5577
G3X219.2667Y107.7161I-3.7411J-19.3066
G3X218.9282Y107.7783I-3.4051J-17.5722
G3X218.6108Y107.8366I-3.1332J-16.1791
G3X218.3132Y107.8911I-2.9065J-15.025
G3X218.0291Y107.943I-2.7131J-14.0466
G3X213.8448Y108.6933I-115.6135J-632.7156
G1 X213.8441 Y108.6934
G3X211.3436Y109.1235I-71.167J-406.2503
G3X206.9648Y109.845I-89.507J-529.5808
G3X206.9638Y109.8452I-0.1585J-0.9874
G1 X205.3234 Y110.1068
G3X205.3213Y110.1071I-0.1575J-0.9875
G1 X203.8855 Y110.333
G3X203.8832Y110.3333I-0.1554J-0.9879
G1 X201.3696 Y110.7226
G3X201.3675Y110.7229I-0.1531J-0.9882
G1 X199.4818 Y111.011
G3X199.4802Y111.0112I-0.151J-0.9885
G1 X196.6534 Y111.4385
G3X196.296Y111.4923I-4.8627J-31.0989
G3X195.9873Y111.5387I-4.8364J-31.1196
G3X195.4442Y111.6203I-7.0558J-45.1209
G3X195.0387Y111.6812I-6.9894J-45.1777
G3X194.4284Y111.7727I-10.6069J-68.6113
G3X193.8184Y111.8642I-18.1939J-119.2161
G1 X190.9096 Y112.2993
G3X190.9085Y112.2995I-0.1479J-0.989
G1 X190.2718 Y112.3939
G3X190.2708Y112.3941I-0.1468J-0.9892
G1 X189.0372 Y112.5759
G1 X189.0363 Y112.576
G1 X188.8921 Y112.5971
G3X179.6813Y113.8657I-72.2098J-490.2319
G3X179.6795Y113.8659I-0.1271J-0.9919
G1 X178.5288 Y114.0114
G3X178.5269Y114.0116I-0.1254J-0.9921
G3X170.446Y114.9526I-63.3932J-509.2552
G1 X170.4454
G1 X169.8736 Y115.0143
G3X169.8721Y115.0145I-0.1072J-0.9942
G1 X168.7463 Y115.1342
G3X168.7436Y115.1344I-0.1057J-0.9944
G1 X166.5616 Y115.3605
G3X166.5596Y115.3607I-0.1031J-0.9947
G1 X166.0481 Y115.4127
G1 X166.0472 Y115.4128
G3X157.9777Y116.1879I-88.5536J-879.4858
G1 X157.9768 Y116.188
G1 X156.4647 Y116.325
G3X156.4635Y116.3251I-0.0902J-0.9959
G1 X155.2762 Y116.4305
G1 X153.7819 Y116.5615 Z-2.0
G1 X151.7893 Y116.7329
G1 X150.2946 Y116.8593 Z-5.0
G1 X145.1067 Y117.2824
G1 X145.1062
G1 X144.3967 Y117.3383
G3X144.3952Y117.3384I-0.0785J-0.9969
G1 X141.7343 Y117.5438
G3X141.7326Y117.544I-0.077J-0.997
G1 X140.7346 Y117.6194
G1 X140.734
G1 X140.2973 Y117.6521
G1 X140.2969 Y117.6522
G1 X139.8875 Y117.6827
G1 X139.8867 Y117.6828
G1 X138.3515 Y117.7959
G1 X138.3507
G1 X138.0628 Y117.8169
G3X138.0617Y117.817I-0.0727J-0.9974
G1 X135.9026 Y117.9719
G3X135.9006Y117.972I-0.0716J-0.9974
G1 X133.7412 Y118.1226
G3X133.7395Y118.1228I-0.0696J-0.9976
G1 X132.3868 Y118.2149
G3X132.3849Y118.215I-0.068J-0.9977
G1 X129.7635 Y118.3887
G3X129.7622I-0.0661J-0.9978
G1 X129.4549 Y118.4087
G3X129.4536Y118.4088I-0.0647J-0.9979
G1 X127.0149 Y118.5637
G3X127.0132Y118.5638I-0.0634J-0.998
G1 X125.8699 Y118.6345
G3X125.8683Y118.6346I-0.0617J-0.9981
G1 X123.653 Y118.7681
G3X123.6515Y118.7682I-0.0601J-0.9982
G1 X122.6129 Y118.8291
G1 X122.6122 Y118.8292
G1 X106.4949 Y119.6542
G1 X106.4945
G1 X104.4809 Y119.7427
G3X104.4795Y119.7428I-0.0439J-0.999
G1 X102.7175 Y119.8179
G3X102.7159Y119.818I-0.0426J-0.9991
G1 X99.632 Y119.9446
G3X99.6309I-0.041J-0.9992
G1 X99.0526 Y119.9677
G1 X99.0521
G1 X97.9678 Y120.0104
G1 X97.9672 Y120.0105
G1 X97.0185 Y120.0473
G3X97.0173I-0.0388J-0.9992
G1 X93.6966 Y120.1721
G1 X93.6956
G1 X93.488 Y120.1797
G1 X93.4872
G1 X90.374 Y120.2911
G3X90.3729I-0.0357J-0.9994
G1 X89.1754 Y120.3327
G1 X89.1749
G1 X87.996 Y120.373
G1 X87.9954
G1 X86.835 Y120.4119
G1 X86.8344
G1 X85.6921 Y120.4495
G1 X85.6915 Y120.4496
G1 X84.567 Y120.486
G1 X84.5666
G1 X84.0131 Y120.5036
G1 X84.0124 Y120.5037
G1 X81.8158 Y120.5722
G1 X81.8151 Y120.5723
G1 X81.2831 Y120.5885
G1 X81.2827
G1 X80.227 Y120.6203
G1 X80.2265
G1 X79.1872 Y120.6511
G1 X79.1869
G1 X78.6753 Y120.666
G1 X78.675
G1 X78.1675 Y120.6807
G3X78.1664I-0.0289J-0.9996
G1 X74.1383 Y120.7928
G3X72.247Y120.8428I-13.9296J-490.9892
G1 X71.7903 Y120.8547
G1 X71.7895
G1 X68.1592 Y120.9456
G3X68.1578I-0.025J-0.9997
G1 X64.7543 Y121.026
G1 X64.7534
G1 X63.1579 Y121.0621
G1 X63.1571 Y121.0622
G1 X60.066 Y121.1297
G1 X60.0652
G1 X58.6161 Y121.1602
G1 X58.6158
G1 X57.9139 Y121.1748
G1 X57.9137
G1 X57.224 Y121.1889
G3X56.5408Y121.2028I-2.8133J-121.658
G1 X55.203 Y121.2296
G1 X55.2021
G1 X50.0136 Y121.3288
G3X50.0123I-0.0191J-0.9998
G1 X45.4722 Y121.41
G1 X45.4716
G1 X45.3474 Y121.4122
G1 X45.347
G1 X41.3898 Y121.4791
G1 X41.3891
G1 X37.9265 Y121.5351
G1 X37.9261
G1 X37.1686 Y121.5471
G1 X37.168
G1 X32.3287 Y121.6207
G1 X31.2978 Y121.6364 Z-2.9381
G1 X31.297 Z-2.9365
G1 X30.8288 Y121.6432 Z-2.0
G1 X28.829 Y121.672
G1 X27.3292 Y121.6936 Z-5.0
G1 X26.8943 Y121.6999
G1 X26.8939
G1 X26.0683 Y121.7115
G1 X26.0682
G1 X25.2943 Y121.7222
G1 X25.2939
G1 X19.4895 Y121.8006
G1 X19.489
G1 X16.5867 Y121.8383
G1 X16.5864
G1 X13.6842 Y121.875
G3X12.6716Y120.8751I-0.0127J-0.9999
G1 Y5.8751
G3X13.6843Y4.8752I1.0J0.0
G1 X18.4767 Y4.9363
G1 X18.4773
G1 X22.9701 Y4.996
G1 X22.9705
G1 X25.0765 Y5.0249
G1 X25.0769
G1 X26.3907 Y5.0435
G1 X27.8905 Y5.0646 Z-2.0
G1 X29.1573 Y5.0825
G1 X29.1579 Y5.0826
G1 X29.8903 Y5.0933
G1 X31.3901 Y5.1154 Z-5.0
G1 X32.9831 Y5.1388
G1 X32.9837
G1 X36.5699 Y5.1937
G1 X36.5705
G1 X39.9325 Y5.2472
G1 X39.933
G1 X41.509 Y5.273
G1 X41.5093
G1 X43.0359 Y5.2985
G1 X48.9534 Y5.402
G1 X48.9539
G1 X54.1301 Y5.4994
G1 X54.1309 Y5.4995
G1 X55.2632 Y5.5217
G1 X55.2637 Y5.5218
G1 X57.4575 Y5.566
G1 X57.458
G1 X58.4863 Y5.5872
G1 X58.4871
G1 X62.4696 Y5.6727
G3X62.9112Y5.6825I-0.7265J42.6634
G1 X64.6248 Y5.7212
G1 X64.6257
G1 X67.8432 Y5.7969
G1 X67.8441
G1 X69.2325 Y5.8309
G3X69.3347Y5.8329I0.0147J1.8654
G3X69.4365Y5.8359I-0.0051J1.8638
G1 X72.036 Y5.9018
G1 X72.0363
G1 X90.3733 Y6.459
G1 X90.3734
G1 X91.0509 Y6.4828
G1 X91.0514 Y6.4829
G1 X92.3853 Y6.5304
G1 X92.386 Y6.5305
G1 X93.6782 Y6.5774
G3X93.6792I-0.0363J0.9993
G1 X96.1689 Y6.6704
G3X96.2568Y6.6734I-0.0283J2.0923
G3X96.3445Y6.6771I-0.043J2.0913
G1 X98.6684 Y6.7672
G3X98.6695Y6.7673I-0.0388J0.9992
G1 X99.7653 Y6.8109
G3X99.7663I-0.0398J0.9992
G1 X101.8892 Y6.8976
G3X101.8906Y6.8977I-0.0408J0.9992
G1 X103.8807 Y6.9816
G1 X103.8817
G1 X104.8146 Y7.0219
G1 X104.8151
G1 X105.267 Y7.0416
G1 X105.2673 Y7.0417
G1 X105.7121 Y7.0612
G1 X105.7129
G1 X107.4487 Y7.1389
G3X107.5677Y7.1439I-0.0416J2.4058
G3X107.67Y7.1486I-0.0582J2.4043
G3X107.772Y7.1533I-0.0586J2.4032
G3X107.8894Y7.159I-0.0589J2.4021
G1 X109.4902 Y7.2332
G3X109.492I-0.0463J0.9989
G1 X112.522 Y7.3791
G3X112.5238Y7.3792I-0.0481J0.9988
G1 X113.8493 Y7.4453
G3X113.8504Y7.4454I-0.0498J0.9988
G1 X115.093 Y7.5087
G3X115.094Y7.5088I-0.0509J0.9987
G1 X116.2589 Y7.5694
G3X116.2604I-0.0519J0.9987
G1 X118.4444 Y7.6862
G1 X118.4451 Y7.6863
G1 X126.0945 Y8.1294
G1 X126.0953 Y8.1295
G1 X128.0052 Y8.2487
G3X128.0075Y8.2488I-0.0623J0.9981
G1 X130.8721 Y8.4341
G3X130.8741Y8.4343I-0.0645J0.9979
G1 X132.3011 Y8.5295
G3X132.4869Y8.542I-0.5071J8.9341
G3X132.642Y8.5524I-0.5333J9.0363
G3X132.9188Y8.5712I-0.747J13.0542
G3X133.1239Y8.5852I-0.8265J13.6363
G3X133.7431Y8.6276I-3.0979J49.7671
G1 X152.1047 Y10.0432
G3X152.1058Y10.0433I-0.0852J0.9964
G1 X154.3963 Y10.2416
G3X155.3375Y10.3244I-10.8122J128.3437
G3X155.4043Y10.3305Z-4.8657I-11.7533J128.261
G1 X156.8314 Y10.4585 Z-2.0
G1 X157.2826 Y10.4989
