( Made using CamBam - http://www.cambam.co.uk )
( Calpinage Kit complet 1/10/2025 5:37:11 PM )
( Post-pro: GRBL )
( T0 : 2.0 )
G21 G90 G40
G0 Z3.0
( T0 : 2.0 )
T0 M6
( Contour1 )
G17
M3 S1000
G0 X30.96 Y26.64
G0 Z1.0
G1 F300.0 Z-1.0
F1500.0
G3X31.72Y26.29I0.76J0.65
G1 X35.72
G3X36.72Y27.29I0.0J1.0
G1 Y29.29
G1 X51.72
G1 Y27.29
G3X52.72Y26.29I1.0J0.0
G1 X56.72
G3X57.72Y27.29I0.0J1.0
G1 Y35.29
G3X56.88Y36.28I-1.0J0.0
G1 X31.88 Y40.28
G3X30.72Y39.29I-0.16J-0.99
G1 Y27.29
G3X30.96Y26.64I1.0J0.0
G1 F300.0 Z-2.0
F1500.0
G3X31.72Y26.29I0.76J0.65
G1 X35.72
G3X36.72Y27.29I0.0J1.0
G1 Y29.29
G1 X51.72
G1 Y27.29
G3X52.72Y26.29I1.0J0.0
G1 X56.72
G3X57.72Y27.29I0.0J1.0
G1 Y35.29
G3X56.88Y36.28I-1.0J0.0
G1 X31.88 Y40.28
G3X30.72Y39.29I-0.16J-0.99
G1 Y27.29
G3X30.96Y26.64I1.0J0.0
G1 F300.0 Z-3.0
F1500.0
G3X31.72Y26.29I0.76J0.65
G1 X35.72
G3X36.72Y27.29I0.0J1.0
G1 Y29.29
G1 X42.41
G1 X43.91 Z-2.0
G1 X45.91
G1 X47.41 Z-3.0
G1 X51.72
G1 Y27.29
G3X52.72Y26.29I1.0J0.0
G1 X56.72
G3X57.72Y27.29I0.0J1.0
G1 Y35.29
G3X56.88Y36.28I-1.0J0.0
G1 X48.29 Y37.65
G1 X46.8 Y37.89 Z-2.0
G1 X44.83 Y38.21
G1 X43.35 Y38.44 Z-3.0
G1 X31.88 Y40.28
G3X30.72Y39.29I-0.16J-0.99
G1 Y27.29
G3X30.96Y26.64I1.0J0.0
G1 F300.0 Z-4.0
F1500.0
G3X31.72Y26.29I0.76J0.65
G1 X35.72
G3X36.72Y27.29I0.0J1.0
G1 Y29.29
G1 X42.41
G1 X43.91 Z-2.0
G1 X45.91
G1 X47.41 Z-4.0
G1 X51.72
G1 Y27.29
G3X52.72Y26.29I1.0J0.0
G1 X56.72
G3X57.72Y27.29I0.0J1.0
G1 Y35.29
G3X56.88Y36.28I-1.0J0.0
G1 X48.29 Y37.65
G1 X46.8 Y37.89 Z-2.0
G1 X44.83 Y38.21
G1 X43.35 Y38.44 Z-4.0
G1 X31.88 Y40.28
G3X30.72Y39.29I-0.16J-0.99
G1 Y27.29
G3X30.96Y26.64I1.0J0.0
G1 F300.0 Z-5.0
F1500.0
G3X31.72Y26.29I0.76J0.65
G1 X35.72
G3X36.72Y27.29I0.0J1.0
G1 Y29.29
G1 X42.41
G1 X43.91 Z-2.0
G1 X45.91
G1 X47.41 Z-5.0
G1 X51.72
G1 Y27.29
G3X52.72Y26.29I1.0J0.0
G1 X56.72
G3X57.72Y27.29I0.0J1.0
G1 Y35.29
G3X56.88Y36.28I-1.0J0.0
G1 X48.29 Y37.65
G1 X46.8 Y37.89 Z-2.0
G1 X44.83 Y38.21
G1 X43.35 Y38.44 Z-5.0
G1 X31.88 Y40.28
G3X30.72Y39.29I-0.16J-0.99
G1 Y27.29
G3X30.96Y26.64I1.0J0.0
( Contour4 )
S1000
G0 Z3.0
G0 X24.67 Y23.93
G0 Z1.0
G1 F300.0 Z-1.0
G1 F1500.0 Y42.38
G1 X64.17
G1 Y23.93
G1 X24.67
G1 F300.0 Z-2.0
G1 F1500.0 Y42.38
G1 X64.17
G1 Y23.93
G1 X24.67
G1 F300.0 Z-3.0
G1 F1500.0 Y42.38
G1 X43.41
G1 X44.91 Z-2.0
G1 X46.91
G1 X48.41 Z-3.0
G1 X64.17
G1 Y23.93
G1 X47.41
G1 X45.91 Z-2.0
G1 X43.91
G1 X42.41 Z-3.0
G1 X24.67
G1 F300.0 Z-4.0
G1 F1500.0 Y42.38
G1 X43.41
G1 X44.91 Z-2.0
G1 X46.91
G1 X48.41 Z-4.0
G1 X64.17
G1 Y23.93
G1 X47.41
G1 X45.91 Z-2.0
G1 X43.91
G1 X42.41 Z-4.0
G1 X24.67
G1 F300.0 Z-5.0
G1 F1500.0 Y42.38
G1 X43.41
G1 X44.91 Z-2.0
G1 X46.91
G1 X48.41 Z-5.0
G1 X64.17
G1 Y23.93
G1 X47.41
G1 X45.91 Z-2.0
G1 X43.91
G1 X42.41 Z-5.0
G1 X24.67
( Contour2 )
S1000
G0 Z3.0
G0 X31.18 Y65.44
G0 Z1.0
G1 F300.0 Z-1.0
F1500.0
G3X31.61Y65.35I0.43J0.9
G1 X35.61
G3X36.61Y66.35I0.0J1.0
G1 Y68.35
G1 X51.61
G1 Y66.35
G3X52.61Y65.35I1.0J0.0
G1 X56.61
G3X57.61Y66.35I0.0J1.0
G1 Y83.35
G3X56.46Y84.33I-1.0J0.0
G1 X31.46 Y80.33
G3X30.61Y79.35I0.16J-0.99
G1 Y66.35
G3X31.18Y65.44I1.0J0.0
G1 F300.0 Z-2.0
F1500.0
G3X31.61Y65.35I0.43J0.9
G1 X35.61
G3X36.61Y66.35I0.0J1.0
G1 Y68.35
G1 X51.61
G1 Y66.35
G3X52.61Y65.35I1.0J0.0
G1 X56.61
G3X57.61Y66.35I0.0J1.0
G1 Y83.35
G3X56.46Y84.33I-1.0J0.0
G1 X31.46 Y80.33
G3X30.61Y79.35I0.16J-0.99
G1 Y66.35
G3X31.18Y65.44I1.0J0.0
G1 F300.0 Z-3.0
F1500.0
G3X31.61Y65.35I0.43J0.9
G1 X35.61
G3X36.61Y66.35I0.0J1.0
G1 Y68.35
G1 X42.41
G1 X43.91 Z-2.0
G1 X45.91
G1 X47.41 Z-3.0
G1 X51.61
G1 Y66.35
G3X52.61Y65.35I1.0J0.0
G1 X56.61
G3X57.61Y66.35I0.0J1.0
G1 Y83.35
G3X56.46Y84.33I-1.0J0.0
G1 X46.27 Y82.7
G1 X44.79 Y82.47 Z-2.0
G1 X42.82 Y82.15
G1 X41.33 Y81.91 Z-3.0
G1 X31.46 Y80.33
G3X30.61Y79.35I0.16J-0.99
G1 Y66.35
G3X31.18Y65.44I1.0J0.0
G1 F300.0 Z-4.0
F1500.0
G3X31.61Y65.35I0.43J0.9
G1 X35.61
G3X36.61Y66.35I0.0J1.0
G1 Y68.35
G1 X42.41
G1 X43.91 Z-2.0
G1 X45.91
G1 X47.41 Z-4.0
G1 X51.61
G1 Y66.35
G3X52.61Y65.35I1.0J0.0
G1 X56.61
G3X57.61Y66.35I0.0J1.0
G1 Y83.35
G3X56.46Y84.33I-1.0J0.0
G1 X46.27 Y82.7
G1 X44.79 Y82.47 Z-2.0
G1 X42.82 Y82.15
G1 X41.33 Y81.91 Z-4.0
G1 X31.46 Y80.33
G3X30.61Y79.35I0.16J-0.99
G1 Y66.35
G3X31.18Y65.44I1.0J0.0
G1 F300.0 Z-5.0
F1500.0
G3X31.61Y65.35I0.43J0.9
G1 X35.61
G3X36.61Y66.35I0.0J1.0
G1 Y68.35
G1 X42.41
G1 X43.91 Z-2.0
G1 X45.91
G1 X47.41 Z-5.0
G1 X51.61
G1 Y66.35
G3X52.61Y65.35I1.0J0.0
G1 X56.61
G3X57.61Y66.35I0.0J1.0
G1 Y83.35
G3X56.46Y84.33I-1.0J0.0
G1 X46.27 Y82.7
G1 X44.79 Y82.47 Z-2.0
G1 X42.82 Y82.15
G1 X41.33 Y81.91 Z-5.0
G1 X31.46 Y80.33
G3X30.61Y79.35I0.16J-0.99
G1 Y66.35
G3X31.18Y65.44I1.0J0.0
( Contour3 )
S1000
G0 Z3.0
G0 X31.4 Y82.27
G0 Z1.0
G1 F300.0 Z-1.0
F1500.0
G3X31.91Y82.22I0.36J0.93
G1 X56.91 Y86.22
G3X57.75Y87.21I-0.16J0.99
G1 Y100.21
G3X56.75Y101.21I-1.0J0.0
G1 X52.75
G3X51.75Y100.21I0.0J-1.0
G1 Y98.21
G1 X36.75
G1 Y100.21
G3X35.75Y101.21I-1.0J0.0
G1 X31.75
G3X30.75Y100.21I0.0J-1.0
G1 Y83.21
G3X31.4Y82.27I1.0J0.0
G1 F300.0 Z-2.0
F1500.0
G3X31.91Y82.22I0.36J0.93
G1 X56.91 Y86.22
G3X57.75Y87.21I-0.16J0.99
G1 Y100.21
G3X56.75Y101.21I-1.0J0.0
G1 X52.75
G3X51.75Y100.21I0.0J-1.0
G1 Y98.21
G1 X36.75
G1 Y100.21
G3X35.75Y101.21I-1.0J0.0
G1 X31.75
G3X30.75Y100.21I0.0J-1.0
G1 Y83.21
G3X31.4Y82.27I1.0J0.0
G1 F300.0 Z-3.0
F1500.0
G3X31.91Y82.22I0.36J0.93
G1 X40.7 Y83.63
G1 X42.18 Y83.86 Z-2.0
G1 X44.16 Y84.18
G1 X45.64 Y84.42 Z-3.0
G1 X56.91 Y86.22
G3X57.75Y87.21I-0.16J0.99
G1 Y100.21
G3X56.75Y101.21I-1.0J0.0
G1 X52.75
G3X51.75Y100.21I0.0J-1.0
G1 Y98.21
G1 X46.41
G1 X44.91 Z-2.0
G1 X42.91
G1 X41.41 Z-3.0
G1 X36.75
G1 Y100.21
G3X35.75Y101.21I-1.0J0.0
G1 X31.75
G3X30.75Y100.21I0.0J-1.0
G1 Y83.21
G3X31.4Y82.27I1.0J0.0
G1 F300.0 Z-4.0
F1500.0
G3X31.91Y82.22I0.36J0.93
G1 X40.7 Y83.63
G1 X42.18 Y83.86 Z-2.0
G1 X44.16 Y84.18
G1 X45.64 Y84.42 Z-4.0
G1 X56.91 Y86.22
G3X57.75Y87.21I-0.16J0.99
G1 Y100.21
G3X56.75Y101.21I-1.0J0.0
G1 X52.75
G3X51.75Y100.21I0.0J-1.0
G1 Y98.21
G1 X46.41
G1 X44.91 Z-2.0
G1 X42.91
G1 X41.41 Z-4.0
G1 X36.75
G1 Y100.21
G3X35.75Y101.21I-1.0J0.0
G1 X31.75
G3X30.75Y100.21I0.0J-1.0
G1 Y83.21
G3X31.4Y82.27I1.0J0.0
G1 F300.0 Z-5.0
F1500.0
G3X31.91Y82.22I0.36J0.93
G1 X40.7 Y83.63
G1 X42.18 Y83.86 Z-2.0
G1 X44.16 Y84.18
G1 X45.64 Y84.42 Z-5.0
G1 X56.91 Y86.22
G3X57.75Y87.21I-0.16J0.99
G1 Y100.21
G3X56.75Y101.21I-1.0J0.0
G1 X52.75
G3X51.75Y100.21I0.0J-1.0
G1 Y98.21
G1 X46.41
G1 X44.91 Z-2.0
G1 X42.91
G1 X41.41 Z-5.0
G1 X36.75
G1 Y100.21
G3X35.75Y101.21I-1.0J0.0
G1 X31.75
G3X30.75Y100.21I0.0J-1.0
G1 Y83.21
G3X31.4Y82.27I1.0J0.0
( Contour6 )
S1000
G0 Z3.0
G0 X24.67 Y63.88
G0 Z1.0
G1 F300.0 Z-1.0
G1 F1500.0 Y102.88
G1 X64.17
G1 Y63.88
G1 X24.67
G1 F300.0 Z-2.0
G1 F1500.0 Y102.88
G1 X64.17
G1 Y63.88
G1 X24.67
G1 F300.0 Z-3.0
G1 F1500.0 Y81.13
G1 Y82.63 Z-2.0
G1 Y84.63
G1 Y86.13 Z-3.0
G1 Y102.88
G1 X41.41
G1 X42.91 Z-2.0
G1 X44.91
G1 X46.41 Z-3.0
G1 X64.17
G1 Y87.13
G1 Y85.63 Z-2.0
G1 Y83.63
G1 Y82.13 Z-3.0
G1 Y63.88
G1 X47.41
G1 X45.91 Z-2.0
G1 X43.91
G1 X42.41 Z-3.0
G1 X24.67
G1 F300.0 Z-4.0
G1 F1500.0 Y81.13
G1 Y82.63 Z-2.0
G1 Y84.63
G1 Y86.13 Z-4.0
G1 Y102.88
G1 X41.41
G1 X42.91 Z-2.0
G1 X44.91
G1 X46.41 Z-4.0
G1 X64.17
G1 Y87.13
G1 Y85.63 Z-2.0
G1 Y83.63
G1 Y82.13 Z-4.0
G1 Y63.88
G1 X47.41
G1 X45.91 Z-2.0
G1 X43.91
G1 X42.41 Z-4.0
G1 X24.67
G1 F300.0 Z-5.0
G1 F1500.0 Y81.13
G1 Y82.63 Z-2.0
G1 Y84.63
G1 Y86.13 Z-5.0
G1 Y102.88
G1 X41.41
G1 X42.91 Z-2.0
G1 X44.91
G1 X46.41 Z-5.0
G1 X64.17
G1 Y87.13
G1 Y85.63 Z-2.0
G1 Y83.63
G1 Y82.13 Z-5.0
G1 Y63.88
G1 X47.41
G1 X45.91 Z-2.0
G1 X43.91
G1 X42.41 Z-5.0
G1 X24.67
( Contour7 )
S1000
G0 Z3.0
G0 X90.21 Y94.88
G0 Z1.0
G1 F300.0 Z-1.0
G1 F1500.0 Y102.88
G1 X113.21
G1 Y94.88
G1 X90.21
G1 F300.0 Z-2.0
G1 F1500.0 Y102.88
G1 X113.21
G1 Y94.88
G1 X90.21
G1 F300.0 Z-3.0
G1 F1500.0 Y102.88
G1 X99.41
G1 X100.91 Z-2.0
G1 X102.91
G1 X104.41 Z-3.0
G1 X113.21
G1 Y94.88
G1 X104.41
G1 X102.91 Z-2.0
G1 X100.91
G1 X99.41 Z-3.0
G1 X90.21
G1 F300.0 Z-4.0
G1 F1500.0 Y102.88
G1 X99.41
G1 X100.91 Z-2.0
G1 X102.91
G1 X104.41 Z-4.0
G1 X113.21
G1 Y94.88
G1 X104.41
G1 X102.91 Z-2.0
G1 X100.91
G1 X99.41 Z-4.0
G1 X90.21
G1 F300.0 Z-5.0
G1 F1500.0 Y102.88
G1 X99.41
G1 X100.91 Z-2.0
G1 X102.91
G1 X104.41 Z-5.0
G1 X113.21
G1 Y94.88
G1 X104.41
G1 X102.91 Z-2.0
G1 X100.91
G1 X99.41 Z-5.0
G1 X90.21
( Contour8 )
S1000
G0 Z3.0
G0 Y23.88
G0 Z1.0
G1 F300.0 Z-1.0
G1 F1500.0 Y31.88
G1 X113.21
G1 Y23.88
G1 X90.21
G1 F300.0 Z-2.0
G1 F1500.0 Y31.88
G1 X113.21
G1 Y23.88
G1 X90.21
G1 F300.0 Z-3.0
G1 F1500.0 Y31.88
G1 X98.38
G1 X99.88 Z-2.0
G1 X101.88
G1 X103.38 Z-3.0
G1 X113.21
G1 Y23.88
G1 X103.41
G1 X101.91 Z-2.0
G1 X99.91
G1 X98.41 Z-3.0
G1 X90.21
G1 F300.0 Z-4.0
G1 F1500.0 Y31.88
G1 X98.38
G1 X99.88 Z-2.0
G1 X101.88
G1 X103.38 Z-4.0
G1 X113.21
G1 Y23.88
G1 X103.41
G1 X101.91 Z-2.0
G1 X99.91
G1 X98.41 Z-4.0
G1 X90.21
G1 F300.0 Z-5.0
G1 F1500.0 Y31.88
G1 X98.38
G1 X99.88 Z-2.0
G1 X101.88
G1 X103.38 Z-5.0
G1 X113.21
G1 Y23.88
G1 X103.41
G1 X101.91 Z-2.0
G1 X99.91
G1 X98.41 Z-5.0
G1 X90.21
( Contour9 )
S1000
G0 Z3.0
G0 X136.94 Y38.38
G0 Z1.0
G1 F300.0 Z-1.0
G1 F1500.0 Y88.38
G1 X155.94
G1 Y38.38
G1 X136.94
G1 F300.0 Z-2.0
G1 F1500.0 Y88.38
G1 X155.94
G1 Y38.38
G1 X136.94
G1 F300.0 Z-3.0
G1 F1500.0 Y61.13
G1 Y62.63 Z-2.0
G1 Y64.63
G1 Y66.13 Z-3.0
G1 Y88.38
G1 X155.94
G1 Y66.13
G1 Y64.63 Z-2.0
G1 Y62.63
G1 Y61.13 Z-3.0
G1 Y38.38
G1 X136.94
G1 F300.0 Z-4.0
G1 F1500.0 Y61.13
G1 Y62.63 Z-2.0
G1 Y64.63
G1 Y66.13 Z-4.0
G1 Y88.38
G1 X155.94
G1 Y66.13
G1 Y64.63 Z-2.0
G1 Y62.63
G1 Y61.13 Z-4.0
G1 Y38.38
G1 X136.94
G1 F300.0 Z-5.0
G1 F1500.0 Y61.13
G1 Y62.63 Z-2.0
G1 Y64.63
G1 Y66.13 Z-5.0
G1 Y88.38
G1 X155.94
G1 Y66.13
G1 Y64.63 Z-2.0
G1 Y62.63
G1 Y61.13 Z-5.0
G1 Y38.38
G1 X136.94
( Contour10 )
S1000
G0 Z3.0
G0 X171.73 Y49.38
G0 Z1.0
G1 F300.0 Z-1.0
G1 F1500.0 Y62.38
G1 X179.73
G1 Y49.38
G1 X171.73
G1 F300.0 Z-2.0
G1 F1500.0 Y62.38
G1 X179.73
G1 Y49.38
G1 X171.73
G1 F300.0 Z-3.0
G1 F1500.0 Y53.13
G1 Y54.63 Z-2.0
G1 Y56.63
G1 Y58.13 Z-3.0
G1 Y62.38
G1 X179.73
G1 Y58.13
G1 Y56.63 Z-2.0
G1 Y54.63
G1 Y53.13 Z-3.0
G1 Y49.38
G1 X171.73
G1 F300.0 Z-4.0
G1 F1500.0 Y53.13
G1 Y54.63 Z-2.0
G1 Y56.63
G1 Y58.13 Z-4.0
G1 Y62.38
G1 X179.73
G1 Y58.13
G1 Y56.63 Z-2.0
G1 Y54.63
G1 Y53.13 Z-4.0
G1 Y49.38
G1 X171.73
G1 F300.0 Z-5.0
G1 F1500.0 Y53.13
G1 Y54.63 Z-2.0
G1 Y56.63
G1 Y58.13 Z-5.0
G1 Y62.38
G1 X179.73
G1 Y58.13
G1 Y56.63 Z-2.0
G1 Y54.63
G1 Y53.13 Z-5.0
G1 Y49.38
G1 X171.73
( Contour11 )
S1000
G0 Z3.0
G0 X173.63 Y86.39
G0 Z1.0
G1 F300.0 Z-1.0
G1 F1500.0 X176.66 Y104.58
G1 X215.62 Y98.1
G1 X212.6 Y79.91
G1 X173.63 Y86.39
G1 F300.0 Z-2.0
G1 F1500.0 X176.66 Y104.58
G1 X215.62 Y98.1
G1 X212.6 Y79.91
G1 X173.63 Y86.39
G1 F300.0 Z-3.0
G1 F1500.0 X176.66 Y104.58
G1 X193.24 Y101.82
G1 X194.72 Y101.58 Z-2.0
G1 X196.69 Y101.25
G1 X198.17 Y101.0 Z-3.0
G1 X215.62 Y98.1
G1 X212.6 Y79.91
G1 X195.63 Y82.73
G1 X194.15 Y82.97 Z-2.0
G1 X192.17 Y83.3
G1 X190.7 Y83.55 Z-3.0
G1 X173.63 Y86.39
G1 F300.0 Z-4.0
G1 F1500.0 X176.66 Y104.58
G1 X193.24 Y101.82
G1 X194.72 Y101.58 Z-2.0
G1 X196.69 Y101.25
G1 X198.17 Y101.0 Z-4.0
G1 X215.62 Y98.1
G1 X212.6 Y79.91
G1 X195.63 Y82.73
G1 X194.15 Y82.97 Z-2.0
G1 X192.17 Y83.3
G1 X190.7 Y83.55 Z-4.0
G1 X173.63 Y86.39
G1 F300.0 Z-5.0
G1 F1500.0 X176.66 Y104.58
G1 X193.24 Y101.82
G1 X194.72 Y101.58 Z-2.0
G1 X196.69 Y101.25
G1 X198.17 Y101.0 Z-5.0
G1 X215.62 Y98.1
G1 X212.6 Y79.91
G1 X195.63 Y82.73
G1 X194.15 Y82.97 Z-2.0
G1 X192.17 Y83.3
G1 X190.7 Y83.55 Z-5.0
G1 X173.63 Y86.39
( Contour12 )
S1000
G0 Z3.0
G0 X196.15 Y41.79
G0 Z1.0
G1 F300.0 Z-1.0
F1500.0
G3X197.12Y41.0I0.98J0.21
G1 X205.12
G3X206.11Y41.84I0.0J1.0
G1 X210.11 Y66.84
G3X209.12Y68.0I-0.99J0.16
G1 X197.12
G3X196.12Y67.0I0.0J-1.0
G1 Y63.0
G3X197.12Y62.0I1.0J0.0
G1 X199.12
G1 Y47.0
G1 X197.12
G3X196.12Y46.0I0.0J-1.0
G1 Y42.0
G3X196.15Y41.79I1.0J0.0
G1 F300.0 Z-2.0
F1500.0
G3X197.12Y41.0I0.98J0.21
G1 X205.12
G3X206.11Y41.84I0.0J1.0
G1 X210.11 Y66.84
G3X209.12Y68.0I-0.99J0.16
G1 X197.12
G3X196.12Y67.0I0.0J-1.0
G1 Y63.0
G3X197.12Y62.0I1.0J0.0
G1 X199.12
G1 Y47.0
G1 X197.12
G3X196.12Y46.0I0.0J-1.0
G1 Y42.0
G3X196.15Y41.79I1.0J0.0
G1 F300.0 Z-3.0
F1500.0
G3X197.12Y41.0I0.98J0.21
G1 X205.12
G3X206.11Y41.84I0.0J1.0
G1 X207.71 Y51.81
G1 X207.95 Y53.29 Z-2.0
G1 X208.26 Y55.27
G1 X208.5 Y56.75 Z-3.0
G1 X210.11 Y66.84
G3X209.12Y68.0I-0.99J0.16
G1 X197.12
G3X196.12Y67.0I0.0J-1.0
G1 Y63.0
G3X197.12Y62.0I1.0J0.0
G1 X199.12
G1 Y57.13
G1 Y55.63 Z-2.0
G1 Y53.63
G1 Y52.13 Z-3.0
G1 Y47.0
G1 X197.12
G3X196.12Y46.0I0.0J-1.0
G1 Y42.0
G3X196.15Y41.79I1.0J0.0
G1 F300.0 Z-4.0
F1500.0
G3X197.12Y41.0I0.98J0.21
G1 X205.12
G3X206.11Y41.84I0.0J1.0
G1 X207.71 Y51.81
G1 X207.95 Y53.29 Z-2.0
G1 X208.26 Y55.27
G1 X208.5 Y56.75 Z-4.0
G1 X210.11 Y66.84
G3X209.12Y68.0I-0.99J0.16
G1 X197.12
G3X196.12Y67.0I0.0J-1.0
G1 Y63.0
G3X197.12Y62.0I1.0J0.0
G1 X199.12
G1 Y57.13
G1 Y55.63 Z-2.0
G1 Y53.63
G1 Y52.13 Z-4.0
G1 Y47.0
G1 X197.12
G3X196.12Y46.0I0.0J-1.0
G1 Y42.0
G3X196.15Y41.79I1.0J0.0
G1 F300.0 Z-5.0
F1500.0
G3X197.12Y41.0I0.98J0.21
G1 X205.12
G3X206.11Y41.84I0.0J1.0
G1 X207.71 Y51.81
G1 X207.95 Y53.29 Z-2.0
G1 X208.26 Y55.27
G1 X208.5 Y56.75 Z-5.0
G1 X210.11 Y66.84
G3X209.12Y68.0I-0.99J0.16
G1 X197.12
G3X196.12Y67.0I0.0J-1.0
G1 Y63.0
G3X197.12Y62.0I1.0J0.0
G1 X199.12
G1 Y57.13
G1 Y55.63 Z-2.0
G1 Y53.63
G1 Y52.13 Z-5.0
G1 Y47.0
G1 X197.12
G3X196.12Y46.0I0.0J-1.0
G1 Y42.0
G3X196.15Y41.79I1.0J0.0
( Contour13 )
S1000
G0 Z3.0
G0 X207.57 Y41.83
G0 Z1.0
G1 F300.0 Z-1.0
F1500.0
G3X208.55Y41.03I0.98J0.2
G1 X220.55
G3X221.55Y42.03I0.0J1.0
G1 Y46.03
G3X220.55Y47.03I-1.0J0.0
G1 X218.55
G1 Y62.03
G1 X220.55
G3X221.55Y63.03I0.0J1.0
G1 Y67.03
G3X220.55Y68.03I-1.0J0.0
G1 X212.55
G3X211.57Y67.19I0.0J-1.0
G1 X207.57 Y42.19
G3Y41.83I0.99J-0.16
G1 F300.0 Z-2.0
F1500.0
G3X208.55Y41.03I0.98J0.2
G1 X220.55
G3X221.55Y42.03I0.0J1.0
G1 Y46.03
G3X220.55Y47.03I-1.0J0.0
G1 X218.55
G1 Y62.03
G1 X220.55
G3X221.55Y63.03I0.0J1.0
G1 Y67.03
G3X220.55Y68.03I-1.0J0.0
G1 X212.55
G3X211.57Y67.19I0.0J-1.0
G1 X207.57 Y42.19
G3Y41.83I0.99J-0.16
G1 F300.0 Z-3.0
F1500.0
G3X208.55Y41.03I0.98J0.2
G1 X220.55
G3X221.55Y42.03I0.0J1.0
G1 Y46.03
G3X220.55Y47.03I-1.0J0.0
G1 X218.55
G1 Y62.03
G1 X220.55
G3X221.55Y63.03I0.0J1.0
G1 Y67.03
G3X220.55Y68.03I-1.0J0.0
G1 X212.55
G3X211.57Y67.19I0.0J-1.0
G1 X207.57 Y42.19
G3Y41.83I0.99J-0.16
G1 F300.0 Z-4.0
F1500.0
G3X208.55Y41.03I0.98J0.2
G1 X220.55
G3X221.55Y42.03I0.0J1.0
G1 Y46.03
G3X220.55Y47.03I-1.0J0.0
G1 X218.55
G1 Y62.03
G1 X220.55
G3X221.55Y63.03I0.0J1.0
G1 Y67.03
G3X220.55Y68.03I-1.0J0.0
G1 X212.55
G3X211.57Y67.19I0.0J-1.0
G1 X207.57 Y42.19
G3Y41.83I0.99J-0.16
G1 F300.0 Z-5.0
F1500.0
G3X208.55Y41.03I0.98J0.2
G1 X220.55
G3X221.55Y42.03I0.0J1.0
G1 Y46.03
G3X220.55Y47.03I-1.0J0.0
G1 X218.55
G1 Y52.13
G0 Z-4.8
G1 Y57.13
G1 F300.0 Z-5.0
G1 F1500.0 Y62.03
G1 X220.55
G3X221.55Y63.03I0.0J1.0
G1 Y67.03
G3X220.55Y68.03I-1.0J0.0
G1 X212.55
G3X211.57Y67.19I0.0J-1.0
G1 X209.83 Y56.34
G0 Z-4.8
G1 X209.04 Y51.4
G1 F300.0 Z-5.0
G1 F1500.0 X207.57 Y42.19
G3Y41.83I0.99J-0.16
( Contour14 )
S1000
G0 Z3.0
G0 X222.22 Y41.8
G0 Z1.0
G1 F300.0 Z-1.0
F1500.0
G3X223.2Y40.99I0.98J0.18
G1 X231.2
G3X232.19Y41.83I0.0J1.0
G1 X236.19 Y66.83
G3X235.2Y67.99I-0.99J0.16
G1 X223.2
G3X222.2Y66.99I0.0J-1.0
G1 Y62.99
G3X223.2Y61.99I1.0J0.0
G1 X225.2
G1 Y46.99
G1 X223.2
G3X222.2Y45.99I0.0J-1.0
G1 Y41.99
G3X222.22Y41.8I1.0J0.0
G1 F300.0 Z-2.0
F1500.0
G3X223.2Y40.99I0.98J0.18
G1 X231.2
G3X232.19Y41.83I0.0J1.0
G1 X236.19 Y66.83
G3X235.2Y67.99I-0.99J0.16
G1 X223.2
G3X222.2Y66.99I0.0J-1.0
G1 Y62.99
G3X223.2Y61.99I1.0J0.0
G1 X225.2
G1 Y46.99
G1 X223.2
G3X222.2Y45.99I0.0J-1.0
G1 Y41.99
G3X222.22Y41.8I1.0J0.0
G1 F300.0 Z-3.0
F1500.0
G3X223.2Y40.99I0.98J0.18
G1 X231.2
G3X232.19Y41.83I0.0J1.0
G1 X233.83 Y52.11
G1 X234.07 Y53.59 Z-2.0
G1 X234.39 Y55.57
G1 X234.62 Y57.05 Z-3.0
G1 X236.19 Y66.83
G3X235.2Y67.99I-0.99J0.16
G1 X223.2
G3X222.2Y66.99I0.0J-1.0
G1 Y62.99
G3X223.2Y61.99I1.0J0.0
G1 X225.2
G1 Y57.13
G1 Y55.63 Z-2.0
G1 Y53.63
G1 Y52.13 Z-3.0
G1 Y46.99
G1 X223.2
G3X222.2Y45.99I0.0J-1.0
G1 Y41.99
G3X222.22Y41.8I1.0J0.0
G1 F300.0 Z-4.0
F1500.0
G3X223.2Y40.99I0.98J0.18
G1 X231.2
G3X232.19Y41.83I0.0J1.0
G1 X233.83 Y52.11
G1 X234.07 Y53.59 Z-2.0
G1 X234.39 Y55.57
G1 X234.62 Y57.05 Z-4.0
G1 X236.19 Y66.83
G3X235.2Y67.99I-0.99J0.16
G1 X223.2
G3X222.2Y66.99I0.0J-1.0
G1 Y62.99
G3X223.2Y61.99I1.0J0.0
G1 X225.2
G1 Y57.13
G1 Y55.63 Z-2.0
G1 Y53.63
G1 Y52.13 Z-4.0
G1 Y46.99
G1 X223.2
G3X222.2Y45.99I0.0J-1.0
G1 Y41.99
G3X222.22Y41.8I1.0J0.0
G1 F300.0 Z-5.0
F1500.0
G3X223.2Y40.99I0.98J0.18
G1 X231.2
G3X232.19Y41.83I0.0J1.0
G1 X233.83 Y52.11
G1 X234.07 Y53.59 Z-2.0
G1 X234.39 Y55.57
G1 X234.62 Y57.05 Z-5.0
G1 X236.19 Y66.83
G3X235.2Y67.99I-0.99J0.16
G1 X223.2
G3X222.2Y66.99I0.0J-1.0
G1 Y62.99
G3X223.2Y61.99I1.0J0.0
G1 X225.2
G1 Y57.13
G1 Y55.63 Z-2.0
G1 Y53.63
G1 Y52.13 Z-5.0
G1 Y46.99
G1 X223.2
G3X222.2Y45.99I0.0J-1.0
G1 Y41.99
G3X222.22Y41.8I1.0J0.0
( Contour15 )
S1000
G0 Z3.0
G0 X233.46 Y41.84
G0 Z1.0
G1 F300.0 Z-1.0
F1500.0
G3X234.45Y41.02I0.98J0.18
G1 X246.45
G3X247.45Y42.02I0.0J1.0
G1 Y46.02
G3X246.45Y47.02I-1.0J0.0
G1 X244.45
G1 Y62.02
G1 X246.45
G3X247.45Y63.02I0.0J1.0
G1 Y67.02
G3X246.45Y68.02I-1.0J0.0
G1 X238.45
G3X237.46Y67.18I0.0J-1.0
G1 X233.46 Y42.18
G3Y41.84I0.99J-0.16
G1 F300.0 Z-2.0
F1500.0
G3X234.45Y41.02I0.98J0.18
G1 X246.45
G3X247.45Y42.02I0.0J1.0
G1 Y46.02
G3X246.45Y47.02I-1.0J0.0
G1 X244.45
G1 Y62.02
G1 X246.45
G3X247.45Y63.02I0.0J1.0
G1 Y67.02
G3X246.45Y68.02I-1.0J0.0
G1 X238.45
G3X237.46Y67.18I0.0J-1.0
G1 X233.46 Y42.18
G3Y41.84I0.99J-0.16
G1 F300.0 Z-3.0
F1500.0
G3X234.45Y41.02I0.98J0.18
G1 X246.45
G3X247.45Y42.02I0.0J1.0
G1 Y46.02
G3X246.45Y47.02I-1.0J0.0
G1 X244.45
G1 Y52.13
G1 Y53.63 Z-2.0
G1 Y55.63
G1 Y57.13 Z-3.0
G1 Y62.02
G1 X246.45
G3X247.45Y63.02I0.0J1.0
G1 Y67.02
G3X246.45Y68.02I-1.0J0.0
G1 X238.45
G3X237.46Y67.18I0.0J-1.0
G1 X235.83 Y57.02
G1 X235.6 Y55.53 Z-2.0
G1 X235.28 Y53.56
G1 X235.05 Y52.08 Z-3.0
G1 X233.46 Y42.18
G3Y41.84I0.99J-0.16
G1 F300.0 Z-4.0
F1500.0
G3X234.45Y41.02I0.98J0.18
G1 X246.45
G3X247.45Y42.02I0.0J1.0
G1 Y46.02
G3X246.45Y47.02I-1.0J0.0
G1 X244.45
G1 Y52.13
G1 Y53.63 Z-2.0
G1 Y55.63
G1 Y57.13 Z-4.0
G1 Y62.02
G1 X246.45
G3X247.45Y63.02I0.0J1.0
G1 Y67.02
G3X246.45Y68.02I-1.0J0.0
G1 X238.45
G3X237.46Y67.18I0.0J-1.0
G1 X235.83 Y57.02
G1 X235.6 Y55.53 Z-2.0
G1 X235.28 Y53.56
G1 X235.05 Y52.08 Z-4.0
G1 X233.46 Y42.18
G3Y41.84I0.99J-0.16
G1 F300.0 Z-5.0
F1500.0
G3X234.45Y41.02I0.98J0.18
G1 X246.45
G3X247.45Y42.02I0.0J1.0
G1 Y46.02
G3X246.45Y47.02I-1.0J0.0
G1 X244.45
G1 Y52.13
G1 Y53.63 Z-2.0
G1 Y55.63
G1 Y57.13 Z-5.0
G1 Y62.02
G1 X246.45
G3X247.45Y63.02I0.0J1.0
G1 Y67.02
G3X246.45Y68.02I-1.0J0.0
G1 X238.45
G3X237.46Y67.18I0.0J-1.0
G1 X235.83 Y57.02
G1 X235.6 Y55.53 Z-2.0
G1 X235.28 Y53.56
G1 X235.05 Y52.08 Z-5.0
G1 X233.46 Y42.18
G3Y41.84I0.99J-0.16
( Contour16 )
S1000
G0 Z3.0
G0 X247.63 Y41.76
G0 Z1.0
G1 F300.0 Z-1.0
F1500.0
G3X248.62Y40.92I0.99J0.17
G1 X256.62
G3X257.6Y41.77I0.0J1.0
G1 X261.6 Y66.77
G3X260.62Y67.92I-0.99J0.16
G1 X248.62
G3X247.62Y66.92I0.0J-1.0
G1 Y62.92
G3X248.62Y61.92I1.0J0.0
G1 X250.62
G1 Y46.92
G1 X248.62
G3X247.62Y45.92I0.0J-1.0
G1 Y41.92
G3X247.63Y41.76I1.0J0.0
G1 F300.0 Z-2.0
F1500.0
G3X248.62Y40.92I0.99J0.17
G1 X256.62
G3X257.6Y41.77I0.0J1.0
G1 X261.6 Y66.77
G3X260.62Y67.92I-0.99J0.16
G1 X248.62
G3X247.62Y66.92I0.0J-1.0
G1 Y62.92
G3X248.62Y61.92I1.0J0.0
G1 X250.62
G1 Y46.92
G1 X248.62
G3X247.62Y45.92I0.0J-1.0
G1 Y41.92
G3X247.63Y41.76I1.0J0.0
G1 F300.0 Z-3.0
F1500.0
G3X248.62Y40.92I0.99J0.17
G1 X256.62
G3X257.6Y41.77I0.0J1.0
G1 X259.22 Y51.89
G1 X259.46 Y53.37 Z-2.0
G1 X259.78 Y55.35
G1 X260.01 Y56.83 Z-3.0
G1 X261.6 Y66.77
G3X260.62Y67.92I-0.99J0.16
G1 X248.62
G3X247.62Y66.92I0.0J-1.0
G1 Y62.92
G3X248.62Y61.92I1.0J0.0
G1 X250.62
G1 Y57.13
G1 Y55.63 Z-2.0
G1 Y53.63
G1 Y52.13 Z-3.0
G1 Y46.92
G1 X248.62
G3X247.62Y45.92I0.0J-1.0
G1 Y41.92
G3X247.63Y41.76I1.0J0.0
G1 F300.0 Z-4.0
F1500.0
G3X248.62Y40.92I0.99J0.17
G1 X256.62
G3X257.6Y41.77I0.0J1.0
G1 X259.22 Y51.89
G1 X259.46 Y53.37 Z-2.0
G1 X259.78 Y55.35
G1 X260.01 Y56.83 Z-4.0
G1 X261.6 Y66.77
G3X260.62Y67.92I-0.99J0.16
G1 X248.62
G3X247.62Y66.92I0.0J-1.0
G1 Y62.92
G3X248.62Y61.92I1.0J0.0
G1 X250.62
G1 Y57.13
G1 Y55.63 Z-2.0
G1 Y53.63
G1 Y52.13 Z-4.0
G1 Y46.92
G1 X248.62
G3X247.62Y45.92I0.0J-1.0
G1 Y41.92
G3X247.63Y41.76I1.0J0.0
G1 F300.0 Z-5.0
F1500.0
G3X248.62Y40.92I0.99J0.17
G1 X256.62
G3X257.6Y41.77I0.0J1.0
G1 X259.22 Y51.89
G1 X259.46 Y53.37 Z-2.0
G1 X259.78 Y55.35
G1 X260.01 Y56.83 Z-5.0
G1 X261.6 Y66.77
G3X260.62Y67.92I-0.99J0.16
G1 X248.62
G3X247.62Y66.92I0.0J-1.0
G1 Y62.92
G3X248.62Y61.92I1.0J0.0
G1 X250.62
G1 Y57.13
G1 Y55.63 Z-2.0
G1 Y53.63
G1 Y52.13 Z-5.0
G1 Y46.92
G1 X248.62
G3X247.62Y45.92I0.0J-1.0
G1 Y41.92
G3X247.63Y41.76I1.0J0.0
( Contour17 )
S1000
G0 Z3.0
G0 X258.35 Y41.8
G0 Z1.0
G1 F300.0 Z-1.0
F1500.0
G3X259.33Y40.96I0.99J0.16
G1 X276.33
G3X277.33Y41.96I0.0J1.0
G1 Y45.96
G3X276.33Y46.96I-1.0J0.0
G1 X274.33
G1 Y61.96
G1 X276.33
G3X277.33Y62.96I0.0J1.0
G1 Y66.96
G3X276.33Y67.96I-1.0J0.0
G1 X263.33
G3X262.35Y67.12I0.0J-1.0
G1 X258.35 Y42.12
G3Y41.8I0.99J-0.16
G1 F300.0 Z-2.0
F1500.0
G3X259.33Y40.96I0.99J0.16
G1 X276.33
G3X277.33Y41.96I0.0J1.0
G1 Y45.96
G3X276.33Y46.96I-1.0J0.0
G1 X274.33
G1 Y61.96
G1 X276.33
G3X277.33Y62.96I0.0J1.0
G1 Y66.96
G3X276.33Y67.96I-1.0J0.0
G1 X263.33
G3X262.35Y67.12I0.0J-1.0
G1 X258.35 Y42.12
G3Y41.8I0.99J-0.16
G1 F300.0 Z-3.0
F1500.0
G3X259.33Y40.96I0.99J0.16
G1 X276.33
G3X277.33Y41.96I0.0J1.0
G1 Y45.96
G3X276.33Y46.96I-1.0J0.0
G1 X274.33
G1 Y52.13
G1 Y53.63 Z-2.0
G1 Y55.63
G1 Y57.13 Z-3.0
G1 Y61.96
G1 X276.33
G3X277.33Y62.96I0.0J1.0
G1 Y66.96
G3X276.33Y67.96I-1.0J0.0
G1 X263.33
G3X262.35Y67.12I0.0J-1.0
G1 X260.76 Y57.19
G1 X260.52 Y55.71 Z-2.0
G1 X260.21 Y53.73
G1 X259.97 Y52.25 Z-3.0
G1 X258.35 Y42.12
G3Y41.8I0.99J-0.16
G1 F300.0 Z-4.0
F1500.0
G3X259.33Y40.96I0.99J0.16
G1 X276.33
G3X277.33Y41.96I0.0J1.0
G1 Y45.96
G3X276.33Y46.96I-1.0J0.0
G1 X274.33
G1 Y52.13
G1 Y53.63 Z-2.0
G1 Y55.63
G1 Y57.13 Z-4.0
G1 Y61.96
G1 X276.33
G3X277.33Y62.96I0.0J1.0
G1 Y66.96
G3X276.33Y67.96I-1.0J0.0
G1 X263.33
G3X262.35Y67.12I0.0J-1.0
G1 X260.76 Y57.19
G1 X260.52 Y55.71 Z-2.0
G1 X260.21 Y53.73
G1 X259.97 Y52.25 Z-4.0
G1 X258.35 Y42.12
G3Y41.8I0.99J-0.16
G1 F300.0 Z-5.0
F1500.0
G3X259.33Y40.96I0.99J0.16
G1 X276.33
G3X277.33Y41.96I0.0J1.0
G1 Y45.96
G3X276.33Y46.96I-1.0J0.0
G1 X274.33
G1 Y52.13
G1 Y53.63 Z-2.0
G1 Y55.63
G1 Y57.13 Z-5.0
G1 Y61.96
G1 X276.33
G3X277.33Y62.96I0.0J1.0
G1 Y66.96
G3X276.33Y67.96I-1.0J0.0
G1 X263.33
G3X262.35Y67.12I0.0J-1.0
G1 X260.76 Y57.19
G1 X260.52 Y55.71 Z-2.0
G1 X260.21 Y53.73
G1 X259.97 Y52.25 Z-5.0
G1 X258.35 Y42.12
G3Y41.8I0.99J-0.16
( Contour18 )
S1000
G0 Z3.0
G0 X191.67 Y40.32
G0 Z1.0
G1 F300.0 Z-1.0
G1 F1500.0 Y68.32
G1 X282.67
G1 Y40.32
G1 X191.67
G1 F300.0 Z-2.0
G1 F1500.0 Y68.32
G1 X282.67
G1 Y40.32
G1 X191.67
G1 F300.0 Z-3.0
G1 F1500.0 Y52.13
G1 Y53.63 Z-2.0
G1 Y55.63
G1 Y57.13 Z-3.0
G1 Y68.32
G1 X208.67
G1 X210.17 Z-2.0
G1 X212.17
G1 X213.67 Z-3.0
G1 X257.41
G1 X258.91 Z-2.0
G1 X260.91
G1 X262.41 Z-3.0
G1 X282.67
G1 Y56.13
G1 Y54.63 Z-2.0
G1 Y52.63
G1 Y51.13 Z-3.0
G1 Y40.32
G1 X261.41
G1 X259.91 Z-2.0
G1 X257.91
G1 X256.41 Z-3.0
G1 X213.41
G1 X211.91 Z-2.0
G1 X209.91
G1 X208.41 Z-3.0
G1 X191.67
G1 F300.0 Z-4.0
G1 F1500.0 Y52.13
G1 Y53.63 Z-2.0
G1 Y55.63
G1 Y57.13 Z-4.0
G1 Y68.32
G1 X208.67
G1 X210.17 Z-2.0
G1 X212.17
G1 X213.67 Z-4.0
G1 X257.41
G1 X258.91 Z-2.0
G1 X260.91
G1 X262.41 Z-4.0
G1 X282.67
G1 Y56.13
G1 Y54.63 Z-2.0
G1 Y52.63
G1 Y51.13 Z-4.0
G1 Y40.32
G1 X261.41
G1 X259.91 Z-2.0
G1 X257.91
G1 X256.41 Z-4.0
G1 X213.41
G1 X211.91 Z-2.0
G1 X209.91
G1 X208.41 Z-4.0
G1 X191.67
G1 F300.0 Z-5.0
G1 F1500.0 Y52.13
G1 Y53.63 Z-2.0
G1 Y55.63
G1 Y57.13 Z-5.0
G1 Y68.32
G1 X208.67
G1 X210.17 Z-2.0
G1 X212.17
G1 X213.67 Z-5.0
G1 X257.41
G1 X258.91 Z-2.0
G1 X260.91
G1 X262.41 Z-5.0
G1 X282.67
G1 Y56.13
G1 Y54.63 Z-2.0
G1 Y52.63
G1 Y51.13 Z-5.0
G1 Y40.32
G1 X261.41
G1 X259.91 Z-2.0
G1 X257.91
G1 X256.41 Z-5.0
G1 X213.41
G1 X211.91 Z-2.0
G1 X209.91
G1 X208.41 Z-5.0
G1 X191.67
( Contour19 )
S1000
G0 Z3.0
G0 X188.37 Y14.08
G0 Z1.0
G1 F300.0 Z-1.0
G1 F1500.0 X189.26 Y14.21
G1 X191.54 Y14.54
G3Y14.55I-0.15J0.99
G1 X193.82 Y14.89
G1 X196.32 Y15.26
G1 X198.51 Y15.59
G3X198.52I-0.15J0.99
G1 X200.43 Y15.88
G1 X202.11 Y16.14
G1 X203.58 Y16.37
G1 X204.86 Y16.57
G1 X207.11 Y16.93
G1 X207.95 Y17.06
G1 X208.69 Y17.18
G1 X209.33 Y17.29
G1 X209.9 Y17.38
G1 X210.88 Y17.55
G3X210.89I-0.16J0.99
G1 X212.36 Y17.8
G3X212.37I-0.17J0.99
G1 X213.84 Y18.06
G3X213.85I-0.17J0.99
G1 X215.1 Y18.28
G1 X215.68 Y18.38
G3X220.23Y19.21I-119.52J668.29
G1 X221.93 Y19.53
G2X222.3Y19.59I10.41J-55.25
G3X222.31Y19.6I-0.18J0.98
G2X222.66Y19.66I6.61J-34.79
G3X222.67I-0.18J0.98
G2X223.01Y19.72I5.2J-27.17
G3Y19.73I-0.18J0.98
G1 X225.72 Y20.22
G3X225.73Y20.23I-0.18J0.98
G2X225.96Y20.27I2.13J-10.99
G3X225.98I-0.17J0.99
G2X226.21Y20.31I2.02J-10.46
G3X226.23Y20.32I-0.17J0.99
G2X226.44Y20.36I1.93J-9.98
G3X226.46I-0.17J0.99
G2X226.67Y20.4I1.84J-9.55
G3X226.7I-0.17J0.99
G2X226.9Y20.44I1.76J-9.15
G3X226.92I-0.17J0.99
G2X227.11Y20.48I1.69J-8.79
G3X227.13I-0.17J0.99
G2X227.32Y20.52I1.62J-8.45
G3X227.34I-0.17J0.99
G2X227.53Y20.55I1.56J-8.14
G3X227.55Y20.56I-0.17J0.99
G2X227.72Y20.59I1.5J-7.84
G3X227.74I-0.17J0.99
G2X227.91Y20.62I1.45J-7.57
G3X227.93Y20.63I-0.17J0.99
G2X228.1Y20.65I1.39J-7.31
G3X228.12Y20.66I-0.17J0.99
G2X228.28Y20.69I1.35J-7.07
G3X228.3I-0.16J0.99
G2X228.45Y20.72I1.3J-6.85
G3X228.47I-0.16J0.99
G2X228.62Y20.75I1.26J-6.63
G3X228.64I-0.16J0.99
G2X228.78Y20.78I1.21J-6.43
G3X228.8I-0.16J0.99
G2X228.94Y20.8I1.18J-6.23
G3X228.96Y20.81I-0.16J0.99
G2X229.09Y20.83I1.14J-6.05
G3X229.1I-0.16J0.99
G2X230.28Y21.04I28.0J-156.19
G3X230.3I-0.17J0.99
G2X230.49Y21.08I1.29J-6.85
G3X230.52I-0.16J0.99
G2X230.7Y21.11I1.22J-6.52
G3X230.71I-0.16J0.99
G1 X232.27 Y21.38
G3X232.29I-0.17J0.99
G2X232.45Y21.41I1.05J-5.75
G3X232.46I-0.15J0.99
G1 X233.83 Y21.64
G3X233.84I-0.16J0.99
G2X233.99Y21.66I0.99J-5.64
G3X234.0Y21.67I-0.15J0.99
G1 X234.67 Y21.77
G1 X234.99 Y21.82
G1 X235.31 Y21.87
G1 X235.94 Y21.97
G1 X236.25 Y22.02
G1 X237.45 Y22.21
G1 X238.01 Y22.29
G1 X239.11 Y22.46
G1 X241.16 Y22.76
G1 X242.05 Y22.9
G1 X243.74 Y23.15
G1 X245.21 Y23.37
G1 X245.86 Y23.47
G1 X247.07 Y23.66
G3X251.3Y24.35I-50.63J323.67
G1 X252.35 Y24.53
G1 X253.14 Y24.67
G3X253.15I-0.17J0.99
G1 X253.44 Y24.72
G1 X254.48 Y24.91
G1 X255.52 Y25.1
G1 X255.82 Y25.16
G1 X257.02 Y25.38
G1 X258.17 Y25.6
G3X258.18I-0.19J0.98
G1 X258.73 Y25.71
G3X258.74I-0.19J0.98
G1 X259.84 Y25.93
G1 X259.9 Y25.94
G1 X259.97 Y25.96
G3X264.22Y26.81I-143.64J722.02
G1 X266.07 Y27.19
G1 X269.55 Y27.91
G1 X275.62 Y29.18
G1 X280.18 Y30.12
G1 X281.04 Y30.29
G1 X281.44 Y30.38
G1 X284.55 Y31.01
G1 X286.87 Y31.49
G1 X290.37 Y32.19
G1 X293.87 Y32.89
G3X294.67Y33.88I-0.2J0.98
G1 Y92.88
G3X293.87Y93.86I-1.0J0.0
G1 X291.47 Y94.34
G1 X282.49 Y96.16
G1 X279.12 Y96.85
G1 X276.18 Y97.46
G1 X273.6 Y97.99
G1 X269.09 Y98.93
G1 X267.4 Y99.28
G1 X265.92 Y99.59
G1 X263.33 Y100.12
G3X263.32I-0.2J-0.98
G1 X261.38 Y100.51
G1 X259.92 Y100.8
G3Y100.81I-0.2J-0.98
G1 X259.37 Y100.91
G1 X258.89 Y101.01
G1 X258.05 Y101.17
G3X255.52Y101.65I-49.04J-251.98
G1 X254.17 Y101.9
G1 X253.85 Y101.95
G1 X252.6 Y102.17
G3X251.42Y102.38I-51.59J-296.23
G1 X250.33 Y102.56
G3X250.32I-0.17J-0.99
G1 X249.29 Y102.73
G1 X248.81 Y102.81
G1 X247.87 Y102.96
G1 X247.65 Y103.0
G1 X247.44 Y103.03
G3X247.43I-0.16J-0.99
G1 X246.58 Y103.16
G1 X245.79 Y103.29
G3X245.78I-0.15J-0.99
G1 X245.05 Y103.4
G3X244.98Y103.41I-0.29J-1.66
G1 X243.59 Y103.62
G1 X241.15 Y103.99
G1 X240.69 Y104.06
G1 X237.26 Y104.57
G1 X235.54 Y104.84
G1 X234.69 Y104.97
G1 X233.83 Y105.11
G1 X233.21 Y105.21
G1 X232.6 Y105.31
G1 X231.43 Y105.51
G1 X230.33 Y105.7
G1 X229.82 Y105.79
G1 X229.32 Y105.88
G1 X227.39 Y106.22
G1 X226.54 Y106.38
G1 X225.75 Y106.52
G1 X224.26 Y106.79
G1 X222.96 Y107.03
G1 X221.83 Y107.24
G3X221.33Y107.34I-12.19J-64.48
G3X220.86Y107.42I-7.28J-38.06
G3X220.42Y107.5I-5.66J-29.4
G3X220.01Y107.58I-4.77J-24.67
G3X219.63Y107.65I-4.17J-21.56
G3X219.27Y107.72I-3.74J-19.31
G3X218.93Y107.78I-3.41J-17.57
G3X218.61Y107.84I-3.13J-16.18
G3X218.31Y107.89I-2.91J-15.03
G3X218.03Y107.94I-2.71J-14.05
G3X213.84Y108.69I-115.61J-632.72
G3X211.34Y109.12I-71.17J-406.25
G3X206.96Y109.85I-89.51J-529.58
G1 X205.32 Y110.11
G1 X203.89 Y110.33
G3X203.88I-0.16J-0.99
G1 X201.37 Y110.72
G1 X199.48 Y111.01
G1 X196.65 Y111.44
G3X196.3Y111.49I-4.86J-31.1
G3X195.99Y111.54I-4.84J-31.12
G3X195.44Y111.62I-7.06J-45.12
G3X195.04Y111.68I-6.99J-45.18
G3X194.43Y111.77I-10.61J-68.61
G3X193.82Y111.86I-18.19J-119.22
G1 X190.91 Y112.3
G1 X190.27 Y112.39
G1 X189.04 Y112.58
G1 X188.89 Y112.6
G3X179.68Y113.87I-72.21J-490.23
G1 X178.53 Y114.01
G3X170.45Y114.95I-63.39J-509.26
G1 X169.87 Y115.01
G1 X168.75 Y115.13
G3X168.74I-0.11J-0.99
G1 X166.56 Y115.36
G1 X166.05 Y115.41
G3X157.98Y116.19I-88.55J-879.49
G1 X156.46 Y116.32
G3Y116.33I-0.09J-1.0
G1 X145.11 Y117.28
G1 X144.4 Y117.34
G1 X141.73 Y117.54
G1 X140.73 Y117.62
G1 X140.3 Y117.65
G1 X139.89 Y117.68
G1 X138.35 Y117.8
G1 X138.06 Y117.82
G1 X135.9 Y117.97
G1 X133.74 Y118.12
G1 X132.39 Y118.21
G3X132.38Y118.22I-0.07J-1.0
G1 X129.76 Y118.39
G1 X129.45 Y118.41
G1 X127.01 Y118.56
G1 X125.87 Y118.63
G1 X123.65 Y118.77
G1 X122.61 Y118.83
G1 X106.49 Y119.65
G1 X104.48 Y119.74
G1 X102.72 Y119.82
G1 X99.63 Y119.94
G1 X99.05 Y119.97
G1 X97.97 Y120.01
G1 X97.02 Y120.05
G1 X93.7 Y120.17
G1 X93.49 Y120.18
G1 X90.37 Y120.29
G1 X89.18 Y120.33
G1 X89.17
G1 X88.0 Y120.37
G1 X86.84 Y120.41
G1 X86.83
G1 X85.69 Y120.45
G1 X84.57 Y120.49
G1 X84.01 Y120.5
G1 X81.82 Y120.57
G1 X81.28 Y120.59
G1 X80.23 Y120.62
G1 X79.19 Y120.65
G1 X78.68 Y120.67
G1 X78.17 Y120.68
G1 X74.14 Y120.79
G3X72.25Y120.84I-13.93J-490.99
G1 X71.79 Y120.85
G1 X68.16 Y120.95
G1 X64.75 Y121.03
G1 X63.16 Y121.06
G1 X60.07 Y121.13
G1 X58.62 Y121.16
G1 X57.91 Y121.17
G1 X57.22 Y121.19
G3X56.54Y121.2I-2.81J-121.66
G1 X55.2 Y121.23
G1 X50.01 Y121.33
G1 X45.47 Y121.41
G1 X45.35
G1 X41.39 Y121.48
G1 X37.93 Y121.54
G1 X37.17 Y121.55
G1 X31.3 Y121.64
G1 X26.89 Y121.7
G1 X26.07 Y121.71
G1 X25.29 Y121.72
G1 X19.49 Y121.8
G1 X16.59 Y121.84
G1 X13.68 Y121.87
G3X12.67Y120.88I-0.01J-1.0
G1 Y5.88
G3X13.68Y4.88I1.0J0.0
G1 X18.48 Y4.94
G1 X22.97 Y5.0
G1 X25.08 Y5.02
G1 X29.16 Y5.08
G1 X32.98 Y5.14
G1 X36.57 Y5.19
G1 X39.93 Y5.25
G1 X41.51 Y5.27
G1 X43.04 Y5.3
G1 X48.95 Y5.4
G1 X54.13 Y5.5
G1 X55.26 Y5.52
G1 X57.46 Y5.57
G1 X58.49 Y5.59
G1 X62.47 Y5.67
G3X62.91Y5.68I-0.73J42.66
G1 X64.62 Y5.72
G1 X64.63
G1 X67.84 Y5.8
G1 X69.23 Y5.83
G3X69.33I0.01J1.87
G3X69.44Y5.84I-0.01J1.86
G1 X72.04 Y5.9
G1 X90.37 Y6.46
G1 X91.05 Y6.48
G1 X92.39 Y6.53
G1 X93.68 Y6.58
G1 X96.17 Y6.67
G3X96.26I-0.03J2.09
G3X96.34Y6.68I-0.04J2.09
G1 X98.67 Y6.77
G1 X99.77 Y6.81
G1 X101.89 Y6.9
G1 X103.88 Y6.98
G1 X104.81 Y7.02
G1 X104.82
G1 X105.27 Y7.04
G1 X105.71 Y7.06
G1 X107.45 Y7.14
G3X107.57I-0.04J2.41
G3X107.67Y7.15I-0.06J2.4
G3X107.77I-0.06J2.4
G3X107.89Y7.16I-0.06J2.4
G1 X109.49 Y7.23
G1 X112.52 Y7.38
G1 X113.85 Y7.45
G1 X115.09 Y7.51
G1 X116.26 Y7.57
G1 X118.44 Y7.69
G1 X118.45
G1 X126.09 Y8.13
G1 X126.1
G1 X128.01 Y8.25
G1 X130.87 Y8.43
G1 X132.3 Y8.53
G3X132.49Y8.54I-0.51J8.93
G3X132.64Y8.55I-0.53J9.04
G3X132.92Y8.57I-0.75J13.05
G3X133.12Y8.59I-0.83J13.64
G3X133.74Y8.63I-3.1J49.77
G1 X152.1 Y10.04
G3X152.11I-0.09J1.0
G1 X154.4 Y10.24
G3X155.4Y10.33I-10.81J128.34
G1 X157.28 Y10.5
G1 X158.11 Y10.57
G1 X159.65 Y10.72
G1 X160.32 Y10.78
G3X160.33I-0.09J1.0
G1 X161.59 Y10.9
G1 X162.14 Y10.95
G1 X163.18 Y11.05
G1 X164.09 Y11.14
G1 X164.88 Y11.22
G1 X164.89
G1 X165.58 Y11.29
G1 X166.19 Y11.35
G1 X168.32 Y11.57
G1 X170.44 Y11.8
G3X170.63Y11.82I-0.64J6.79
G3X170.82Y11.84I-0.71J7.4
G3X173.7Y12.16I-41.57J384.86
G1 X174.01 Y12.2
G1 X175.25 Y12.34
G3X184.55Y13.53I-55.24J467.54
G1 X185.71 Y13.7
G1 X187.74 Y13.99
G1 X188.37 Y14.08
G1 F300.0 Z-2.0
G1 F1500.0 X189.26 Y14.21
G1 X191.54 Y14.54
G3Y14.55I-0.15J0.99
G1 X193.82 Y14.89
G1 X196.32 Y15.26
G1 X198.51 Y15.59
G3X198.52I-0.15J0.99
G1 X200.43 Y15.88
G1 X202.11 Y16.14
G1 X203.58 Y16.37
G1 X204.86 Y16.57
G1 X207.11 Y16.93
G1 X207.95 Y17.06
G1 X208.69 Y17.18
G1 X209.33 Y17.29
G1 X209.9 Y17.38
G1 X210.88 Y17.55
G3X210.89I-0.16J0.99
G1 X212.36 Y17.8
G3X212.37I-0.17J0.99
G1 X213.84 Y18.06
G3X213.85I-0.17J0.99
G1 X215.1 Y18.28
G1 X215.68 Y18.38
G3X220.23Y19.21I-119.52J668.29
G1 X221.93 Y19.53
G2X222.3Y19.59I10.41J-55.25
G3X222.31Y19.6I-0.18J0.98
G2X222.66Y19.66I6.61J-34.79
G3X222.67I-0.18J0.98
G2X223.01Y19.72I5.2J-27.17
G3Y19.73I-0.18J0.98
G1 X225.72 Y20.22
G3X225.73Y20.23I-0.18J0.98
G2X225.96Y20.27I2.13J-10.99
G3X225.98I-0.17J0.99
G2X226.21Y20.31I2.02J-10.46
G3X226.23Y20.32I-0.17J0.99
G2X226.44Y20.36I1.93J-9.98
G3X226.46I-0.17J0.99
G2X226.67Y20.4I1.84J-9.55
G3X226.7I-0.17J0.99
G2X226.9Y20.44I1.76J-9.15
G3X226.92I-0.17J0.99
G2X227.11Y20.48I1.69J-8.79
G3X227.13I-0.17J0.99
G2X227.32Y20.52I1.62J-8.45
G3X227.34I-0.17J0.99
G2X227.53Y20.55I1.56J-8.14
G3X227.55Y20.56I-0.17J0.99
G2X227.72Y20.59I1.5J-7.84
G3X227.74I-0.17J0.99
G2X227.91Y20.62I1.45J-7.57
G3X227.93Y20.63I-0.17J0.99
G2X228.1Y20.65I1.39J-7.31
G3X228.12Y20.66I-0.17J0.99
G2X228.28Y20.69I1.35J-7.07
G3X228.3I-0.16J0.99
G2X228.45Y20.72I1.3J-6.85
G3X228.47I-0.16J0.99
G2X228.62Y20.75I1.26J-6.63
G3X228.64I-0.16J0.99
G2X228.78Y20.78I1.21J-6.43
G3X228.8I-0.16J0.99
G2X228.94Y20.8I1.18J-6.23
G3X228.96Y20.81I-0.16J0.99
G2X229.09Y20.83I1.14J-6.05
G3X229.1I-0.16J0.99
G2X230.28Y21.04I28.0J-156.19
G3X230.3I-0.17J0.99
G2X230.49Y21.08I1.29J-6.85
G3X230.52I-0.16J0.99
G2X230.7Y21.11I1.22J-6.52
G3X230.71I-0.16J0.99
G1 X232.27 Y21.38
G3X232.29I-0.17J0.99
G2X232.45Y21.41I1.05J-5.75
G3X232.46I-0.15J0.99
G1 X233.83 Y21.64
G3X233.84I-0.16J0.99
G2X233.99Y21.66I0.99J-5.64
G3X234.0Y21.67I-0.15J0.99
G1 X234.67 Y21.77
G1 X234.99 Y21.82
G1 X235.31 Y21.87
G1 X235.94 Y21.97
G1 X236.25 Y22.02
G1 X237.45 Y22.21
G1 X238.01 Y22.29
G1 X239.11 Y22.46
G1 X241.16 Y22.76
G1 X242.05 Y22.9
G1 X243.74 Y23.15
G1 X245.21 Y23.37
G1 X245.86 Y23.47
G1 X247.07 Y23.66
G3X251.3Y24.35I-50.63J323.67
G1 X252.35 Y24.53
G1 X253.14 Y24.67
G3X253.15I-0.17J0.99
G1 X253.44 Y24.72
G1 X254.48 Y24.91
G1 X255.52 Y25.1
G1 X255.82 Y25.16
G1 X257.02 Y25.38
G1 X258.17 Y25.6
G3X258.18I-0.19J0.98
G1 X258.73 Y25.71
G3X258.74I-0.19J0.98
G1 X259.84 Y25.93
G1 X259.9 Y25.94
G1 X259.97 Y25.96
G3X264.22Y26.81I-143.64J722.02
G1 X266.07 Y27.19
G1 X269.55 Y27.91
G1 X275.62 Y29.18
G1 X280.18 Y30.12
G1 X281.04 Y30.29
G1 X281.44 Y30.38
G1 X284.55 Y31.01
G1 X286.87 Y31.49
G1 X290.37 Y32.19
G1 X293.87 Y32.89
G3X294.67Y33.88I-0.2J0.98
G1 Y92.88
G3X293.87Y93.86I-1.0J0.0
G1 X291.47 Y94.34
G1 X282.49 Y96.16
G1 X279.12 Y96.85
G1 X276.18 Y97.46
G1 X273.6 Y97.99
G1 X269.09 Y98.93
G1 X267.4 Y99.28
G1 X265.92 Y99.59
G1 X263.33 Y100.12
G3X263.32I-0.2J-0.98
G1 X261.38 Y100.51
G1 X259.92 Y100.8
G3Y100.81I-0.2J-0.98
G1 X259.37 Y100.91
G1 X258.89 Y101.01
G1 X258.05 Y101.17
G3X255.52Y101.65I-49.04J-251.98
G1 X254.17 Y101.9
G1 X253.85 Y101.95
G1 X252.6 Y102.17
G3X251.42Y102.38I-51.59J-296.23
G1 X250.33 Y102.56
G3X250.32I-0.17J-0.99
G1 X249.29 Y102.73
G1 X248.81 Y102.81
G1 X247.87 Y102.96
G1 X247.65 Y103.0
G1 X247.44 Y103.03
G3X247.43I-0.16J-0.99
G1 X246.58 Y103.16
G1 X245.79 Y103.29
G3X245.78I-0.15J-0.99
G1 X245.05 Y103.4
G3X244.98Y103.41I-0.29J-1.66
G1 X243.59 Y103.62
G1 X241.15 Y103.99
G1 X240.69 Y104.06
G1 X237.26 Y104.57
G1 X235.54 Y104.84
G1 X234.69 Y104.97
G1 X233.83 Y105.11
G1 X233.21 Y105.21
G1 X232.6 Y105.31
G1 X231.43 Y105.51
G1 X230.33 Y105.7
G1 X229.82 Y105.79
G1 X229.32 Y105.88
G1 X227.39 Y106.22
G1 X226.54 Y106.38
G1 X225.75 Y106.52
G1 X224.26 Y106.79
G1 X222.96 Y107.03
G1 X221.83 Y107.24
G3X221.33Y107.34I-12.19J-64.48
G3X220.86Y107.42I-7.28J-38.06
G3X220.42Y107.5I-5.66J-29.4
G3X220.01Y107.58I-4.77J-24.67
G3X219.63Y107.65I-4.17J-21.56
G3X219.27Y107.72I-3.74J-19.31
G3X218.93Y107.78I-3.41J-17.57
G3X218.61Y107.84I-3.13J-16.18
G3X218.31Y107.89I-2.91J-15.03
G3X218.03Y107.94I-2.71J-14.05
G3X213.84Y108.69I-115.61J-632.72
G3X211.34Y109.12I-71.17J-406.25
G3X206.96Y109.85I-89.51J-529.58
G1 X205.32 Y110.11
G1 X203.89 Y110.33
G3X203.88I-0.16J-0.99
G1 X201.37 Y110.72
G1 X199.48 Y111.01
G1 X196.65 Y111.44
G3X196.3Y111.49I-4.86J-31.1
G3X195.99Y111.54I-4.84J-31.12
G3X195.44Y111.62I-7.06J-45.12
G3X195.04Y111.68I-6.99J-45.18
G3X194.43Y111.77I-10.61J-68.61
G3X193.82Y111.86I-18.19J-119.22
G1 X190.91 Y112.3
G1 X190.27 Y112.39
G1 X189.04 Y112.58
G1 X188.89 Y112.6
G3X179.68Y113.87I-72.21J-490.23
G1 X178.53 Y114.01
G3X170.45Y114.95I-63.39J-509.26
G1 X169.87 Y115.01
G1 X168.75 Y115.13
G3X168.74I-0.11J-0.99
G1 X166.56 Y115.36
G1 X166.05 Y115.41
G3X157.98Y116.19I-88.55J-879.49
G1 X156.46 Y116.32
G3Y116.33I-0.09J-1.0
G1 X145.11 Y117.28
G1 X144.4 Y117.34
G1 X141.73 Y117.54
G1 X140.73 Y117.62
G1 X140.3 Y117.65
G1 X139.89 Y117.68
G1 X138.35 Y117.8
G1 X138.06 Y117.82
G1 X135.9 Y117.97
G1 X133.74 Y118.12
G1 X132.39 Y118.21
G3X132.38Y118.22I-0.07J-1.0
G1 X129.76 Y118.39
G1 X129.45 Y118.41
G1 X127.01 Y118.56
G1 X125.87 Y118.63
G1 X123.65 Y118.77
G1 X122.61 Y118.83
G1 X106.49 Y119.65
G1 X104.48 Y119.74
G1 X102.72 Y119.82
G1 X99.63 Y119.94
G1 X99.05 Y119.97
G1 X97.97 Y120.01
G1 X97.02 Y120.05
G1 X93.7 Y120.17
G1 X93.49 Y120.18
G1 X90.37 Y120.29
G1 X89.18 Y120.33
G1 X89.17
G1 X88.0 Y120.37
G1 X86.84 Y120.41
G1 X86.83
G1 X85.69 Y120.45
G1 X84.57 Y120.49
G1 X84.01 Y120.5
G1 X81.82 Y120.57
G1 X81.28 Y120.59
G1 X80.23 Y120.62
G1 X79.19 Y120.65
G1 X78.68 Y120.67
G1 X78.17 Y120.68
G1 X74.14 Y120.79
G3X72.25Y120.84I-13.93J-490.99
G1 X71.79 Y120.85
G1 X68.16 Y120.95
G1 X64.75 Y121.03
G1 X63.16 Y121.06
G1 X60.07 Y121.13
G1 X58.62 Y121.16
G1 X57.91 Y121.17
G1 X57.22 Y121.19
G3X56.54Y121.2I-2.81J-121.66
G1 X55.2 Y121.23
G1 X50.01 Y121.33
G1 X45.47 Y121.41
G1 X45.35
G1 X41.39 Y121.48
G1 X37.93 Y121.54
G1 X37.17 Y121.55
G1 X31.3 Y121.64
G1 X26.89 Y121.7
G1 X26.07 Y121.71
G1 X25.29 Y121.72
G1 X19.49 Y121.8
G1 X16.59 Y121.84
G1 X13.68 Y121.87
G3X12.67Y120.88I-0.01J-1.0
G1 Y5.88
G3X13.68Y4.88I1.0J0.0
G1 X18.48 Y4.94
G1 X22.97 Y5.0
G1 X25.08 Y5.02
G1 X29.16 Y5.08
G1 X32.98 Y5.14
G1 X36.57 Y5.19
G1 X39.93 Y5.25
G1 X41.51 Y5.27
G1 X43.04 Y5.3
G1 X48.95 Y5.4
G1 X54.13 Y5.5
G1 X55.26 Y5.52
G1 X57.46 Y5.57
G1 X58.49 Y5.59
G1 X62.47 Y5.67
G3X62.91Y5.68I-0.73J42.66
G1 X64.62 Y5.72
G1 X64.63
G1 X67.84 Y5.8
G1 X69.23 Y5.83
G3X69.33I0.01J1.87
G3X69.44Y5.84I-0.01J1.86
G1 X72.04 Y5.9
G1 X90.37 Y6.46
G1 X91.05 Y6.48
G1 X92.39 Y6.53
G1 X93.68 Y6.58
G1 X96.17 Y6.67
G3X96.26I-0.03J2.09
G3X96.34Y6.68I-0.04J2.09
G1 X98.67 Y6.77
G1 X99.77 Y6.81
G1 X101.89 Y6.9
G1 X103.88 Y6.98
G1 X104.81 Y7.02
G1 X104.82
G1 X105.27 Y7.04
G1 X105.71 Y7.06
G1 X107.45 Y7.14
G3X107.57I-0.04J2.41
G3X107.67Y7.15I-0.06J2.4
G3X107.77I-0.06J2.4
G3X107.89Y7.16I-0.06J2.4
G1 X109.49 Y7.23
G1 X112.52 Y7.38
G1 X113.85 Y7.45
G1 X115.09 Y7.51
G1 X116.26 Y7.57
G1 X118.44 Y7.69
G1 X118.45
G1 X126.09 Y8.13
G1 X126.1
G1 X128.01 Y8.25
G1 X130.87 Y8.43
G1 X132.3 Y8.53
G3X132.49Y8.54I-0.51J8.93
G3X132.64Y8.55I-0.53J9.04
G3X132.92Y8.57I-0.75J13.05
G3X133.12Y8.59I-0.83J13.64
G3X133.74Y8.63I-3.1J49.77
G1 X152.1 Y10.04
G3X152.11I-0.09J1.0
G1 X154.4 Y10.24
G3X155.4Y10.33I-10.81J128.34
G1 X157.28 Y10.5
G1 X158.11 Y10.57
G1 X159.65 Y10.72
G1 X160.32 Y10.78
G3X160.33I-0.09J1.0
G1 X161.59 Y10.9
G1 X162.14 Y10.95
G1 X163.18 Y11.05
G1 X164.09 Y11.14
G1 X164.88 Y11.22
G1 X164.89
G1 X165.58 Y11.29
G1 X166.19 Y11.35
G1 X168.32 Y11.57
G1 X170.44 Y11.8
G3X170.63Y11.82I-0.64J6.79
G3X170.82Y11.84I-0.71J7.4
G3X173.7Y12.16I-41.57J384.86
G1 X174.01 Y12.2
G1 X175.25 Y12.34
G3X184.55Y13.53I-55.24J467.54
G1 X185.71 Y13.7
G1 X187.74 Y13.99
G1 X188.37 Y14.08
G1 F300.0 Z-3.0
G1 F1500.0 X189.26 Y14.21
G1 X191.54 Y14.54
G3Y14.55I-0.15J0.99
G1 X193.82 Y14.89
G1 X196.32 Y15.26
G1 X198.51 Y15.59
G3X198.52I-0.15J0.99
G1 X200.43 Y15.88
G1 X202.11 Y16.14
G1 X203.58 Y16.37
G1 X204.86 Y16.57
G1 X207.11 Y16.93
G1 X207.95 Y17.06
G1 X208.69 Y17.18
G1 X209.33 Y17.29
G1 X209.9 Y17.38
G1 X210.88 Y17.55
G3X210.89I-0.16J0.99
G1 X212.36 Y17.8
G3X212.37I-0.17J0.99
G1 X213.84 Y18.06
G3X213.85I-0.17J0.99
G1 X215.1 Y18.28
G1 X215.68 Y18.38
G3X220.23Y19.21I-119.52J668.29
G1 X221.93 Y19.53
G2X222.3Y19.59I10.41J-55.25
G3X222.31Y19.6I-0.18J0.98
G2X222.66Y19.66I6.61J-34.79
G3X222.67I-0.18J0.98
G2X223.01Y19.72I5.2J-27.17
G3Y19.73I-0.18J0.98
G1 X225.72 Y20.22
G3X225.73Y20.23I-0.18J0.98
G2X225.96Y20.27I2.13J-10.99
G3X225.98I-0.17J0.99
G2X226.21Y20.31I2.02J-10.46
G3X226.23Y20.32I-0.17J0.99
G2X226.44Y20.36I1.93J-9.98
G3X226.46I-0.17J0.99
G2X226.67Y20.4I1.84J-9.55
G3X226.7I-0.17J0.99
G2X226.9Y20.44I1.76J-9.15
G3X226.92I-0.17J0.99
G2X227.11Y20.48I1.69J-8.79
G3X227.13I-0.17J0.99
G2X227.32Y20.52I1.62J-8.45
G3X227.34I-0.17J0.99
G2X227.53Y20.55I1.56J-8.14
G3X227.55Y20.56I-0.17J0.99
G2X227.72Y20.59I1.5J-7.84
G3X227.74I-0.17J0.99
G2X227.91Y20.62I1.45J-7.57
G3X227.93Y20.63I-0.17J0.99
G2X228.1Y20.65I1.39J-7.31
G3X228.12Y20.66I-0.17J0.99
G2X228.28Y20.69I1.35J-7.07
G3X228.3I-0.16J0.99
G2X228.45Y20.72I1.3J-6.85
G3X228.47I-0.16J0.99
G2X228.62Y20.75I1.26J-6.63
G3X228.64I-0.16J0.99
G2X228.78Y20.78I1.21J-6.43
G3X228.8I-0.16J0.99
G2X228.94Y20.8I1.18J-6.23
G3X228.96Y20.81I-0.16J0.99
G2X229.09Y20.83I1.14J-6.05
G3X229.1I-0.16J0.99
G2X230.28Y21.04I28.0J-156.19
G3X230.3I-0.17J0.99
G2X230.49Y21.08I1.29J-6.85
G3X230.52I-0.16J0.99
G2X230.7Y21.11I1.22J-6.52
G3X230.71I-0.16J0.99
G1 X232.27 Y21.38
G3X232.29I-0.17J0.99
G2X232.45Y21.41I1.05J-5.75
G3X232.46I-0.15J0.99
G1 X233.83 Y21.64
G3X233.84I-0.16J0.99
G2X233.99Y21.66I0.99J-5.64
G3X234.0Y21.67I-0.15J0.99
G1 X234.67 Y21.77
G1 X234.99 Y21.82
G1 X235.31 Y21.87
G1 X235.94 Y21.97
G1 X236.25 Y22.02
G1 X237.45 Y22.21
G1 X238.01 Y22.29
G1 X239.11 Y22.46
G1 X241.16 Y22.76
G1 X242.05 Y22.9
G1 X243.74 Y23.15
G1 X245.21 Y23.37
G1 X245.86 Y23.47
G1 X247.07 Y23.66
G3X251.3Y24.35I-50.63J323.67
G1 X252.35 Y24.53
G1 X253.14 Y24.67
G3X253.15I-0.17J0.99
G1 X253.44 Y24.72
G1 X254.48 Y24.91
G1 X255.52 Y25.1
G1 X255.82 Y25.16
G1 X257.02 Y25.38
G1 X258.17 Y25.6
G3X258.18I-0.19J0.98
G1 X258.73 Y25.71
G3X258.74I-0.19J0.98
G1 X259.84 Y25.93
G1 X259.9 Y25.94
G1 X259.97 Y25.96
G3X264.22Y26.81I-143.64J722.02
G1 X266.07 Y27.19
G1 X268.35 Y27.67
G1 X269.55 Y27.91 Z-2.19
G1 X269.82 Y27.97 Z-2.0
G1 X271.78 Y28.38
G1 X273.25 Y28.68 Z-3.0
G1 X275.62 Y29.18
G1 X280.18 Y30.12
G1 X281.04 Y30.29
G1 X281.44 Y30.38
G1 X284.55 Y31.01
G1 X286.87 Y31.49
G1 X290.37 Y32.19
G1 X293.87 Y32.89
G3X294.67Y33.88I-0.2J0.98
G1 Y92.88
G3X293.87Y93.86I-1.0J0.0
G1 X291.47 Y94.34
G1 X282.49 Y96.16
G1 X279.12 Y96.85
G1 X276.18 Y97.46
G1 X276.05 Y97.49
G1 X274.58 Y97.79 Z-2.0
G1 X273.6 Y97.99
G1 X272.62 Y98.2
G1 X271.15 Y98.5 Z-3.0
G1 X269.09 Y98.93
G1 X267.4 Y99.28
G1 X265.92 Y99.59
G1 X263.33 Y100.12
G3X263.32I-0.2J-0.98
G1 X261.38 Y100.51
G1 X259.92 Y100.8
G3Y100.81I-0.2J-0.98
G1 X259.37 Y100.91
G1 X258.89 Y101.01
G1 X258.05 Y101.17
G3X255.52Y101.65I-49.04J-251.98
G1 X254.17 Y101.9
G1 X253.85 Y101.95
G1 X252.6 Y102.17
G3X251.42Y102.38I-51.59J-296.23
G1 X250.33 Y102.56
G3X250.32I-0.17J-0.99
G1 X249.29 Y102.73
G1 X248.81 Y102.81
G1 X247.87 Y102.96
G1 X247.65 Y103.0
G1 X247.44 Y103.03
G3X247.43I-0.16J-0.99
G1 X246.58 Y103.16
G1 X245.79 Y103.29
G3X245.78I-0.15J-0.99
G1 X245.05 Y103.4
G3X244.98Y103.41I-0.29J-1.66
G1 X243.59 Y103.62
G1 X241.15 Y103.99
G1 X240.69 Y104.06
G1 X237.26 Y104.57
G1 X235.54 Y104.84
G1 X234.69 Y104.97
G1 X233.83 Y105.11
G1 X233.21 Y105.21
G1 X232.6 Y105.31
G1 X231.43 Y105.51
G1 X230.33 Y105.7
G1 X229.82 Y105.79
G1 X229.32 Y105.88
G1 X227.39 Y106.22
G1 X226.54 Y106.38
G1 X225.75 Y106.52
G1 X224.26 Y106.79
G1 X222.96 Y107.03
G1 X221.83 Y107.24
G3X221.33Y107.34I-12.19J-64.48
G3X220.86Y107.42I-7.28J-38.06
G3X220.42Y107.5I-5.66J-29.4
G3X220.01Y107.58I-4.77J-24.67
G3X219.63Y107.65I-4.17J-21.56
G3X219.27Y107.72I-3.74J-19.31
G3X218.93Y107.78I-3.41J-17.57
G3X218.61Y107.84I-3.13J-16.18
G3X218.31Y107.89I-2.91J-15.03
G3X218.03Y107.94I-2.71J-14.05
G3X213.84Y108.69I-115.61J-632.72
G3X211.34Y109.12I-71.17J-406.25
G3X206.96Y109.85I-89.51J-529.58
G1 X205.32 Y110.11
G1 X203.89 Y110.33
G3X203.88I-0.16J-0.99
G1 X201.37 Y110.72
G1 X199.48 Y111.01
G1 X196.65 Y111.44
G3X196.3Y111.49I-4.86J-31.1
G3X195.99Y111.54I-4.84J-31.12
G3X195.44Y111.62I-7.06J-45.12
G3X195.04Y111.68I-6.99J-45.18
G3X194.43Y111.77I-10.61J-68.61
G3X193.82Y111.86I-18.19J-119.22
G1 X190.91 Y112.3
G1 X190.27 Y112.39
G1 X189.04 Y112.58
G1 X188.89 Y112.6
G3X179.68Y113.87I-72.21J-490.23
G1 X178.53 Y114.01
G3X170.45Y114.95I-63.39J-509.26
G1 X169.87 Y115.01
G1 X168.75 Y115.13
G3X168.74I-0.11J-0.99
G1 X166.56 Y115.36
G1 X166.05 Y115.41
G3X157.98Y116.19I-88.55J-879.49
G1 X156.46 Y116.32
G3Y116.33I-0.09J-1.0
G1 X155.28 Y116.43
G1 X153.78 Y116.56 Z-2.0
G1 X151.79 Y116.73
G1 X150.29 Y116.86 Z-3.0
G1 X145.11 Y117.28
G1 X144.4 Y117.34
G1 X141.73 Y117.54
G1 X140.73 Y117.62
G1 X140.3 Y117.65
G1 X139.89 Y117.68
G1 X138.35 Y117.8
G1 X138.06 Y117.82
G1 X135.9 Y117.97
G1 X133.74 Y118.12
G1 X132.39 Y118.21
G3X132.38Y118.22I-0.07J-1.0
G1 X129.76 Y118.39
G1 X129.45 Y118.41
G1 X127.01 Y118.56
G1 X125.87 Y118.63
G1 X123.65 Y118.77
G1 X122.61 Y118.83
G1 X106.49 Y119.65
G1 X104.48 Y119.74
G1 X102.72 Y119.82
G1 X99.63 Y119.94
G1 X99.05 Y119.97
G1 X97.97 Y120.01
G1 X97.02 Y120.05
G1 X93.7 Y120.17
G1 X93.49 Y120.18
G1 X90.37 Y120.29
G1 X89.18 Y120.33
G1 X89.17
G1 X88.0 Y120.37
G1 X86.84 Y120.41
G1 X86.83
G1 X85.69 Y120.45
G1 X84.57 Y120.49
G1 X84.01 Y120.5
G1 X81.82 Y120.57
G1 X81.28 Y120.59
G1 X80.23 Y120.62
G1 X79.19 Y120.65
G1 X78.68 Y120.67
G1 X78.17 Y120.68
G1 X74.14 Y120.79
G3X72.25Y120.84I-13.93J-490.99
G1 X71.79 Y120.85
G1 X68.16 Y120.95
G1 X64.75 Y121.03
G1 X63.16 Y121.06
G1 X60.07 Y121.13
G1 X58.62 Y121.16
G1 X57.91 Y121.17
G1 X57.22 Y121.19
G3X56.54Y121.2I-2.81J-121.66
G1 X55.2 Y121.23
G1 X50.01 Y121.33
G1 X45.47 Y121.41
G1 X45.35
G1 X41.39 Y121.48
G1 X37.93 Y121.54
G1 X37.17 Y121.55
G1 X32.33 Y121.62
G1 X31.3 Y121.64 Z-2.31
G1 X30.83 Z-2.0
G1 X28.83 Y121.67
G1 X27.33 Y121.69 Z-3.0
G1 X26.89 Y121.7
G1 X26.07 Y121.71
G1 X25.29 Y121.72
G1 X19.49 Y121.8
G1 X16.59 Y121.84
G1 X13.68 Y121.87
G3X12.67Y120.88I-0.01J-1.0
G1 Y5.88
G3X13.68Y4.88I1.0J0.0
G1 X18.48 Y4.94
G1 X22.97 Y5.0
G1 X25.08 Y5.02
G1 X26.39 Y5.04
G1 X27.89 Y5.06 Z-2.0
G1 X29.16 Y5.08
G1 X29.89 Y5.09
G1 X31.39 Y5.12 Z-3.0
G1 X32.98 Y5.14
G1 X36.57 Y5.19
G1 X39.93 Y5.25
G1 X41.51 Y5.27
G1 X43.04 Y5.3
G1 X48.95 Y5.4
G1 X54.13 Y5.5
G1 X55.26 Y5.52
G1 X57.46 Y5.57
G1 X58.49 Y5.59
G1 X62.47 Y5.67
G3X62.91Y5.68I-0.73J42.66
G1 X64.62 Y5.72
G1 X64.63
G1 X67.84 Y5.8
G1 X69.23 Y5.83
G3X69.33I0.01J1.87
G3X69.44Y5.84I-0.01J1.86
G1 X72.04 Y5.9
G1 X90.37 Y6.46
G1 X91.05 Y6.48
G1 X92.39 Y6.53
G1 X93.68 Y6.58
G1 X96.17 Y6.67
G3X96.26I-0.03J2.09
G3X96.34Y6.68I-0.04J2.09
G1 X98.67 Y6.77
G1 X99.77 Y6.81
G1 X101.89 Y6.9
G1 X103.88 Y6.98
G1 X104.81 Y7.02
G1 X104.82
G1 X105.27 Y7.04
G1 X105.71 Y7.06
G1 X107.45 Y7.14
G3X107.57I-0.04J2.41
G3X107.67Y7.15I-0.06J2.4
G3X107.77I-0.06J2.4
G3X107.89Y7.16I-0.06J2.4
G1 X109.49 Y7.23
G1 X112.52 Y7.38
G1 X113.85 Y7.45
G1 X115.09 Y7.51
G1 X116.26 Y7.57
G1 X118.44 Y7.69
G1 X118.45
G1 X126.09 Y8.13
G1 X126.1
G1 X128.01 Y8.25
G1 X130.87 Y8.43
G1 X132.3 Y8.53
G3X132.49Y8.54I-0.51J8.93
G3X132.64Y8.55I-0.53J9.04
G3X132.92Y8.57I-0.75J13.05
G3X133.12Y8.59I-0.83J13.64
G3X133.74Y8.63I-3.1J49.77
G1 X152.1 Y10.04
G3X152.11I-0.09J1.0
G1 X154.4 Y10.24
G3X155.34Y10.32I-10.81J128.34
G3X155.4Y10.33Z-2.96I-11.75J128.26
G1 X156.83 Y10.46 Z-2.0
G1 X157.28 Y10.5
G1 X158.11 Y10.57
G1 X158.82 Y10.64
G1 X159.65 Y10.72 Z-2.55
G1 X160.32 Y10.78 Z-3.0
G3X160.33I-0.09J1.0
G1 X161.59 Y10.9
G1 X162.14 Y10.95
G1 X163.18 Y11.05
G1 X164.09 Y11.14
G1 X164.88 Y11.22
G1 X164.89
G1 X165.58 Y11.29
G1 X166.19 Y11.35
G1 X168.32 Y11.57
G1 X170.44 Y11.8
G3X170.63Y11.82I-0.64J6.79
G3X170.82Y11.84I-0.71J7.4
G3X173.7Y12.16I-41.57J384.86
G1 X174.01 Y12.2
G1 X175.25 Y12.34
G3X184.55Y13.53I-55.24J467.54
G1 X185.71 Y13.7
G1 X187.74 Y13.99
G1 X188.37 Y14.08
G1 F300.0 Z-4.0
G1 F1500.0 X189.26 Y14.21
G1 X191.54 Y14.54
G3Y14.55I-0.15J0.99
G1 X193.82 Y14.89
G1 X196.32 Y15.26
G1 X198.51 Y15.59
G3X198.52I-0.15J0.99
G1 X200.43 Y15.88
G1 X202.11 Y16.14
G1 X203.58 Y16.37
G1 X204.86 Y16.57
G1 X207.11 Y16.93
G1 X207.95 Y17.06
G1 X208.69 Y17.18
G1 X209.33 Y17.29
G1 X209.9 Y17.38
G1 X210.88 Y17.55
G3X210.89I-0.16J0.99
G1 X212.36 Y17.8
G3X212.37I-0.17J0.99
G1 X213.84 Y18.06
G3X213.85I-0.17J0.99
G1 X215.1 Y18.28
G1 X215.68 Y18.38
G3X220.23Y19.21I-119.52J668.29
G1 X221.93 Y19.53
G2X222.3Y19.59I10.41J-55.25
G3X222.31Y19.6I-0.18J0.98
G2X222.66Y19.66I6.61J-34.79
G3X222.67I-0.18J0.98
G2X223.01Y19.72I5.2J-27.17
G3Y19.73I-0.18J0.98
G1 X225.72 Y20.22
G3X225.73Y20.23I-0.18J0.98
G2X225.96Y20.27I2.13J-10.99
G3X225.98I-0.17J0.99
G2X226.21Y20.31I2.02J-10.46
G3X226.23Y20.32I-0.17J0.99
G2X226.44Y20.36I1.93J-9.98
G3X226.46I-0.17J0.99
G2X226.67Y20.4I1.84J-9.55
G3X226.7I-0.17J0.99
G2X226.9Y20.44I1.76J-9.15
G3X226.92I-0.17J0.99
G2X227.11Y20.48I1.69J-8.79
G3X227.13I-0.17J0.99
G2X227.32Y20.52I1.62J-8.45
G3X227.34I-0.17J0.99
G2X227.53Y20.55I1.56J-8.14
G3X227.55Y20.56I-0.17J0.99
G2X227.72Y20.59I1.5J-7.84
G3X227.74I-0.17J0.99
G2X227.91Y20.62I1.45J-7.57
G3X227.93Y20.63I-0.17J0.99
G2X228.1Y20.65I1.39J-7.31
G3X228.12Y20.66I-0.17J0.99
G2X228.28Y20.69I1.35J-7.07
G3X228.3I-0.16J0.99
G2X228.45Y20.72I1.3J-6.85
G3X228.47I-0.16J0.99
G2X228.62Y20.75I1.26J-6.63
G3X228.64I-0.16J0.99
G2X228.78Y20.78I1.21J-6.43
G3X228.8I-0.16J0.99
G2X228.94Y20.8I1.18J-6.23
G3X228.96Y20.81I-0.16J0.99
G2X229.09Y20.83I1.14J-6.05
G3X229.1I-0.16J0.99
G2X230.28Y21.04I28.0J-156.19
G3X230.3I-0.17J0.99
G2X230.49Y21.08I1.29J-6.85
G3X230.52I-0.16J0.99
G2X230.7Y21.11I1.22J-6.52
G3X230.71I-0.16J0.99
G1 X232.27 Y21.38
G3X232.29I-0.17J0.99
G2X232.45Y21.41I1.05J-5.75
G3X232.46I-0.15J0.99
G1 X233.83 Y21.64
G3X233.84I-0.16J0.99
G2X233.99Y21.66I0.99J-5.64
G3X234.0Y21.67I-0.15J0.99
G1 X234.67 Y21.77
G1 X234.99 Y21.82
G1 X235.31 Y21.87
G1 X235.94 Y21.97
G1 X236.25 Y22.02
G1 X237.45 Y22.21
G1 X238.01 Y22.29
G1 X239.11 Y22.46
G1 X241.16 Y22.76
G1 X242.05 Y22.9
G1 X243.74 Y23.15
G1 X245.21 Y23.37
G1 X245.86 Y23.47
G1 X247.07 Y23.66
G3X251.3Y24.35I-50.63J323.67
G1 X252.35 Y24.53
G1 X253.14 Y24.67
G3X253.15I-0.17J0.99
G1 X253.44 Y24.72
G1 X254.48 Y24.91
G1 X255.52 Y25.1
G1 X255.82 Y25.16
G1 X257.02 Y25.38
G1 X258.17 Y25.6
G3X258.18I-0.19J0.98
G1 X258.73 Y25.71
G3X258.74I-0.19J0.98
G1 X259.84 Y25.93
G1 X259.9 Y25.94
G1 X259.97 Y25.96
G3X264.22Y26.81I-143.64J722.02
G1 X266.07 Y27.19
G1 X268.35 Y27.67
G1 X269.55 Y27.91 Z-2.37
G1 X269.82 Y27.97 Z-2.0
G1 X271.78 Y28.38
G1 X273.25 Y28.68 Z-4.0
G1 X275.62 Y29.18
G1 X280.18 Y30.12
G1 X281.04 Y30.29
G1 X281.44 Y30.38
G1 X284.55 Y31.01
G1 X286.87 Y31.49
G1 X290.37 Y32.19
G1 X293.87 Y32.89
G3X294.67Y33.88I-0.2J0.98
G1 Y92.88
G3X293.87Y93.86I-1.0J0.0
G1 X291.47 Y94.34
G1 X282.49 Y96.16
G1 X279.12 Y96.85
G1 X276.18 Y97.46
G1 X276.05 Y97.49
G1 X274.58 Y97.79 Z-2.0
G1 X273.6 Y97.99
G1 X272.62 Y98.2
G1 X271.15 Y98.5 Z-4.0
G1 X269.09 Y98.93
G1 X267.4 Y99.28
G1 X265.92 Y99.59
G1 X263.33 Y100.12
G3X263.32I-0.2J-0.98
G1 X261.38 Y100.51
G1 X259.92 Y100.8
G3Y100.81I-0.2J-0.98
G1 X259.37 Y100.91
G1 X258.89 Y101.01
G1 X258.05 Y101.17
G3X255.52Y101.65I-49.04J-251.98
G1 X254.17 Y101.9
G1 X253.85 Y101.95
G1 X252.6 Y102.17
G3X251.42Y102.38I-51.59J-296.23
G1 X250.33 Y102.56
G3X250.32I-0.17J-0.99
G1 X249.29 Y102.73
G1 X248.81 Y102.81
G1 X247.87 Y102.96
G1 X247.65 Y103.0
G1 X247.44 Y103.03
G3X247.43I-0.16J-0.99
G1 X246.58 Y103.16
G1 X245.79 Y103.29
G3X245.78I-0.15J-0.99
G1 X245.05 Y103.4
G3X244.98Y103.41I-0.29J-1.66
G1 X243.59 Y103.62
G1 X241.15 Y103.99
G1 X240.69 Y104.06
G1 X237.26 Y104.57
G1 X235.54 Y104.84
G1 X234.69 Y104.97
G1 X233.83 Y105.11
G1 X233.21 Y105.21
G1 X232.6 Y105.31
G1 X231.43 Y105.51
G1 X230.33 Y105.7
G1 X229.82 Y105.79
G1 X229.32 Y105.88
G1 X227.39 Y106.22
G1 X226.54 Y106.38
G1 X225.75 Y106.52
G1 X224.26 Y106.79
G1 X222.96 Y107.03
G1 X221.83 Y107.24
G3X221.33Y107.34I-12.19J-64.48
G3X220.86Y107.42I-7.28J-38.06
G3X220.42Y107.5I-5.66J-29.4
G3X220.01Y107.58I-4.77J-24.67
G3X219.63Y107.65I-4.17J-21.56
G3X219.27Y107.72I-3.74J-19.31
G3X218.93Y107.78I-3.41J-17.57
G3X218.61Y107.84I-3.13J-16.18
G3X218.31Y107.89I-2.91J-15.03
G3X218.03Y107.94I-2.71J-14.05
G3X213.84Y108.69I-115.61J-632.72
G3X211.34Y109.12I-71.17J-406.25
G3X206.96Y109.85I-89.51J-529.58
G1 X205.32 Y110.11
G1 X203.89 Y110.33
G3X203.88I-0.16J-0.99
G1 X201.37 Y110.72
G1 X199.48 Y111.01
G1 X196.65 Y111.44
G3X196.3Y111.49I-4.86J-31.1
G3X195.99Y111.54I-4.84J-31.12
G3X195.44Y111.62I-7.06J-45.12
G3X195.04Y111.68I-6.99J-45.18
G3X194.43Y111.77I-10.61J-68.61
G3X193.82Y111.86I-18.19J-119.22
G1 X190.91 Y112.3
G1 X190.27 Y112.39
G1 X189.04 Y112.58
G1 X188.89 Y112.6
G3X179.68Y113.87I-72.21J-490.23
G1 X178.53 Y114.01
G3X170.45Y114.95I-63.39J-509.26
G1 X169.87 Y115.01
G1 X168.75 Y115.13
G3X168.74I-0.11J-0.99
G1 X166.56 Y115.36
G1 X166.05 Y115.41
G3X157.98Y116.19I-88.55J-879.49
G1 X156.46 Y116.32
G3Y116.33I-0.09J-1.0
G1 X155.28 Y116.43
G1 X153.78 Y116.56 Z-2.0
G1 X151.79 Y116.73
G1 X150.29 Y116.86 Z-4.0
G1 X145.11 Y117.28
G1 X144.4 Y117.34
G1 X141.73 Y117.54
G1 X140.73 Y117.62
G1 X140.3 Y117.65
G1 X139.89 Y117.68
G1 X138.35 Y117.8
G1 X138.06 Y117.82
G1 X135.9 Y117.97
G1 X133.74 Y118.12
G1 X132.39 Y118.21
G3X132.38Y118.22I-0.07J-1.0
G1 X129.76 Y118.39
G1 X129.45 Y118.41
G1 X127.01 Y118.56
G1 X125.87 Y118.63
G1 X123.65 Y118.77
G1 X122.61 Y118.83
G1 X106.49 Y119.65
G1 X104.48 Y119.74
G1 X102.72 Y119.82
G1 X99.63 Y119.94
G1 X99.05 Y119.97
G1 X97.97 Y120.01
G1 X97.02 Y120.05
G1 X93.7 Y120.17
G1 X93.49 Y120.18
G1 X90.37 Y120.29
G1 X89.18 Y120.33
G1 X89.17
G1 X88.0 Y120.37
G1 X86.84 Y120.41
G1 X86.83
G1 X85.69 Y120.45
G1 X84.57 Y120.49
G1 X84.01 Y120.5
G1 X81.82 Y120.57
G1 X81.28 Y120.59
G1 X80.23 Y120.62
G1 X79.19 Y120.65
G1 X78.68 Y120.67
G1 X78.17 Y120.68
G1 X74.14 Y120.79
G3X72.25Y120.84I-13.93J-490.99
G1 X71.79 Y120.85
G1 X68.16 Y120.95
G1 X64.75 Y121.03
G1 X63.16 Y121.06
G1 X60.07 Y121.13
G1 X58.62 Y121.16
G1 X57.91 Y121.17
G1 X57.22 Y121.19
G3X56.54Y121.2I-2.81J-121.66
G1 X55.2 Y121.23
G1 X50.01 Y121.33
G1 X45.47 Y121.41
G1 X45.35
G1 X41.39 Y121.48
G1 X37.93 Y121.54
G1 X37.17 Y121.55
G1 X32.33 Y121.62
G1 X31.3 Y121.64 Z-2.63
G1 Z-2.62
G1 X30.83 Z-2.0
G1 X28.83 Y121.67
G1 X27.33 Y121.69 Z-4.0
G1 X26.89 Y121.7
G1 X26.07 Y121.71
G1 X25.29 Y121.72
G1 X19.49 Y121.8
G1 X16.59 Y121.84
G1 X13.68 Y121.87
G3X12.67Y120.88I-0.01J-1.0
G1 Y5.88
G3X13.68Y4.88I1.0J0.0
G1 X18.48 Y4.94
G1 X22.97 Y5.0
G1 X25.08 Y5.02
G1 X26.39 Y5.04
G1 X27.89 Y5.06 Z-2.0
G1 X29.16 Y5.08
G1 X29.89 Y5.09
G1 X31.39 Y5.12 Z-4.0
G1 X32.98 Y5.14
G1 X36.57 Y5.19
G1 X39.93 Y5.25
G1 X41.51 Y5.27
G1 X43.04 Y5.3
G1 X48.95 Y5.4
G1 X54.13 Y5.5
G1 X55.26 Y5.52
G1 X57.46 Y5.57
G1 X58.49 Y5.59
G1 X62.47 Y5.67
G3X62.91Y5.68I-0.73J42.66
G1 X64.62 Y5.72
G1 X64.63
G1 X67.84 Y5.8
G1 X69.23 Y5.83
G3X69.33I0.01J1.87
G3X69.44Y5.84I-0.01J1.86
G1 X72.04 Y5.9
G1 X90.37 Y6.46
G1 X91.05 Y6.48
G1 X92.39 Y6.53
G1 X93.68 Y6.58
G1 X96.17 Y6.67
G3X96.26I-0.03J2.09
G3X96.34Y6.68I-0.04J2.09
G1 X98.67 Y6.77
G1 X99.77 Y6.81
G1 X101.89 Y6.9
G1 X103.88 Y6.98
G1 X104.81 Y7.02
G1 X104.82
G1 X105.27 Y7.04
G1 X105.71 Y7.06
G1 X107.45 Y7.14
G3X107.57I-0.04J2.41
G3X107.67Y7.15I-0.06J2.4
G3X107.77I-0.06J2.4
G3X107.89Y7.16I-0.06J2.4
G1 X109.49 Y7.23
G1 X112.52 Y7.38
G1 X113.85 Y7.45
G1 X115.09 Y7.51
G1 X116.26 Y7.57
G1 X118.44 Y7.69
G1 X118.45
G1 X126.09 Y8.13
G1 X126.1
G1 X128.01 Y8.25
G1 X130.87 Y8.43
G1 X132.3 Y8.53
G3X132.49Y8.54I-0.51J8.93
G3X132.64Y8.55I-0.53J9.04
G3X132.92Y8.57I-0.75J13.05
G3X133.12Y8.59I-0.83J13.64
G3X133.74Y8.63I-3.1J49.77
G1 X152.1 Y10.04
G3X152.11I-0.09J1.0
G1 X154.4 Y10.24
G3X155.34Y10.32I-10.81J128.34
G3X155.4Y10.33Z-3.91I-11.75J128.26
G1 X156.83 Y10.46 Z-2.0
G1 X157.28 Y10.5
G1 X158.11 Y10.57
G1 X158.82 Y10.64
G1 X159.65 Y10.72 Z-3.11
G1 X160.32 Y10.78 Z-4.0
G3X160.33I-0.09J1.0
G1 X161.59 Y10.9
G1 X162.14 Y10.95
G1 X163.18 Y11.05
G1 X164.09 Y11.14
G1 X164.88 Y11.22
G1 X164.89
G1 X165.58 Y11.29
G1 X166.19 Y11.35
G1 X168.32 Y11.57
G1 X170.44 Y11.8
G3X170.63Y11.82I-0.64J6.79
G3X170.82Y11.84I-0.71J7.4
G3X173.7Y12.16I-41.57J384.86
G1 X174.01 Y12.2
G1 X175.25 Y12.34
G3X184.55Y13.53I-55.24J467.54
G1 X185.71 Y13.7
G1 X187.74 Y13.99
G1 X188.37 Y14.08
G1 F300.0 Z-5.0
G1 F1500.0 X189.26 Y14.21
G1 X191.54 Y14.54
G3Y14.55I-0.15J0.99
G1 X193.82 Y14.89
G1 X196.32 Y15.26
G1 X198.51 Y15.59
G3X198.52I-0.15J0.99
G1 X200.43 Y15.88
G1 X202.11 Y16.14
G1 X203.58 Y16.37
G1 X204.86 Y16.57
G1 X207.11 Y16.93
G1 X207.95 Y17.06
G1 X208.69 Y17.18
G1 X209.33 Y17.29
G1 X209.9 Y17.38
G1 X210.88 Y17.55
G3X210.89I-0.16J0.99
G1 X212.36 Y17.8
G3X212.37I-0.17J0.99
G1 X213.84 Y18.06
G3X213.85I-0.17J0.99
G1 X215.1 Y18.28
G1 X215.68 Y18.38
G3X220.23Y19.21I-119.52J668.29
G1 X221.93 Y19.53
G2X222.3Y19.59I10.41J-55.25
G3X222.31Y19.6I-0.18J0.98
G2X222.66Y19.66I6.61J-34.79
G3X222.67I-0.18J0.98
G2X223.01Y19.72I5.2J-27.17
G3Y19.73I-0.18J0.98
G1 X225.72 Y20.22
G3X225.73Y20.23I-0.18J0.98
G2X225.96Y20.27I2.13J-10.99
G3X225.98I-0.17J0.99
G2X226.21Y20.31I2.02J-10.46
G3X226.23Y20.32I-0.17J0.99
G2X226.44Y20.36I1.93J-9.98
G3X226.46I-0.17J0.99
G2X226.67Y20.4I1.84J-9.55
G3X226.7I-0.17J0.99
G2X226.9Y20.44I1.76J-9.15
G3X226.92I-0.17J0.99
G2X227.11Y20.48I1.69J-8.79
G3X227.13I-0.17J0.99
G2X227.32Y20.52I1.62J-8.45
G3X227.34I-0.17J0.99
G2X227.53Y20.55I1.56J-8.14
G3X227.55Y20.56I-0.17J0.99
G2X227.72Y20.59I1.5J-7.84
G3X227.74I-0.17J0.99
G2X227.91Y20.62I1.45J-7.57
G3X227.93Y20.63I-0.17J0.99
G2X228.1Y20.65I1.39J-7.31
G3X228.12Y20.66I-0.17J0.99
G2X228.28Y20.69I1.35J-7.07
G3X228.3I-0.16J0.99
G2X228.45Y20.72I1.3J-6.85
G3X228.47I-0.16J0.99
G2X228.62Y20.75I1.26J-6.63
G3X228.64I-0.16J0.99
G2X228.78Y20.78I1.21J-6.43
G3X228.8I-0.16J0.99
G2X228.94Y20.8I1.18J-6.23
G3X228.96Y20.81I-0.16J0.99
G2X229.09Y20.83I1.14J-6.05
G3X229.1I-0.16J0.99
G2X230.28Y21.04I28.0J-156.19
G3X230.3I-0.17J0.99
G2X230.49Y21.08I1.29J-6.85
G3X230.52I-0.16J0.99
G2X230.7Y21.11I1.22J-6.52
G3X230.71I-0.16J0.99
G1 X232.27 Y21.38
G3X232.29I-0.17J0.99
G2X232.45Y21.41I1.05J-5.75
G3X232.46I-0.15J0.99
G1 X233.83 Y21.64
G3X233.84I-0.16J0.99
G2X233.99Y21.66I0.99J-5.64
G3X234.0Y21.67I-0.15J0.99
G1 X234.67 Y21.77
G1 X234.99 Y21.82
G1 X235.31 Y21.87
G1 X235.94 Y21.97
G1 X236.25 Y22.02
G1 X237.45 Y22.21
G1 X238.01 Y22.29
G1 X239.11 Y22.46
G1 X241.16 Y22.76
G1 X242.05 Y22.9
G1 X243.74 Y23.15
G1 X245.21 Y23.37
G1 X245.86 Y23.47
G1 X247.07 Y23.66
G3X251.3Y24.35I-50.63J323.67
G1 X252.35 Y24.53
G1 X253.14 Y24.67
G3X253.15I-0.17J0.99
G1 X253.44 Y24.72
G1 X254.48 Y24.91
G1 X255.52 Y25.1
G1 X255.82 Y25.16
G1 X257.02 Y25.38
G1 X258.17 Y25.6
G3X258.18I-0.19J0.98
G1 X258.73 Y25.71
G3X258.74I-0.19J0.98
G1 X259.84 Y25.93
G1 X259.9 Y25.94
G1 X259.97 Y25.96
G3X264.22Y26.81I-143.64J722.02
G1 X266.07 Y27.19
G1 X268.35 Y27.67
G1 X269.55 Y27.91 Z-2.56
G1 X269.82 Y27.97 Z-2.0
G1 X271.78 Y28.38
G1 X273.25 Y28.68 Z-5.0
G1 X275.62 Y29.18
G1 X280.18 Y30.12
G1 X281.04 Y30.29
G1 X281.44 Y30.38
G1 X284.55 Y31.01
G1 X286.87 Y31.49
G1 X290.37 Y32.19
G1 X293.87 Y32.89
G3X294.67Y33.88I-0.2J0.98
G1 Y92.88
G3X293.87Y93.86I-1.0J0.0
G1 X291.47 Y94.34
G1 X282.49 Y96.16
G1 X279.12 Y96.85
G1 X276.18 Y97.46
G1 X276.05 Y97.49
G1 X274.58 Y97.79 Z-2.0
G1 X273.6 Y97.99
G1 X272.62 Y98.2
G1 X271.15 Y98.5 Z-5.0
G1 X269.09 Y98.93
G1 X267.4 Y99.28
G1 X265.92 Y99.59
G1 X263.33 Y100.12
G3X263.32I-0.2J-0.98
G1 X261.38 Y100.51
G1 X259.92 Y100.8
G3Y100.81I-0.2J-0.98
G1 X259.37 Y100.91
G1 X258.89 Y101.01
G1 X258.05 Y101.17
G3X255.52Y101.65I-49.04J-251.98
G1 X254.17 Y101.9
G1 X253.85 Y101.95
G1 X252.6 Y102.17
G3X251.42Y102.38I-51.59J-296.23
G1 X250.33 Y102.56
G3X250.32I-0.17J-0.99
G1 X249.29 Y102.73
G1 X248.81 Y102.81
G1 X247.87 Y102.96
G1 X247.65 Y103.0
G1 X247.44 Y103.03
G3X247.43I-0.16J-0.99
G1 X246.58 Y103.16
G1 X245.79 Y103.29
G3X245.78I-0.15J-0.99
G1 X245.05 Y103.4
G3X244.98Y103.41I-0.29J-1.66
G1 X243.59 Y103.62
G1 X241.15 Y103.99
G1 X240.69 Y104.06
G1 X237.26 Y104.57
G1 X235.54 Y104.84
G1 X234.69 Y104.97
G1 X233.83 Y105.11
G1 X233.21 Y105.21
G1 X232.6 Y105.31
G1 X231.43 Y105.51
G1 X230.33 Y105.7
G1 X229.82 Y105.79
G1 X229.32 Y105.88
G1 X227.39 Y106.22
G1 X226.54 Y106.38
G1 X225.75 Y106.52
G1 X224.26 Y106.79
G1 X222.96 Y107.03
G1 X221.83 Y107.24
G3X221.33Y107.34I-12.19J-64.48
G3X220.86Y107.42I-7.28J-38.06
G3X220.42Y107.5I-5.66J-29.4
G3X220.01Y107.58I-4.77J-24.67
G3X219.63Y107.65I-4.17J-21.56
G3X219.27Y107.72I-3.74J-19.31
G3X218.93Y107.78I-3.41J-17.57
G3X218.61Y107.84I-3.13J-16.18
G3X218.31Y107.89I-2.91J-15.03
G3X218.03Y107.94I-2.71J-14.05
G3X213.84Y108.69I-115.61J-632.72
G3X211.34Y109.12I-71.17J-406.25
G3X206.96Y109.85I-89.51J-529.58
G1 X205.32 Y110.11
G1 X203.89 Y110.33
G3X203.88I-0.16J-0.99
G1 X201.37 Y110.72
G1 X199.48 Y111.01
G1 X196.65 Y111.44
G3X196.3Y111.49I-4.86J-31.1
G3X195.99Y111.54I-4.84J-31.12
G3X195.44Y111.62I-7.06J-45.12
G3X195.04Y111.68I-6.99J-45.18
G3X194.43Y111.77I-10.61J-68.61
G3X193.82Y111.86I-18.19J-119.22
G1 X190.91 Y112.3
G1 X190.27 Y112.39
G1 X189.04 Y112.58
G1 X188.89 Y112.6
G3X179.68Y113.87I-72.21J-490.23
G1 X178.53 Y114.01
G3X170.45Y114.95I-63.39J-509.26
G1 X169.87 Y115.01
G1 X168.75 Y115.13
G3X168.74I-0.11J-0.99
G1 X166.56 Y115.36
G1 X166.05 Y115.41
G3X157.98Y116.19I-88.55J-879.49
G1 X156.46 Y116.32
G3Y116.33I-0.09J-1.0
G1 X155.28 Y116.43
G1 X153.78 Y116.56 Z-2.0
G1 X151.79 Y116.73
G1 X150.29 Y116.86 Z-5.0
G1 X145.11 Y117.28
G1 X144.4 Y117.34
G1 X141.73 Y117.54
G1 X140.73 Y117.62
G1 X140.3 Y117.65
G1 X139.89 Y117.68
G1 X138.35 Y117.8
G1 X138.06 Y117.82
G1 X135.9 Y117.97
G1 X133.74 Y118.12
G1 X132.39 Y118.21
G3X132.38Y118.22I-0.07J-1.0
G1 X129.76 Y118.39
G1 X129.45 Y118.41
G1 X127.01 Y118.56
G1 X125.87 Y118.63
G1 X123.65 Y118.77
G1 X122.61 Y118.83
G1 X106.49 Y119.65
G1 X104.48 Y119.74
G1 X102.72 Y119.82
G1 X99.63 Y119.94
G1 X99.05 Y119.97
G1 X97.97 Y120.01
G1 X97.02 Y120.05
G1 X93.7 Y120.17
G1 X93.49 Y120.18
G1 X90.37 Y120.29
G1 X89.18 Y120.33
G1 X89.17
G1 X88.0 Y120.37
G1 X86.84 Y120.41
G1 X86.83
G1 X85.69 Y120.45
G1 X84.57 Y120.49
G1 X84.01 Y120.5
G1 X81.82 Y120.57
G1 X81.28 Y120.59
G1 X80.23 Y120.62
G1 X79.19 Y120.65
G1 X78.68 Y120.67
G1 X78.17 Y120.68
G1 X74.14 Y120.79
G3X72.25Y120.84I-13.93J-490.99
G1 X71.79 Y120.85
G1 X68.16 Y120.95
G1 X64.75 Y121.03
G1 X63.16 Y121.06
G1 X60.07 Y121.13
G1 X58.62 Y121.16
G1 X57.91 Y121.17
G1 X57.22 Y121.19
G3X56.54Y121.2I-2.81J-121.66
G1 X55.2 Y121.23
G1 X50.01 Y121.33
G1 X45.47 Y121.41
G1 X45.35
G1 X41.39 Y121.48
G1 X37.93 Y121.54
G1 X37.17 Y121.55
G1 X32.33 Y121.62
G1 X31.3 Y121.64 Z-2.94
G1 X30.83 Z-2.0
G1 X28.83 Y121.67
G1 X27.33 Y121.69 Z-5.0
G1 X26.89 Y121.7
G1 X26.07 Y121.71
G1 X25.29 Y121.72
G1 X19.49 Y121.8
G1 X16.59 Y121.84
G1 X13.68 Y121.87
G3X12.67Y120.88I-0.01J-1.0
G1 Y5.88
G3X13.68Y4.88I1.0J0.0
G1 X18.48 Y4.94
G1 X22.97 Y5.0
G1 X25.08 Y5.02
G1 X26.39 Y5.04
G1 X27.89 Y5.06 Z-2.0
G1 X29.16 Y5.08
G1 X29.89 Y5.09
G1 X31.39 Y5.12 Z-5.0
G1 X32.98 Y5.14
G1 X36.57 Y5.19
G1 X39.93 Y5.25
G1 X41.51 Y5.27
G1 X43.04 Y5.3
G1 X48.95 Y5.4
G1 X54.13 Y5.5
G1 X55.26 Y5.52
G1 X57.46 Y5.57
G1 X58.49 Y5.59
G1 X62.47 Y5.67
G3X62.91Y5.68I-0.73J42.66
G1 X64.62 Y5.72
G1 X64.63
G1 X67.84 Y5.8
G1 X69.23 Y5.83
G3X69.33I0.01J1.87
G3X69.44Y5.84I-0.01J1.86
G1 X72.04 Y5.9
G1 X90.37 Y6.46
G1 X91.05 Y6.48
G1 X92.39 Y6.53
G1 X93.68 Y6.58
G1 X96.17 Y6.67
G3X96.26I-0.03J2.09
G3X96.34Y6.68I-0.04J2.09
G1 X98.67 Y6.77
G1 X99.77 Y6.81
G1 X101.89 Y6.9
G1 X103.88 Y6.98
G1 X104.81 Y7.02
G1 X104.82
G1 X105.27 Y7.04
G1 X105.71 Y7.06
G1 X107.45 Y7.14
G3X107.57I-0.04J2.41
G3X107.67Y7.15I-0.06J2.4
G3X107.77I-0.06J2.4
G3X107.89Y7.16I-0.06J2.4
G1 X109.49 Y7.23
G1 X112.52 Y7.38
G1 X113.85 Y7.45
G1 X115.09 Y7.51
G1 X116.26 Y7.57
G1 X118.44 Y7.69
G1 X118.45
G1 X126.09 Y8.13
G1 X126.1
G1 X128.01 Y8.25
G1 X130.87 Y8.43
G1 X132.3 Y8.53
G3X132.49Y8.54I-0.51J8.93
G3X132.64Y8.55I-0.53J9.04
G3X132.92Y8.57I-0.75J13.05
G3X133.12Y8.59I-0.83J13.64
G3X133.74Y8.63I-3.1J49.77
G1 X152.1 Y10.04
G3X152.11I-0.09J1.0
G1 X154.4 Y10.24
G3X155.34Y10.32I-10.81J128.34
G3X155.4Y10.33Z-4.87I-11.75J128.26
G1 X156.83 Y10.46 Z-2.0
G1 X157.28 Y10.5
G1 X158.11 Y10.57
G1 X158.82 Y10.64
G1 X159.65 Y10.72 Z-3.66
G1 X160.32 Y10.78 Z-5.0
G3X160.33I-0.09J1.0
G1 X161.59 Y10.9
G1 X162.14 Y10.95
G1 X163.18 Y11.05
G1 X164.09 Y11.14
G1 X164.88 Y11.22
G1 X164.89
G1 X165.58 Y11.29
G1 X166.19 Y11.35
G1 X168.32 Y11.57
G1 X170.44 Y11.8
G3X170.63Y11.82I-0.64J6.79
G3X170.82Y11.84I-0.71J7.4
G3X173.7Y12.16I-41.57J384.86
G1 X174.01 Y12.2
G1 X175.25 Y12.34
G3X184.55Y13.53I-55.24J467.54
G1 X185.71 Y13.7
G1 X187.74 Y13.99
G1 X188.37 Y14.08
( Contour1 )
S1000
G0 Z3.0
G0 X208.79 Y141.2
G0 Z1.0
G1 F300.0 Z-1.0
F1500.0
G3X209.62Y140.76I0.83J0.56
G1 X222.62
G3X223.62Y141.76I0.0J1.0
G1 Y145.76
G3X222.62Y146.76I-1.0J0.0
G1 X220.62
G1 Y161.76
G1 X222.62
G3X223.62Y162.76I0.0J1.0
G1 Y166.76
G3X222.62Y167.76I-1.0J0.0
G1 X205.62
G3X204.63Y166.6I0.0J-1.0
G1 X208.63 Y141.6
G3X208.79Y141.2I0.99J0.16
G1 F300.0 Z-2.0
F1500.0
G3X209.62Y140.76I0.83J0.56
G1 X222.62
G3X223.62Y141.76I0.0J1.0
G1 Y145.76
G3X222.62Y146.76I-1.0J0.0
G1 X220.62
G1 Y161.76
G1 X222.62
G3X223.62Y162.76I0.0J1.0
G1 Y166.76
G3X222.62Y167.76I-1.0J0.0
G1 X205.62
G3X204.63Y166.6I0.0J-1.0
G1 X208.63 Y141.6
G3X208.79Y141.2I0.99J0.16
G1 F300.0 Z-3.0
F1500.0
G3X209.62Y140.76I0.83J0.56
G1 X222.62
G3X223.62Y141.76I0.0J1.0
G1 Y145.76
G3X222.62Y146.76I-1.0J0.0
G1 X220.62
G1 Y151.2
G1 Y152.7 Z-2.0
G1 Y154.7
G1 Y156.2 Z-3.0
G1 Y161.76
G1 X222.62
G3X223.62Y162.76I0.0J1.0
G1 Y166.76
G3X222.62Y167.76I-1.0J0.0
G1 X205.62
G3X204.63Y166.6I0.0J-1.0
G1 X206.17 Y156.97
G1 X206.41 Y155.49 Z-2.0
G1 X206.72 Y153.51
G1 X206.96 Y152.03 Z-3.0
G1 X208.63 Y141.6
G3X208.79Y141.2I0.99J0.16
G1 F300.0 Z-4.0
F1500.0
G3X209.62Y140.76I0.83J0.56
G1 X222.62
G3X223.62Y141.76I0.0J1.0
G1 Y145.76
G3X222.62Y146.76I-1.0J0.0
G1 X220.62
G1 Y151.2
G1 Y152.7 Z-2.0
G1 Y154.7
G1 Y156.2 Z-4.0
G1 Y161.76
G1 X222.62
G3X223.62Y162.76I0.0J1.0
G1 Y166.76
G3X222.62Y167.76I-1.0J0.0
G1 X205.62
G3X204.63Y166.6I0.0J-1.0
G1 X206.17 Y156.97
G1 X206.41 Y155.49 Z-2.0
G1 X206.72 Y153.51
G1 X206.96 Y152.03 Z-4.0
G1 X208.63 Y141.6
G3X208.79Y141.2I0.99J0.16
G1 F300.0 Z-5.0
F1500.0
G3X209.62Y140.76I0.83J0.56
G1 X222.62
G3X223.62Y141.76I0.0J1.0
G1 Y145.76
G3X222.62Y146.76I-1.0J0.0
G1 X220.62
G1 Y151.2
G1 Y152.7 Z-2.0
G1 Y154.7
G1 Y156.2 Z-5.0
G1 Y161.76
G1 X222.62
G3X223.62Y162.76I0.0J1.0
G1 Y166.76
G3X222.62Y167.76I-1.0J0.0
G1 X205.62
G3X204.63Y166.6I0.0J-1.0
G1 X206.17 Y156.97
G1 X206.41 Y155.49 Z-2.0
G1 X206.72 Y153.51
G1 X206.96 Y152.03 Z-5.0
G1 X208.63 Y141.6
G3X208.79Y141.2I0.99J0.16
( Contour2 )
S1000
G0 Z3.0
G0 X186.79 Y140.96
G0 Z1.0
G1 F300.0 Z-1.0
F1500.0
G3X187.58Y140.56I0.8J0.6
G1 X204.58
G3X205.57Y141.72I0.0J1.0
G1 X201.57 Y166.72
G3X200.58Y167.56I-0.99J-0.16
G1 X187.58
G3X186.58Y166.56I0.0J-1.0
G1 Y162.56
G3X187.58Y161.56I1.0J0.0
G1 X189.58
G1 Y146.56
G1 X187.58
G3X186.58Y145.56I0.0J-1.0
G1 Y141.56
G3X186.79Y140.96I1.0J0.0
G1 F300.0 Z-2.0
F1500.0
G3X187.58Y140.56I0.8J0.6
G1 X204.58
G3X205.57Y141.72I0.0J1.0
G1 X201.57 Y166.72
G3X200.58Y167.56I-0.99J-0.16
G1 X187.58
G3X186.58Y166.56I0.0J-1.0
G1 Y162.56
G3X187.58Y161.56I1.0J0.0
G1 X189.58
G1 Y146.56
G1 X187.58
G3X186.58Y145.56I0.0J-1.0
G1 Y141.56
G3X186.79Y140.96I1.0J0.0
G1 F300.0 Z-3.0
F1500.0
G3X187.58Y140.56I0.8J0.6
G1 X204.58
G3X205.57Y141.72I0.0J1.0
G1 X203.92 Y152.03
G1 X203.69 Y153.51 Z-2.0
G1 X203.37 Y155.48
G1 X203.13 Y156.96 Z-3.0
G1 X201.57 Y166.72
G3X200.58Y167.56I-0.99J-0.16
G1 X187.58
G3X186.58Y166.56I0.0J-1.0
G1 Y162.56
G3X187.58Y161.56I1.0J0.0
G1 X189.58
G1 Y157.2
G1 Y155.7 Z-2.0
G1 Y153.7
G1 Y152.2 Z-3.0
G1 Y146.56
G1 X187.58
G3X186.58Y145.56I0.0J-1.0
G1 Y141.56
G3X186.79Y140.96I1.0J0.0
G1 F300.0 Z-4.0
F1500.0
G3X187.58Y140.56I0.8J0.6
G1 X204.58
G3X205.57Y141.72I0.0J1.0
G1 X203.92 Y152.03
G1 X203.69 Y153.51 Z-2.0
G1 X203.37 Y155.48
G1 X203.13 Y156.96 Z-4.0
G1 X201.57 Y166.72
G3X200.58Y167.56I-0.99J-0.16
G1 X187.58
G3X186.58Y166.56I0.0J-1.0
G1 Y162.56
G3X187.58Y161.56I1.0J0.0
G1 X189.58
G1 Y157.2
G1 Y155.7 Z-2.0
G1 Y153.7
G1 Y152.2 Z-4.0
G1 Y146.56
G1 X187.58
G3X186.58Y145.56I0.0J-1.0
G1 Y141.56
G3X186.79Y140.96I1.0J0.0
G1 F300.0 Z-5.0
F1500.0
G3X187.58Y140.56I0.8J0.6
G1 X204.58
G3X205.57Y141.72I0.0J1.0
G1 X203.92 Y152.03
G1 X203.69 Y153.51 Z-2.0
G1 X203.37 Y155.48
G1 X203.13 Y156.96 Z-5.0
G1 X201.57 Y166.72
G3X200.58Y167.56I-0.99J-0.16
G1 X187.58
G3X186.58Y166.56I0.0J-1.0
G1 Y162.56
G3X187.58Y161.56I1.0J0.0
G1 X189.58
G1 Y157.2
G1 Y155.7 Z-2.0
G1 Y153.7
G1 Y152.2 Z-5.0
G1 Y146.56
G1 X187.58
G3X186.58Y145.56I0.0J-1.0
G1 Y141.56
G3X186.79Y140.96I1.0J0.0
( Contour3 )
S1000
G0 Z3.0
G0 X169.43 Y140.89
G0 Z1.0
G1 F300.0 Z-1.0
F1500.0
G3X170.2Y140.53I0.77J0.64
G1 X183.2
G3X184.2Y141.53I0.0J1.0
G1 Y145.53
G3X183.2Y146.53I-1.0J0.0
G1 X181.2
G1 Y161.53
G1 X183.2
G3X184.2Y162.53I0.0J1.0
G1 Y166.53
G3X183.2Y167.53I-1.0J0.0
G1 X166.2
G3X165.22Y166.37I0.0J-1.0
G1 X169.22 Y141.37
G3X169.43Y140.89I0.99J0.16
G1 F300.0 Z-2.0
F1500.0
G3X170.2Y140.53I0.77J0.64
G1 X183.2
G3X184.2Y141.53I0.0J1.0
G1 Y145.53
G3X183.2Y146.53I-1.0J0.0
G1 X181.2
G1 Y161.53
G1 X183.2
G3X184.2Y162.53I0.0J1.0
G1 Y166.53
G3X183.2Y167.53I-1.0J0.0
G1 X166.2
G3X165.22Y166.37I0.0J-1.0
G1 X169.22 Y141.37
G3X169.43Y140.89I0.99J0.16
G1 F300.0 Z-3.0
F1500.0
G3X170.2Y140.53I0.77J0.64
G1 X183.2
G3X184.2Y141.53I0.0J1.0
G1 Y145.53
G3X183.2Y146.53I-1.0J0.0
G1 X181.2
G1 Y152.2
G1 Y153.7 Z-2.0
G1 Y155.7
G1 Y157.2 Z-3.0
G1 Y161.53
G1 X183.2
G3X184.2Y162.53I0.0J1.0
G1 Y166.53
G3X183.2Y167.53I-1.0J0.0
G1 X166.2
G3X165.22Y166.37I0.0J-1.0
G1 X166.71 Y157.05
G1 X166.94 Y155.57 Z-2.0
G1 X167.26 Y153.6
G1 X167.5 Y152.12 Z-3.0
G1 X169.22 Y141.37
G3X169.43Y140.89I0.99J0.16
G1 F300.0 Z-4.0
F1500.0
G3X170.2Y140.53I0.77J0.64
G1 X183.2
G3X184.2Y141.53I0.0J1.0
G1 Y145.53
G3X183.2Y146.53I-1.0J0.0
G1 X181.2
G1 Y152.2
G1 Y153.7 Z-2.0
G1 Y155.7
G1 Y157.2 Z-4.0
G1 Y161.53
G1 X183.2
G3X184.2Y162.53I0.0J1.0
G1 Y166.53
G3X183.2Y167.53I-1.0J0.0
G1 X166.2
G3X165.22Y166.37I0.0J-1.0
G1 X166.71 Y157.05
G1 X166.94 Y155.57 Z-2.0
G1 X167.26 Y153.6
G1 X167.5 Y152.12 Z-4.0
G1 X169.22 Y141.37
G3X169.43Y140.89I0.99J0.16
G1 F300.0 Z-5.0
F1500.0
G3X170.2Y140.53I0.77J0.64
G1 X183.2
G3X184.2Y141.53I0.0J1.0
G1 Y145.53
G3X183.2Y146.53I-1.0J0.0
G1 X181.2
G1 Y152.2
G1 Y153.7 Z-2.0
G1 Y155.7
G1 Y157.2 Z-5.0
G1 Y161.53
G1 X183.2
G3X184.2Y162.53I0.0J1.0
G1 Y166.53
G3X183.2Y167.53I-1.0J0.0
G1 X166.2
G3X165.22Y166.37I0.0J-1.0
G1 X166.71 Y157.05
G1 X166.94 Y155.57 Z-2.0
G1 X167.26 Y153.6
G1 X167.5 Y152.12 Z-5.0
G1 X169.22 Y141.37
G3X169.43Y140.89I0.99J0.16
( Contour4 )
S1000
G0 Z3.0
G0 X159.74 Y135.55
G0 Z1.0
G1 F300.0 Z-1.0
G1 F1500.0 Y173.69
G1 X227.74 Y178.54
G1 Y130.69
G1 X159.74 Y135.55
G1 F300.0 Z-2.0
G1 F1500.0 Y173.69
G1 X227.74 Y178.54
G1 Y130.69
G1 X159.74 Y135.55
G1 F300.0 Z-3.0
G1 F1500.0 Y153.2
G1 Y154.7 Z-2.0
G1 Y156.7
G1 Y158.2 Z-3.0
G1 Y173.69
G1 X169.4 Y174.38
G1 X170.9 Y174.48 Z-2.0
G1 X172.89 Y174.63
G1 X174.39 Y174.73 Z-3.0
G1 X209.41 Y177.24
G1 X210.91 Y177.34 Z-2.0
G1 X212.9 Y177.49
G1 X214.4 Y177.59 Z-3.0
G1 X227.74 Y178.54
G1 Y156.2
G1 Y154.7 Z-2.0
G1 Y152.7
G1 Y151.2 Z-3.0
G1 Y130.69
G1 X213.32 Y131.72
G1 X211.82 Y131.83 Z-2.0
G1 X209.83 Y131.97
G1 X208.33 Y132.08 Z-3.0
G1 X174.38 Y134.5
G1 X172.88 Y134.61 Z-2.0
G1 X170.88 Y134.75
G1 X169.39 Y134.86 Z-3.0
G1 X159.74 Y135.55
G1 F300.0 Z-4.0
G1 F1500.0 Y153.2
G1 Y154.7 Z-2.0
G1 Y156.7
G1 Y158.2 Z-4.0
G1 Y173.69
G1 X169.4 Y174.38
G1 X170.9 Y174.48 Z-2.0
G1 X172.89 Y174.63
G1 X174.39 Y174.73 Z-4.0
G1 X209.41 Y177.24
G1 X210.91 Y177.34 Z-2.0
G1 X212.9 Y177.49
G1 X214.4 Y177.59 Z-4.0
G1 X227.74 Y178.54
G1 Y156.2
G1 Y154.7 Z-2.0
G1 Y152.7
G1 Y151.2 Z-4.0
G1 Y130.69
G1 X213.32 Y131.72
G1 X211.82 Y131.83 Z-2.0
G1 X209.83 Y131.97
G1 X208.33 Y132.08 Z-4.0
G1 X174.38 Y134.5
G1 X172.88 Y134.61 Z-2.0
G1 X170.88 Y134.75
G1 X169.39 Y134.86 Z-4.0
G1 X159.74 Y135.55
G1 F300.0 Z-5.0
G1 F1500.0 Y153.2
G1 Y154.7 Z-2.0
G1 Y156.7
G1 Y158.2 Z-5.0
G1 Y173.69
G1 X169.4 Y174.38
G1 X170.9 Y174.48 Z-2.0
G1 X172.89 Y174.63
G1 X174.39 Y174.73 Z-5.0
G1 X209.41 Y177.24
G1 X210.91 Y177.34 Z-2.0
G1 X212.9 Y177.49
G1 X214.4 Y177.59 Z-5.0
G1 X227.74 Y178.54
G1 Y156.2
G1 Y154.7 Z-2.0
G1 Y152.7
G1 Y151.2 Z-5.0
G1 Y130.69
G1 X213.32 Y131.72
G1 X211.82 Y131.83 Z-2.0
G1 X209.83 Y131.97
G1 X208.33 Y132.08 Z-5.0
G1 X174.38 Y134.5
G1 X172.88 Y134.61 Z-2.0
G1 X170.88 Y134.75
G1 X169.39 Y134.86 Z-5.0
G1 X159.74 Y135.55
( Contour5 )
S1000
G0 Z3.0
G0 X113.07 Y124.88
G0 Z1.0
G1 F300.0 Z-1.0
F1500.0
G3X113.66Y124.62I0.67J0.74
G1 X118.45 Y124.24
G1 X122.64 Y123.9
G1 X124.48 Y123.75
G1 X127.92 Y123.46
G1 X139.95 Y122.43
G1 X145.96 Y121.89
G1 X148.97 Y121.62
G1 X149.73 Y121.55
G1 X150.29 Y121.5
G1 X151.14 Y121.43
G1 X151.98 Y121.35
G1 X154.69 Y121.12
G1 X157.06 Y120.92
G3X157.07I0.08J1.0
G1 X161.21 Y120.57
G1 X167.44 Y120.06
G1 X168.99 Y119.94
G2X173.65Y119.54I-78.79J-953.92
G1 X174.9 Y119.43
G1 X177.24 Y119.22
G1 X181.34 Y118.84
G1 X184.42 Y118.56
G1 X186.72 Y118.36
G3X186.94Y118.34I1.6J16.93
G3X187.36Y118.3I2.19J22.7
G3X187.76Y118.27I2.06J21.47
G3X188.12Y118.24I1.94J20.38
G3X188.47Y118.21I1.84J19.4
G3X188.79Y118.18I1.74J18.5
G3X189.1Y118.15I1.65J17.69
G3X189.38Y118.13I1.57J16.93
G3X189.66Y118.11I1.49J16.24
G1 X191.65 Y117.94
G3X191.91Y117.92I1.29J14.57
G1 X193.66 Y117.79
G3X193.98Y117.77I1.32J15.57
G3X194.28Y117.74I1.31J15.7
G3X194.59Y117.72I1.31J15.83
G3X194.89Y117.7I1.31J15.97
G3X195.18Y117.68I1.3J16.1
G3X195.47Y117.66I1.3J16.24
G3X195.75Y117.64I1.3J16.38
G3X196.03Y117.62I1.3J16.52
G3X196.31Y117.6I1.29J16.65
G3X196.59Y117.58I1.29J16.79
G3X198.72Y117.44I22.03J314.77
G3X198.95Y117.42I1.3J18.2
G3X199.18Y117.41I1.29J18.36
G3X199.64Y117.38I1.89J25.98
G1 X206.66 Y116.96
G1 X210.17 Y116.75
G1 X211.92 Y116.65
G1 X213.68 Y116.54
G1 X214.92 Y116.46
G1 X217.27 Y116.31
G1 X219.32 Y116.17
G1 X226.49 Y115.68
G1 X230.08 Y115.44
G3X230.53Y115.41I2.41J33.05
G3X230.92Y115.38I2.18J30.16
G3X231.27Y115.36I1.98J27.66
G1 X233.67 Y115.2
G3X233.68I0.06J1.0
G1 X235.03 Y115.12
G1 X236.3 Y115.04
G1 X238.68 Y114.91
G1 X240.77 Y114.79
G1 X241.68 Y114.75
G3X248.53Y114.43I34.91J670.58
G1 X250.23 Y114.35
G3X250.24I0.04J1.0
G1 X251.52 Y114.3
G1 X252.48 Y114.27
G1 X253.92 Y114.21
G1 X253.93
G1 X254.02
G1 X254.1
G1 X255.37 Y114.16
G1 X255.97 Y114.14
G3X274.86Y113.72I27.53J803.23
G1 X277.22 Y113.69
G1 X279.28 Y113.67
G1 X281.09 Y113.66
G1 X281.88 Y113.65
G1 X284.84 Y113.64
G1 X284.98
G1 X287.17 Y113.63
G1 X290.45 Y113.62
G3X290.46I0.0J1.0
G1 X293.74
G3X294.74Y114.62I0.0J1.0
G1 Y194.62
G3X293.74Y195.62I-1.0J0.0
G1 X291.36
G3X291.27I-0.05J-1.71
G3X291.2I-0.03J-1.71
G3X291.13I-0.03J-1.71
G3X291.06I-0.03J-1.71
G3X290.97I-0.03J-1.7
G1 X288.77 Y195.61
G1 X288.76
G1 X287.72
G1 X285.7 Y195.6
G1 X283.81
G3X283.8I0.0J-1.0
G1 X282.03 Y195.59
G1 X280.36 Y195.57
G1 X279.6
G3X279.53I-0.03J-1.51
G3X279.47I-0.01J-1.51
G1 X276.47 Y195.54
G1 X273.84 Y195.51
G3X273.83I0.01J-1.0
G1 X271.53 Y195.48
G1 X269.51 Y195.45
G3X269.28Y195.44I0.06J-10.0
G1 X265.81 Y195.37
G1 X264.5 Y195.35
G3X255.37Y195.08I17.27J-742.46
G1 X252.66 Y194.98
G1 X250.28 Y194.89
G3X233.68Y194.03I29.51J-737.89
G1 X233.67
G1 X232.42 Y193.95
G1 X230.08 Y193.8
G1 X228.03 Y193.66
G3X228.02I0.07J-1.0
G1 X220.85 Y193.17
G1 X217.26 Y192.93
G3X217.25I0.07J-1.0
G2X216.82Y192.9I-2.27J31.06
G3X216.81I0.06J-1.0
G2X216.43Y192.88I-2.04J28.16
G3X216.41I0.06J-1.0
G2X216.08Y192.85I-1.84J25.66
G1 X213.67 Y192.7
G2X213.37Y192.68I-1.5J21.69
G3X213.36I0.06J-1.0
G2X213.06Y192.66I-1.52J22.14
G3X213.05I0.06J-1.0
G2X212.76Y192.64I-1.54J22.61
G3X212.75I0.06J-1.0
G2X212.46Y192.63I-1.56J23.11
G3X212.45Y192.62I0.05J-1.0
G2X212.17Y192.61I-1.58J23.64
G3X212.16I0.05J-1.0
G2X211.88Y192.59I-1.61J24.2
G3X211.87I0.05J-1.0
G2X211.59Y192.57I-1.64J24.81
G3X211.58I0.05J-1.0
G2X211.04Y192.54I-2.5J37.05
G3X211.02I0.05J-1.0
G2X210.49Y192.51I-2.61J39.25
G3X210.48I0.05J-1.0
G2X209.97Y192.48I-2.74J41.91
G3X209.96I0.05J-1.0
G2X209.46Y192.45I-2.92J45.23
G3X209.45I0.05J-1.0
G2X208.97Y192.42I-3.15J49.52
G3X208.96I0.05J-1.0
G2X208.49Y192.39I-3.48J55.43
G3X208.48I0.05J-1.0
G1 X201.08 Y191.95
G1 X199.22 Y191.83
G1 X197.83 Y191.74
G1 X196.79 Y191.67
G3X193.66Y191.45I35.02J-512.51
G1 X192.41 Y191.35
G1 X191.23 Y191.26
G1 X190.13 Y191.17
G1 X188.07 Y191.0
G1 X186.26 Y190.84
G1 X184.69 Y190.7
G3X184.68I0.09J-1.0
G1 X181.93 Y190.45
G1 X181.92
G1 X179.85 Y190.26
G2X179.08Y190.19I-7.82J81.19
G2X178.74Y190.16I-3.94J41.21
G2X178.43Y190.13I-3.43J35.79
G3X178.41I0.09J-1.0
G2X177.83Y190.07I-4.29J43.83
G3X177.82I0.08J-1.0
G2X177.31Y190.03I-3.57J36.47
G3X177.3Y190.02I0.08J-1.0
G2X176.85Y189.98I-3.07J31.34
G3X176.84I0.08J-1.0
G2X176.45Y189.95I-2.68J27.47
G1 X173.65 Y189.7
G1 X172.3 Y189.58
G1 X169.76 Y189.37
G1 X165.32 Y189.0
G1 X161.98 Y188.72
G1 X159.48 Y188.51
G1 X157.61 Y188.35
G1 X151.98 Y187.84
G1 X149.58 Y187.62
G1 X145.1 Y187.2
G1 X145.09
G1 X137.24 Y186.48
G1 X135.77 Y186.35
G1 X133.01 Y186.11
G1 X131.8 Y186.01
G1 X131.73 Y186.0
G1 X129.47 Y185.82
G1 X128.49 Y185.74
G1 X126.64 Y185.59
G1 X126.23 Y185.56
G1 X123.09 Y185.31
G1 X121.91 Y185.22
G1 X113.67 Y184.62
G3X112.74Y183.62I0.07J-1.0
G1 Y125.62
G3X113.07Y124.88I1.0J0.0
G1 F300.0 Z-2.0
F1500.0
G3X113.66Y124.62I0.67J0.74
G1 X118.45 Y124.24
G1 X122.64 Y123.9
G1 X124.48 Y123.75
G1 X127.92 Y123.46
G1 X139.95 Y122.43
G1 X145.96 Y121.89
G1 X148.97 Y121.62
G1 X149.73 Y121.55
G1 X150.29 Y121.5
G1 X151.14 Y121.43
G1 X151.98 Y121.35
G1 X154.69 Y121.12
G1 X157.06 Y120.92
G3X157.07I0.08J1.0
G1 X161.21 Y120.57
G1 X167.44 Y120.06
G1 X168.99 Y119.94
G2X173.65Y119.54I-78.79J-953.92
G1 X174.9 Y119.43
G1 X177.24 Y119.22
G1 X181.34 Y118.84
G1 X184.42 Y118.56
G1 X186.72 Y118.36
G3X186.94Y118.34I1.6J16.93
G3X187.36Y118.3I2.19J22.7
G3X187.76Y118.27I2.06J21.47
G3X188.12Y118.24I1.94J20.38
G3X188.47Y118.21I1.84J19.4
G3X188.79Y118.18I1.74J18.5
G3X189.1Y118.15I1.65J17.69
G3X189.38Y118.13I1.57J16.93
G3X189.66Y118.11I1.49J16.24
G1 X191.65 Y117.94
G3X191.91Y117.92I1.29J14.57
G1 X193.66 Y117.79
G3X193.98Y117.77I1.32J15.57
G3X194.28Y117.74I1.31J15.7
G3X194.59Y117.72I1.31J15.83
G3X194.89Y117.7I1.31J15.97
G3X195.18Y117.68I1.3J16.1
G3X195.47Y117.66I1.3J16.24
G3X195.75Y117.64I1.3J16.38
G3X196.03Y117.62I1.3J16.52
G3X196.31Y117.6I1.29J16.65
G3X196.59Y117.58I1.29J16.79
G3X198.72Y117.44I22.03J314.77
G3X198.95Y117.42I1.3J18.2
G3X199.18Y117.41I1.29J18.36
G3X199.64Y117.38I1.89J25.98
G1 X206.66 Y116.96
G1 X210.17 Y116.75
G1 X211.92 Y116.65
G1 X213.68 Y116.54
G1 X214.92 Y116.46
G1 X217.27 Y116.31
G1 X219.32 Y116.17
G1 X226.49 Y115.68
G1 X230.08 Y115.44
G3X230.53Y115.41I2.41J33.05
G3X230.92Y115.38I2.18J30.16
G3X231.27Y115.36I1.98J27.66
G1 X233.67 Y115.2
G3X233.68I0.06J1.0
G1 X235.03 Y115.12
G1 X236.3 Y115.04
G1 X238.68 Y114.91
G1 X240.77 Y114.79
G1 X241.68 Y114.75
G3X248.53Y114.43I34.91J670.58
G1 X250.23 Y114.35
G3X250.24I0.04J1.0
G1 X251.52 Y114.3
G1 X252.48 Y114.27
G1 X253.92 Y114.21
G1 X253.93
G1 X254.02
G1 X254.1
G1 X255.37 Y114.16
G1 X255.97 Y114.14
G3X274.86Y113.72I27.53J803.23
G1 X277.22 Y113.69
G1 X279.28 Y113.67
G1 X281.09 Y113.66
G1 X281.88 Y113.65
G1 X284.84 Y113.64
G1 X284.98
G1 X287.17 Y113.63
G1 X290.45 Y113.62
G3X290.46I0.0J1.0
G1 X293.74
G3X294.74Y114.62I0.0J1.0
G1 Y194.62
G3X293.74Y195.62I-1.0J0.0
G1 X291.36
G3X291.27I-0.05J-1.71
G3X291.2I-0.03J-1.71
G3X291.13I-0.03J-1.71
G3X291.06I-0.03J-1.71
G3X290.97I-0.03J-1.7
G1 X288.77 Y195.61
G1 X288.76
G1 X287.72
G1 X285.7 Y195.6
G1 X283.81
G3X283.8I0.0J-1.0
G1 X282.03 Y195.59
G1 X280.36 Y195.57
G1 X279.6
G3X279.53I-0.03J-1.51
G3X279.47I-0.01J-1.51
G1 X276.47 Y195.54
G1 X273.84 Y195.51
G3X273.83I0.01J-1.0
G1 X271.53 Y195.48
G1 X269.51 Y195.45
G3X269.28Y195.44I0.06J-10.0
G1 X265.81 Y195.37
G1 X264.5 Y195.35
G3X255.37Y195.08I17.27J-742.46
G1 X252.66 Y194.98
G1 X250.28 Y194.89
G3X233.68Y194.03I29.51J-737.89
G1 X233.67
G1 X232.42 Y193.95
G1 X230.08 Y193.8
G1 X228.03 Y193.66
G3X228.02I0.07J-1.0
G1 X220.85 Y193.17
G1 X217.26 Y192.93
G3X217.25I0.07J-1.0
G2X216.82Y192.9I-2.27J31.06
G3X216.81I0.06J-1.0
G2X216.43Y192.88I-2.04J28.16
G3X216.41I0.06J-1.0
G2X216.08Y192.85I-1.84J25.66
G1 X213.67 Y192.7
G2X213.37Y192.68I-1.5J21.69
G3X213.36I0.06J-1.0
G2X213.06Y192.66I-1.52J22.14
G3X213.05I0.06J-1.0
G2X212.76Y192.64I-1.54J22.61
G3X212.75I0.06J-1.0
G2X212.46Y192.63I-1.56J23.11
G3X212.45Y192.62I0.05J-1.0
G2X212.17Y192.61I-1.58J23.64
G3X212.16I0.05J-1.0
G2X211.88Y192.59I-1.61J24.2
G3X211.87I0.05J-1.0
G2X211.59Y192.57I-1.64J24.81
G3X211.58I0.05J-1.0
G2X211.04Y192.54I-2.5J37.05
G3X211.02I0.05J-1.0
G2X210.49Y192.51I-2.61J39.25
G3X210.48I0.05J-1.0
G2X209.97Y192.48I-2.74J41.91
G3X209.96I0.05J-1.0
G2X209.46Y192.45I-2.92J45.23
G3X209.45I0.05J-1.0
G2X208.97Y192.42I-3.15J49.52
G3X208.96I0.05J-1.0
G2X208.49Y192.39I-3.48J55.43
G3X208.48I0.05J-1.0
G1 X201.08 Y191.95
G1 X199.22 Y191.83
G1 X197.83 Y191.74
G1 X196.79 Y191.67
G3X193.66Y191.45I35.02J-512.51
G1 X192.41 Y191.35
G1 X191.23 Y191.26
G1 X190.13 Y191.17
G1 X188.07 Y191.0
G1 X186.26 Y190.84
G1 X184.69 Y190.7
G3X184.68I0.09J-1.0
G1 X181.93 Y190.45
G1 X181.92
G1 X179.85 Y190.26
G2X179.08Y190.19I-7.82J81.19
G2X178.74Y190.16I-3.94J41.21
G2X178.43Y190.13I-3.43J35.79
G3X178.41I0.09J-1.0
G2X177.83Y190.07I-4.29J43.83
G3X177.82I0.08J-1.0
G2X177.31Y190.03I-3.57J36.47
G3X177.3Y190.02I0.08J-1.0
G2X176.85Y189.98I-3.07J31.34
G3X176.84I0.08J-1.0
G2X176.45Y189.95I-2.68J27.47
G1 X173.65 Y189.7
G1 X172.3 Y189.58
G1 X169.76 Y189.37
G1 X165.32 Y189.0
G1 X161.98 Y188.72
G1 X159.48 Y188.51
G1 X157.61 Y188.35
G1 X151.98 Y187.84
G1 X149.58 Y187.62
G1 X145.1 Y187.2
G1 X145.09
G1 X137.24 Y186.48
G1 X135.77 Y186.35
G1 X133.01 Y186.11
G1 X131.8 Y186.01
G1 X131.73 Y186.0
G1 X129.47 Y185.82
G1 X128.49 Y185.74
G1 X126.64 Y185.59
G1 X126.23 Y185.56
G1 X123.09 Y185.31
G1 X121.91 Y185.22
G1 X113.67 Y184.62
G3X112.74Y183.62I0.07J-1.0
G1 Y125.62
G3X113.07Y124.88I1.0J0.0
G1 F300.0 Z-3.0
F1500.0
G3X113.66Y124.62I0.67J0.74
G1 X118.45 Y124.24
G1 X122.64 Y123.9
G1 X124.48 Y123.75
G1 X127.92 Y123.46
G1 X139.95 Y122.43
G1 X145.96 Y121.89
G1 X148.97 Y121.62
G1 X149.73 Y121.55
G1 X150.29 Y121.5
G1 X151.14 Y121.43
G1 X151.98 Y121.35
G1 X154.69 Y121.12
G1 X157.06 Y120.92
G3X157.07I0.08J1.0
G1 X160.49 Y120.63
G1 X161.21 Y120.57 Z-2.52
G1 X161.99 Y120.51 Z-2.0
G1 X163.98 Y120.35
G1 X165.48 Y120.22 Z-3.0
G1 X167.44 Y120.06
G1 X168.99 Y119.94
G2X173.65Y119.54I-78.79J-953.92
G1 X174.9 Y119.43
G1 X177.24 Y119.22
G1 X181.34 Y118.84
G1 X184.42 Y118.56
G1 X186.72 Y118.36
G3X186.94Y118.34I1.6J16.93
G3X187.36Y118.3I2.19J22.7
G3X187.76Y118.27I2.06J21.47
G3X188.12Y118.24I1.94J20.38
G3X188.47Y118.21I1.84J19.4
G3X188.79Y118.18I1.74J18.5
G3X189.1Y118.15I1.65J17.69
G3X189.38Y118.13I1.57J16.93
G3X189.66Y118.11I1.49J16.24
G1 X191.65 Y117.94
G3X191.91Y117.92I1.29J14.57
G1 X193.66 Y117.79
G3X193.98Y117.77I1.32J15.57
G3X194.28Y117.74I1.31J15.7
G3X194.59Y117.72I1.31J15.83
G3X194.89Y117.7I1.31J15.97
G3X195.18Y117.68I1.3J16.1
G3X195.47Y117.66I1.3J16.24
G3X195.75Y117.64I1.3J16.38
G3X196.03Y117.62I1.3J16.52
G3X196.31Y117.6I1.29J16.65
G3X196.59Y117.58I1.29J16.79
G3X198.72Y117.44I22.03J314.77
G3X198.95Y117.42I1.3J18.2
G3X199.18Y117.41I1.29J18.36
G3X199.64Y117.38I1.89J25.98
G1 X206.66 Y116.96
G1 X210.17 Y116.75
G1 X211.92 Y116.65
G1 X213.68 Y116.54
G1 X214.92 Y116.46
G1 X217.27 Y116.31
G1 X219.32 Y116.17
G1 X226.49 Y115.68
G1 X230.08 Y115.44
G3X230.53Y115.41I2.41J33.05
G3X230.92Y115.38I2.18J30.16
G3X231.27Y115.36I1.98J27.66
G1 X233.67 Y115.2
G3X233.68I0.06J1.0
G1 X235.03 Y115.12
G1 X236.3 Y115.04
G1 X238.68 Y114.91
G1 X240.77 Y114.79
G1 X241.68 Y114.75
G3X248.53Y114.43I34.91J670.58
G1 X250.23 Y114.35
G3X250.24I0.04J1.0
G1 X251.52 Y114.3
G1 X252.48 Y114.27
G1 X253.92 Y114.21
G1 X253.93
G1 X254.02
G1 X254.1
G1 X255.37 Y114.16
G1 X255.97 Y114.14
G3X271.29Y113.76I27.53J803.23
G3X272.79Y113.74Z-2.0I12.21J803.61
G3X274.79Y113.72I10.71J803.63
G3X274.86Z-2.05I8.71J803.65
G1 X276.29 Y113.7 Z-3.0
G1 X277.22 Y113.69
G1 X279.28 Y113.67
G1 X281.09 Y113.66
G1 X281.88 Y113.65
G1 X284.84 Y113.64
G1 X284.98
G1 X287.17 Y113.63
G1 X290.45 Y113.62
G3X290.46I0.0J1.0
G1 X293.74
G3X294.74Y114.62I0.0J1.0
G1 Y152.2
G1 Y153.7 Z-2.0
G1 Y155.7
G1 Y157.2 Z-3.0
G1 Y194.62
G3X293.74Y195.62I-1.0J0.0
G1 X291.36
G3X291.27I-0.05J-1.71
G3X291.2I-0.03J-1.71
G3X291.13I-0.03J-1.71
G3X291.06I-0.03J-1.71
G3X290.97I-0.03J-1.7
G1 X288.77 Y195.61
G1 X288.76
G1 X287.72
G1 X285.7 Y195.6
G1 X283.81
G3X283.8I0.0J-1.0
G1 X282.03 Y195.59
G1 X280.36 Y195.57
G1 X279.6
G3X279.53I-0.03J-1.51
G3X279.47I-0.01J-1.51
G1 X276.47 Y195.54
G1 X273.84 Y195.51
G3X273.83I0.01J-1.0
G1 X271.53 Y195.48
G1 X271.32
G1 X269.82 Y195.45 Z-2.0
G1 X269.51
G3X269.28Y195.44I0.06J-10.0
G1 X267.82 Y195.42
G1 X266.32 Y195.39 Z-3.0
G1 X265.81 Y195.37
G1 X264.5 Y195.35
G3X255.37Y195.08I17.27J-742.46
G1 X252.66 Y194.98
G1 X250.28 Y194.89
G3X233.68Y194.03I29.51J-737.89
G1 X233.67
G1 X232.42 Y193.95
G1 X230.08 Y193.8
G1 X228.03 Y193.66
G3X228.02I0.07J-1.0
G1 X220.85 Y193.17
G1 X217.26 Y192.93
G3X217.25I0.07J-1.0
G2X216.82Y192.9I-2.27J31.06
G3X216.81I0.06J-1.0
G2X216.43Y192.88I-2.04J28.16
G3X216.41I0.06J-1.0
G2X216.08Y192.85I-1.84J25.66
G1 X213.67 Y192.7
G2X213.37Y192.68I-1.5J21.69
G3X213.36I0.06J-1.0
G2X213.06Y192.66I-1.52J22.14
G3X213.05I0.06J-1.0
G2X212.76Y192.64I-1.54J22.61
G3X212.75I0.06J-1.0
G2X212.46Y192.63I-1.56J23.11
G3X212.45Y192.62I0.05J-1.0
G2X212.17Y192.61I-1.58J23.64
G3X212.16I0.05J-1.0
G2X211.88Y192.59I-1.61J24.2
G3X211.87I0.05J-1.0
G2X211.59Y192.57I-1.64J24.81
G3X211.58I0.05J-1.0
G2X211.04Y192.54I-2.5J37.05
G3X211.02I0.05J-1.0
G2X210.49Y192.51I-2.61J39.25
G3X210.48I0.05J-1.0
G2X209.97Y192.48I-2.74J41.91
G3X209.96I0.05J-1.0
G2X209.46Y192.45I-2.92J45.23
G3X209.45I0.05J-1.0
G2X208.97Y192.42I-3.15J49.52
G3X208.96I0.05J-1.0
G2X208.49Y192.39I-3.48J55.43
G3X208.48I0.05J-1.0
G1 X201.08 Y191.95
G1 X199.22 Y191.83
G1 X197.83 Y191.74
G1 X196.79 Y191.67
G3X193.66Y191.45I35.02J-512.51
G1 X192.41 Y191.35
G1 X191.23 Y191.26
G1 X190.13 Y191.17
G1 X188.07 Y191.0
G1 X186.26 Y190.84
G1 X184.69 Y190.7
G3X184.68I0.09J-1.0
G1 X181.93 Y190.45
G1 X181.92
G1 X179.85 Y190.26
G2X179.08Y190.19I-7.82J81.19
G2X178.74Y190.16I-3.94J41.21
G2X178.43Y190.13I-3.43J35.79
G3X178.41I0.09J-1.0
G2X177.83Y190.07I-4.29J43.83
G3X177.82I0.08J-1.0
G2X177.31Y190.03I-3.57J36.47
G3X177.3Y190.02I0.08J-1.0
G2X176.85Y189.98I-3.07J31.34
G3X176.84I0.08J-1.0
G2X176.45Y189.95I-2.68J27.47
G1 X173.65 Y189.7
G1 X172.3 Y189.58
G1 X169.76 Y189.37
G1 X165.32 Y189.0
G1 X164.3 Y188.91
G1 X162.81 Y188.79 Z-2.0
G1 X161.98 Y188.72
G1 X160.81 Y188.62
G1 X159.48 Y188.51 Z-2.89
G1 X159.32 Y188.5 Z-3.0
G1 X157.61 Y188.35
G1 X151.98 Y187.84
G1 X149.58 Y187.62
G1 X145.1 Y187.2
G1 X145.09
G1 X137.24 Y186.48
G1 X135.77 Y186.35
G1 X133.01 Y186.11
G1 X131.8 Y186.01
G1 X131.73 Y186.0
G1 X129.47 Y185.82
G1 X128.49 Y185.74
G1 X126.64 Y185.59
G1 X126.23 Y185.56
G1 X123.09 Y185.31
G1 X121.91 Y185.22
G1 X113.67 Y184.62
G3X112.74Y183.62I0.07J-1.0
G1 Y158.2
G1 Y156.7 Z-2.0
G1 Y154.7
G1 Y153.2 Z-3.0
G1 Y125.62
G3X113.07Y124.88I1.0J0.0
G1 F300.0 Z-4.0
F1500.0
G3X113.66Y124.62I0.67J0.74
G1 X118.45 Y124.24
G1 X122.64 Y123.9
G1 X124.48 Y123.75
G1 X127.92 Y123.46
G1 X139.95 Y122.43
G1 X145.96 Y121.89
G1 X148.97 Y121.62
G1 X149.73 Y121.55
G1 X150.29 Y121.5
G1 X151.14 Y121.43
G1 X151.98 Y121.35
G1 X154.69 Y121.12
G1 X157.06 Y120.92
G3X157.07I0.08J1.0
G1 X160.49 Y120.63
G1 X161.21 Y120.57 Z-3.04
G1 X161.99 Y120.51 Z-2.0
G1 X163.98 Y120.35
G1 X165.48 Y120.22 Z-4.0
G1 X167.44 Y120.06
G1 X168.99 Y119.94
G2X173.65Y119.54I-78.79J-953.92
G1 X174.9 Y119.43
G1 X177.24 Y119.22
G1 X181.34 Y118.84
G1 X184.42 Y118.56
G1 X186.72 Y118.36
G3X186.94Y118.34I1.6J16.93
G3X187.36Y118.3I2.19J22.7
G3X187.76Y118.27I2.06J21.47
G3X188.12Y118.24I1.94J20.38
G3X188.47Y118.21I1.84J19.4
G3X188.79Y118.18I1.74J18.5
G3X189.1Y118.15I1.65J17.69
G3X189.38Y118.13I1.57J16.93
G3X189.66Y118.11I1.49J16.24
G1 X191.65 Y117.94
G3X191.91Y117.92I1.29J14.57
G1 X193.66 Y117.79
G3X193.98Y117.77I1.32J15.57
G3X194.28Y117.74I1.31J15.7
G3X194.59Y117.72I1.31J15.83
G3X194.89Y117.7I1.31J15.97
G3X195.18Y117.68I1.3J16.1
G3X195.47Y117.66I1.3J16.24
G3X195.75Y117.64I1.3J16.38
G3X196.03Y117.62I1.3J16.52
G3X196.31Y117.6I1.29J16.65
G3X196.59Y117.58I1.29J16.79
G3X198.72Y117.44I22.03J314.77
G3X198.95Y117.42I1.3J18.2
G3X199.18Y117.41I1.29J18.36
G3X199.64Y117.38I1.89J25.98
G1 X206.66 Y116.96
G1 X210.17 Y116.75
G1 X211.92 Y116.65
G1 X213.68 Y116.54
G1 X214.92 Y116.46
G1 X217.27 Y116.31
G1 X219.32 Y116.17
G1 X226.49 Y115.68
G1 X230.08 Y115.44
G3X230.53Y115.41I2.41J33.05
G3X230.92Y115.38I2.18J30.16
G3X231.27Y115.36I1.98J27.66
G1 X233.67 Y115.2
G3X233.68I0.06J1.0
G1 X235.03 Y115.12
G1 X236.3 Y115.04
G1 X238.68 Y114.91
G1 X240.77 Y114.79
G1 X241.68 Y114.75
G3X248.53Y114.43I34.91J670.58
G1 X250.23 Y114.35
G3X250.24I0.04J1.0
G1 X251.52 Y114.3
G1 X252.48 Y114.27
G1 X253.92 Y114.21
G1 X253.93
G1 X254.02
G1 X254.1
G1 X255.37 Y114.16
G1 X255.97 Y114.14
G3X271.29Y113.76I27.53J803.23
G3X272.79Y113.74Z-2.0I12.21J803.61
G3X274.79Y113.72I10.71J803.63
G3X274.86Z-2.09I8.71J803.65
G1 X276.29 Y113.7 Z-4.0
G1 X277.22 Y113.69
G1 X279.28 Y113.67
G1 X281.09 Y113.66
G1 X281.88 Y113.65
G1 X284.84 Y113.64
G1 X284.98
G1 X287.17 Y113.63
G1 X290.45 Y113.62
G3X290.46I0.0J1.0
G1 X293.74
G3X294.74Y114.62I0.0J1.0
G1 Y152.2
G1 Y153.7 Z-2.0
G1 Y155.7
G1 Y157.2 Z-4.0
G1 Y194.62
G3X293.74Y195.62I-1.0J0.0
G1 X291.36
G3X291.27I-0.05J-1.71
G3X291.2I-0.03J-1.71
G3X291.13I-0.03J-1.71
G3X291.06I-0.03J-1.71
G3X290.97I-0.03J-1.7
G1 X288.77 Y195.61
G1 X288.76
G1 X287.72
G1 X285.7 Y195.6
G1 X283.81
G3X283.8I0.0J-1.0
G1 X282.03 Y195.59
G1 X280.36 Y195.57
G1 X279.6
G3X279.53I-0.03J-1.51
G3X279.47I-0.01J-1.51
G1 X276.47 Y195.54
G1 X273.84 Y195.51
G3X273.83I0.01J-1.0
G1 X271.53 Y195.48
G1 X271.32
G1 X269.82 Y195.45 Z-2.0
G1 X269.51
G3X269.28Y195.44I0.06J-10.0
G1 X267.82 Y195.42
G1 X266.32 Y195.39 Z-4.0
G1 X265.81 Y195.37
G1 X264.5 Y195.35
G3X255.37Y195.08I17.27J-742.46
G1 X252.66 Y194.98
G1 X250.28 Y194.89
G3X233.68Y194.03I29.51J-737.89
G1 X233.67
G1 X232.42 Y193.95
G1 X230.08 Y193.8
G1 X228.03 Y193.66
G3X228.02I0.07J-1.0
G1 X220.85 Y193.17
G1 X217.26 Y192.93
G3X217.25I0.07J-1.0
G2X216.82Y192.9I-2.27J31.06
G3X216.81I0.06J-1.0
G2X216.43Y192.88I-2.04J28.16
G3X216.41I0.06J-1.0
G2X216.08Y192.85I-1.84J25.66
G1 X213.67 Y192.7
G2X213.37Y192.68I-1.5J21.69
G3X213.36I0.06J-1.0
G2X213.06Y192.66I-1.52J22.14
G3X213.05I0.06J-1.0
G2X212.76Y192.64I-1.54J22.61
G3X212.75I0.06J-1.0
G2X212.46Y192.63I-1.56J23.11
G3X212.45Y192.62I0.05J-1.0
G2X212.17Y192.61I-1.58J23.64
G3X212.16I0.05J-1.0
G2X211.88Y192.59I-1.61J24.2
G3X211.87I0.05J-1.0
G2X211.59Y192.57I-1.64J24.81
G3X211.58I0.05J-1.0
G2X211.04Y192.54I-2.5J37.05
G3X211.02I0.05J-1.0
G2X210.49Y192.51I-2.61J39.25
G3X210.48I0.05J-1.0
G2X209.97Y192.48I-2.74J41.91
G3X209.96I0.05J-1.0
G2X209.46Y192.45I-2.92J45.23
G3X209.45I0.05J-1.0
G2X208.97Y192.42I-3.15J49.52
G3X208.96I0.05J-1.0
G2X208.49Y192.39I-3.48J55.43
G3X208.48I0.05J-1.0
G1 X201.08 Y191.95
G1 X199.22 Y191.83
G1 X197.83 Y191.74
G1 X196.79 Y191.67
G3X193.66Y191.45I35.02J-512.51
G1 X192.41 Y191.35
G1 X191.23 Y191.26
G1 X190.13 Y191.17
G1 X188.07 Y191.0
G1 X186.26 Y190.84
G1 X184.69 Y190.7
G3X184.68I0.09J-1.0
G1 X181.93 Y190.45
G1 X181.92
G1 X179.85 Y190.26
G2X179.08Y190.19I-7.82J81.19
G2X178.74Y190.16I-3.94J41.21
G2X178.43Y190.13I-3.43J35.79
G3X178.41I0.09J-1.0
G2X177.83Y190.07I-4.29J43.83
G3X177.82I0.08J-1.0
G2X177.31Y190.03I-3.57J36.47
G3X177.3Y190.02I0.08J-1.0
G2X176.85Y189.98I-3.07J31.34
G3X176.84I0.08J-1.0
G2X176.45Y189.95I-2.68J27.47
G1 X173.65 Y189.7
G1 X172.3 Y189.58
G1 X169.76 Y189.37
G1 X165.32 Y189.0
G1 X164.3 Y188.91
G1 X162.81 Y188.79 Z-2.0
G1 X161.98 Y188.72
G1 X160.81 Y188.62
G1 X159.48 Y188.51 Z-3.78
G1 X159.32 Y188.5 Z-4.0
G1 X157.61 Y188.35
G1 X151.98 Y187.84
G1 X149.58 Y187.62
G1 X145.1 Y187.2
G1 X145.09
G1 X137.24 Y186.48
G1 X135.77 Y186.35
G1 X133.01 Y186.11
G1 X131.8 Y186.01
G1 X131.73 Y186.0
G1 X129.47 Y185.82
G1 X128.49 Y185.74
G1 X126.64 Y185.59
G1 X126.23 Y185.56
G1 X123.09 Y185.31
G1 X121.91 Y185.22
G1 X113.67 Y184.62
G3X112.74Y183.62I0.07J-1.0
G1 Y158.2
G1 Y156.7 Z-2.0
G1 Y154.7
G1 Y153.2 Z-4.0
G1 Y125.62
G3X113.07Y124.88I1.0J0.0
G1 F300.0 Z-5.0
F1500.0
G3X113.66Y124.62I0.67J0.74
G1 X118.45 Y124.24
G1 X122.64 Y123.9
G1 X124.48 Y123.75
G1 X127.92 Y123.46
G1 X139.95 Y122.43
G1 X145.96 Y121.89
G1 X148.97 Y121.62
G1 X149.73 Y121.55
G1 X150.29 Y121.5
G1 X151.14 Y121.43
G1 X151.98 Y121.35
G1 X154.69 Y121.12
G1 X157.06 Y120.92
G3X157.07I0.08J1.0
G1 X160.49 Y120.63
G1 X161.21 Y120.57 Z-3.56
G3Z-3.55I0.08J1.0
G1 X161.99 Y120.51 Z-2.0
G1 X163.98 Y120.35
G1 X165.48 Y120.22 Z-5.0
G1 X167.44 Y120.06
G1 X168.99 Y119.94
G2X173.65Y119.54I-78.79J-953.92
G1 X174.9 Y119.43
G1 X177.24 Y119.22
G1 X181.34 Y118.84
G1 X184.42 Y118.56
G1 X186.72 Y118.36
G3X186.94Y118.34I1.6J16.93
G3X187.36Y118.3I2.19J22.7
G3X187.76Y118.27I2.06J21.47
G3X188.12Y118.24I1.94J20.38
G3X188.47Y118.21I1.84J19.4
G3X188.79Y118.18I1.74J18.5
G3X189.1Y118.15I1.65J17.69
G3X189.38Y118.13I1.57J16.93
G3X189.66Y118.11I1.49J16.24
G1 X191.65 Y117.94
G3X191.91Y117.92I1.29J14.57
G1 X193.66 Y117.79
G3X193.98Y117.77I1.32J15.57
G3X194.28Y117.74I1.31J15.7
G3X194.59Y117.72I1.31J15.83
G3X194.89Y117.7I1.31J15.97
G3X195.18Y117.68I1.3J16.1
G3X195.47Y117.66I1.3J16.24
G3X195.75Y117.64I1.3J16.38
G3X196.03Y117.62I1.3J16.52
G3X196.31Y117.6I1.29J16.65
G3X196.59Y117.58I1.29J16.79
G3X198.72Y117.44I22.03J314.77
G3X198.95Y117.42I1.3J18.2
G3X199.18Y117.41I1.29J18.36
G3X199.64Y117.38I1.89J25.98
G1 X206.66 Y116.96
G1 X210.17 Y116.75
G1 X211.92 Y116.65
G1 X213.68 Y116.54
G1 X214.92 Y116.46
G1 X217.27 Y116.31
G1 X219.32 Y116.17
G1 X226.49 Y115.68
G1 X230.08 Y115.44
G3X230.53Y115.41I2.41J33.05
G3X230.92Y115.38I2.18J30.16
G3X231.27Y115.36I1.98J27.66
G1 X233.67 Y115.2
G3X233.68I0.06J1.0
G1 X235.03 Y115.12
G1 X236.3 Y115.04
G1 X238.68 Y114.91
G1 X240.77 Y114.79
G1 X241.68 Y114.75
G3X248.53Y114.43I34.91J670.58
G1 X250.23 Y114.35
G3X250.24I0.04J1.0
G1 X251.52 Y114.3
G1 X252.48 Y114.27
G1 X253.92 Y114.21
G1 X253.93
G1 X254.02
G1 X254.1
G1 X255.37 Y114.16
G1 X255.97 Y114.14
G3X271.29Y113.76I27.53J803.23
G3X272.79Y113.74Z-2.0I12.21J803.61
G3X274.79Y113.72I10.71J803.63
G3X274.86Z-2.14I8.71J803.65
G1 X276.29 Y113.7 Z-5.0
G1 X277.22 Y113.69
G1 X279.28 Y113.67
G1 X281.09 Y113.66
G1 X281.88 Y113.65
G1 X284.84 Y113.64
G1 X284.98
G1 X287.17 Y113.63
G1 X290.45 Y113.62
G3X290.46I0.0J1.0
G1 X293.74
G3X294.74Y114.62I0.0J1.0
G1 Y152.2
G1 Y153.7 Z-2.0
G1 Y155.7
G1 Y157.2 Z-5.0
G1 Y194.62
G3X293.74Y195.62I-1.0J0.0
G1 X291.36
G3X291.27I-0.05J-1.71
G3X291.2I-0.03J-1.71
G3X291.13I-0.03J-1.71
G3X291.06I-0.03J-1.71
G3X290.97I-0.03J-1.7
G1 X288.77 Y195.61
G1 X288.76
G1 X287.72
G1 X285.7 Y195.6
G1 X283.81
G3X283.8I0.0J-1.0
G1 X282.03 Y195.59
G1 X280.36 Y195.57
G1 X279.6
G3X279.53I-0.03J-1.51
G3X279.47I-0.01J-1.51
G1 X276.47 Y195.54
G1 X273.84 Y195.51
G3X273.83I0.01J-1.0
G1 X271.53 Y195.48
G1 X271.32
G1 X269.82 Y195.45 Z-2.0
G1 X269.51
G3X269.28Y195.44I0.06J-10.0
G1 X267.82 Y195.42
G1 X266.32 Y195.39 Z-5.0
G1 X265.81 Y195.37
G1 X264.5 Y195.35
G3X255.37Y195.08I17.27J-742.46
G1 X252.66 Y194.98
G1 X250.28 Y194.89
G3X233.68Y194.03I29.51J-737.89
G1 X233.67
G1 X232.42 Y193.95
G1 X230.08 Y193.8
G1 X228.03 Y193.66
G3X228.02I0.07J-1.0
G1 X220.85 Y193.17
G1 X217.26 Y192.93
G3X217.25I0.07J-1.0
G2X216.82Y192.9I-2.27J31.06
G3X216.81I0.06J-1.0
G2X216.43Y192.88I-2.04J28.16
G3X216.41I0.06J-1.0
G2X216.08Y192.85I-1.84J25.66
G1 X213.67 Y192.7
G2X213.37Y192.68I-1.5J21.69
G3X213.36I0.06J-1.0
G2X213.06Y192.66I-1.52J22.14
G3X213.05I0.06J-1.0
G2X212.76Y192.64I-1.54J22.61
G3X212.75I0.06J-1.0
G2X212.46Y192.63I-1.56J23.11
G3X212.45Y192.62I0.05J-1.0
G2X212.17Y192.61I-1.58J23.64
G3X212.16I0.05J-1.0
G2X211.88Y192.59I-1.61J24.2
G3X211.87I0.05J-1.0
G2X211.59Y192.57I-1.64J24.81
G3X211.58I0.05J-1.0
G2X211.04Y192.54I-2.5J37.05
G3X211.02I0.05J-1.0
G2X210.49Y192.51I-2.61J39.25
G3X210.48I0.05J-1.0
G2X209.97Y192.48I-2.74J41.91
G3X209.96I0.05J-1.0
G2X209.46Y192.45I-2.92J45.23
G3X209.45I0.05J-1.0
G2X208.97Y192.42I-3.15J49.52
G3X208.96I0.05J-1.0
G2X208.49Y192.39I-3.48J55.43
G3X208.48I0.05J-1.0
G1 X201.08 Y191.95
G1 X199.22 Y191.83
G1 X197.83 Y191.74
G1 X196.79 Y191.67
G3X193.66Y191.45I35.02J-512.51
G1 X192.41 Y191.35
G1 X191.23 Y191.26
G1 X190.13 Y191.17
G1 X188.07 Y191.0
G1 X186.26 Y190.84
G1 X184.69 Y190.7
G3X184.68I0.09J-1.0
G1 X181.93 Y190.45
G1 X181.92
G1 X179.85 Y190.26
G2X179.08Y190.19I-7.82J81.19
G2X178.74Y190.16I-3.94J41.21
G2X178.43Y190.13I-3.43J35.79
G3X178.41I0.09J-1.0
G2X177.83Y190.07I-4.29J43.83
G3X177.82I0.08J-1.0
G2X177.31Y190.03I-3.57J36.47
G3X177.3Y190.02I0.08J-1.0
G2X176.85Y189.98I-3.07J31.34
G3X176.84I0.08J-1.0
G2X176.45Y189.95I-2.68J27.47
G1 X173.65 Y189.7
G1 X172.3 Y189.58
G1 X169.76 Y189.37
G1 X165.32 Y189.0
G1 X164.3 Y188.91
G1 X162.81 Y188.79 Z-2.0
G1 X161.98 Y188.72
G1 X160.81 Y188.62
G1 X159.48 Y188.51 Z-4.67
G3Z-4.68I0.08J-1.0
G1 X159.32 Y188.5 Z-5.0
G1 X157.61 Y188.35
G1 X151.98 Y187.84
G1 X149.58 Y187.62
G1 X145.1 Y187.2
G1 X145.09
G1 X137.24 Y186.48
G1 X135.77 Y186.35
G1 X133.01 Y186.11
G1 X131.8 Y186.01
G1 X131.73 Y186.0
G1 X129.47 Y185.82
G1 X128.49 Y185.74
G1 X126.64 Y185.59
G1 X126.23 Y185.56
G1 X123.09 Y185.31
G1 X121.91 Y185.22
G1 X113.67 Y184.62
G3X112.74Y183.62I0.07J-1.0
G1 Y158.2
G1 Y156.7 Z-2.0
G1 Y154.7
G1 Y153.2 Z-5.0
G1 Y125.62
G3X113.07Y124.88I1.0J0.0
( Contour1 )
S1000
G0 Z3.0
G0 X88.52 Y130.83
G0 Z1.0
G1 F300.0 Z-1.0
G1 F1500.0 Y131.83
G1 X103.52
G1 Y130.83
G1 X88.52
G1 F300.0 Z-2.0
G1 F1500.0 Y131.83
G1 X103.52
G1 Y130.83
G1 X88.52
G1 F300.0 Z-3.0
G1 F1500.0 Y131.83
G1 X103.52
G1 Y130.83
G1 X88.52
G1 F300.0 Z-4.0
G1 F1500.0 Y131.83
G1 X103.52
G1 Y130.83
G1 X88.52
G1 F300.0 Z-5.0
G1 F1500.0 Y131.83
G1 X103.52
G1 Y130.83
G1 X88.52
( Contour2 )
S1000
G0 Z3.0
G0 X82.97 Y125.79
G0 Z1.0
G1 F300.0 Z-1.0
F1500.0
G3X83.52Y125.63I0.55J0.83
G1 X108.52
G3X109.52Y126.63I0.0J1.0
G1 Y143.63
G3X108.36Y144.62I-1.0J0.0
G1 X83.36 Y140.62
G3X82.52Y139.63I0.16J-0.99
G1 Y126.63
G3X82.97Y125.79I1.0J0.0
G1 F300.0 Z-2.0
F1500.0
G3X83.52Y125.63I0.55J0.83
G1 X108.52
G3X109.52Y126.63I0.0J1.0
G1 Y143.63
G3X108.36Y144.62I-1.0J0.0
G1 X83.36 Y140.62
G3X82.52Y139.63I0.16J-0.99
G1 Y126.63
G3X82.97Y125.79I1.0J0.0
G1 F300.0 Z-3.0
F1500.0
G3X83.52Y125.63I0.55J0.83
G1 X94.31
G1 X94.41 Z-2.94
G1 X95.81 Z-2.0
G1 X95.91
G1 X97.81
G1 X97.91
G1 X99.31 Z-2.94
G1 X99.41 Z-3.0
G1 X108.52
G3X109.52Y126.63I0.0J1.0
G1 Y143.63
G3X108.36Y144.62I-1.0J0.0
G1 X99.11 Y143.14
G1 X97.63 Y142.9 Z-2.0
G1 X95.66 Y142.58
G1 X94.18 Y142.35 Z-3.0
G1 X83.36 Y140.62
G3X82.52Y139.63I0.16J-0.99
G1 Y126.63
G3X82.97Y125.79I1.0J0.0
G1 F300.0 Z-4.0
F1500.0
G3X83.52Y125.63I0.55J0.83
G1 X94.31
G1 X94.41 Z-3.87
G1 X95.81 Z-2.0
G1 X95.91
G1 X97.81
G1 X97.91
G1 X99.31 Z-3.87
G1 X99.41 Z-4.0
G1 X108.52
G3X109.52Y126.63I0.0J1.0
G1 Y143.63
G3X108.36Y144.62I-1.0J0.0
G1 X99.11 Y143.14
G1 X97.63 Y142.9 Z-2.0
G1 X95.66 Y142.58
G1 X94.18 Y142.35 Z-4.0
G1 X83.36 Y140.62
G3X82.52Y139.63I0.16J-0.99
G1 Y126.63
G3X82.97Y125.79I1.0J0.0
G1 F300.0 Z-5.0
F1500.0
G3X83.52Y125.63I0.55J0.83
G1 X94.31
G1 X94.41 Z-4.81
G1 X95.81 Z-2.0
G1 X95.91
G1 X97.81
G1 X97.91
G1 X99.31 Z-4.81
G1 X99.41 Z-5.0
G1 X108.52
G3X109.52Y126.63I0.0J1.0
G1 Y143.63
G3X108.36Y144.62I-1.0J0.0
G1 X99.11 Y143.14
G1 X97.63 Y142.9 Z-2.0
G1 X95.66 Y142.58
G1 X94.18 Y142.35 Z-5.0
G1 X83.36 Y140.62
G3X82.52Y139.63I0.16J-0.99
G1 Y126.63
G3X82.97Y125.79I1.0J0.0
( Contour3 )
S1000
G0 Z3.0
G0 X88.53 Y154.65
G0 Z1.0
G1 F300.0 Z-1.0
G1 F1500.0 Y155.65
G1 X103.53
G1 Y154.65
G1 X88.53
G1 F300.0 Z-2.0
G1 F1500.0 Y155.65
G1 X103.53
G1 Y154.65
G1 X88.53
G1 F300.0 Z-3.0
G1 F1500.0 Y155.65
G1 X103.53
G1 Y154.65
G1 X88.53
G1 F300.0 Z-4.0
G1 F1500.0 Y155.65
G1 X103.53
G1 Y154.65
G1 X88.53
G1 F300.0 Z-5.0
G1 F1500.0 Y155.65
G1 X103.53
G1 Y154.65
G1 X88.53
( Contour4 )
S1000
G0 Z3.0
G0 X83.02 Y141.98
G0 Z1.0
G1 F300.0 Z-1.0
F1500.0
G3X83.68Y141.86I0.5J0.86
G1 X108.68 Y145.86
G3X109.53Y146.85I-0.16J0.99
G1 Y159.85
G3X108.53Y160.85I-1.0J0.0
G1 X83.53
G3X82.53Y159.85I0.0J-1.0
G1 Y142.85
G3X83.02Y141.98I1.0J0.0
G1 F300.0 Z-2.0
F1500.0
G3X83.68Y141.86I0.5J0.86
G1 X108.68 Y145.86
G3X109.53Y146.85I-0.16J0.99
G1 Y159.85
G3X108.53Y160.85I-1.0J0.0
G1 X83.53
G3X82.53Y159.85I0.0J-1.0
G1 Y142.85
G3X83.02Y141.98I1.0J0.0
G1 F300.0 Z-3.0
F1500.0
G3X83.68Y141.86I0.5J0.86
G1 X93.8 Y143.48
G1 X95.28 Y143.72 Z-2.0
G1 X97.25 Y144.03
G1 X98.73 Y144.27 Z-3.0
G1 X108.68 Y145.86
G3X109.53Y146.85I-0.16J0.99
G1 Y159.85
G3X108.53Y160.85I-1.0J0.0
G1 X98.31
G1 X96.81 Z-2.0
G1 X94.81
G1 X93.31 Z-3.0
G1 X83.53
G3X82.53Y159.85I0.0J-1.0
G1 Y142.85
G3X83.02Y141.98I1.0J0.0
G1 F300.0 Z-4.0
F1500.0
G3X83.68Y141.86I0.5J0.86
G1 X93.8 Y143.48
G1 X95.28 Y143.72 Z-2.0
G1 X97.25 Y144.03
G1 X98.73 Y144.27 Z-4.0
G1 X108.68 Y145.86
G3X109.53Y146.85I-0.16J0.99
G1 Y159.85
G3X108.53Y160.85I-1.0J0.0
G1 X98.31
G1 X96.81 Z-2.0
G1 X94.81
G1 X93.31 Z-4.0
G1 X83.53
G3X82.53Y159.85I0.0J-1.0
G1 Y142.85
G3X83.02Y141.98I1.0J0.0
G1 F300.0 Z-5.0
F1500.0
G3X83.68Y141.86I0.5J0.86
G1 X93.8 Y143.48
G1 X95.28 Y143.72 Z-2.0
G1 X97.25 Y144.03
G1 X98.73 Y144.27 Z-5.0
G1 X108.68 Y145.86
G3X109.53Y146.85I-0.16J0.99
G1 Y159.85
G3X108.53Y160.85I-1.0J0.0
G1 X98.31
G1 X96.81 Z-2.0
G1 X94.81
G1 X93.31 Z-5.0
G1 X83.53
G3X82.53Y159.85I0.0J-1.0
G1 Y142.85
G3X83.02Y141.98I1.0J0.0
( Contour5 )
S1000
G0 Z3.0
G0 X88.19 Y167.88
G0 Z1.0
G1 F300.0 Z-1.0
G1 F1500.0 Y168.88
G1 X103.19
G1 Y167.88
G1 X88.19
G1 F300.0 Z-2.0
G1 F1500.0 Y168.88
G1 X103.19
G1 Y167.88
G1 X88.19
G1 F300.0 Z-3.0
G1 F1500.0 Y168.88
G1 X103.19
G1 Y167.88
G1 X88.19
G1 F300.0 Z-4.0
G1 F1500.0 Y168.88
G1 X103.19
G1 Y167.88
G1 X88.19
G1 F300.0 Z-5.0
G1 F1500.0 Y168.88
G1 X103.19
G1 Y167.88
G1 X88.19
( Contour6 )
S1000
G0 Z3.0
G0 X82.74 Y162.79
G0 Z1.0
G1 F300.0 Z-1.0
F1500.0
