( Made using CamBam - http://www.cambam.co.uk )
( SupportAile 4/18/2020 12:13:16 PM )
( T0 : 2.0 )
G21 G90 G64 G40
G0 Z3.0
( T0 : 2.0 )
T0 M6
( Contour1 )
G17
M3 S1000
G0 X72.6303 Y82.9736
G0 Z1.0
G1 F20.0 Z-1.0
G1 F150.0 X73.0391 Y77.25
G1 X25.1871
G1 X30.0442 Y145.25
G1 X68.182
G1 X72.6303 Y82.9736
G1 F20.0 Z-2.0
G1 F150.0 X73.0391 Y77.25
G1 X25.1871
G1 X30.0442 Y145.25
G1 X68.182
G1 X72.6303 Y82.9736
G1 F20.0 Z-3.0
G1 F150.0 X73.0391 Y77.25
G1 X51.5
G1 X50.0 Z-2.0
G1 X48.0
G1 X46.5 Z-3.0
G1 X25.1871
G1 X26.0562 Y89.4182
G1 X26.1631 Y90.9144 Z-2.0
G1 X26.3056 Y92.9093
G1 X26.4125 Y94.4055 Z-3.0
G1 X28.9852 Y130.4233
G1 X29.092 Y131.9194 Z-2.0
G1 X29.2345 Y133.9144
G1 X29.3414 Y135.4106 Z-3.0
G1 X30.0442 Y145.25
G1 X45.5
G1 X47.0 Z-2.0
G1 X49.0
G1 X50.5 Z-3.0
G1 X68.182
G1 X68.8684 Y135.6398
G1 X68.9753 Y134.1436 Z-2.0
G1 X69.1178 Y132.1487
G1 X69.2247 Y130.6525 Z-3.0
G1 X71.8075 Y94.4926
G1 X71.9144 Y92.9964 Z-2.0
G1 X72.0569 Y91.0015
G1 X72.1637 Y89.5053 Z-3.0
G1 X72.6303 Y82.9736
G1 F20.0 Z-4.0
G1 F150.0 X73.0391 Y77.25
G1 X51.5
G1 X50.0 Z-2.0
G1 X48.0
G1 X46.5 Z-4.0
G1 X25.1871
G1 X26.0562 Y89.4182
G1 X26.1631 Y90.9144 Z-2.0
G1 X26.3056 Y92.9093
G1 X26.4125 Y94.4055 Z-4.0
G1 X28.9852 Y130.4233
G1 X29.092 Y131.9194 Z-2.0
G1 X29.2345 Y133.9144
G1 X29.3414 Y135.4106 Z-4.0
G1 X30.0442 Y145.25
G1 X45.5
G1 X47.0 Z-2.0
G1 X49.0
G1 X50.5 Z-4.0
G1 X68.182
G1 X68.8684 Y135.6398
G1 X68.9753 Y134.1436 Z-2.0
G1 X69.1178 Y132.1487
G1 X69.2247 Y130.6525 Z-4.0
G1 X71.8075 Y94.4926
G1 X71.9144 Y92.9964 Z-2.0
G1 X72.0569 Y91.0015
G1 X72.1637 Y89.5053 Z-4.0
G1 X72.6303 Y82.9736
G1 F20.0 Z-5.0
G1 F150.0 X73.0391 Y77.25
G1 X51.5
G1 X50.0 Z-2.0
G1 X48.0
G1 X46.5 Z-5.0
G1 X25.1871
G1 X26.0562 Y89.4182
G1 X26.1631 Y90.9144 Z-2.0
G1 X26.3056 Y92.9093
G1 X26.4125 Y94.4055 Z-5.0
G1 X28.9852 Y130.4233
G1 X29.092 Y131.9194 Z-2.0
G1 X29.2345 Y133.9144
G1 X29.3414 Y135.4106 Z-5.0
G1 X30.0442 Y145.25
G1 X45.5
G1 X47.0 Z-2.0
G1 X49.0
G1 X50.5 Z-5.0
G1 X68.182
G1 X68.8684 Y135.6398
G1 X68.9753 Y134.1436 Z-2.0
G1 X69.1178 Y132.1487
G1 X69.2247 Y130.6525 Z-5.0
G1 X71.8075 Y94.4926
G1 X71.9144 Y92.9964 Z-2.0
G1 X72.0569 Y91.0015
G1 X72.1637 Y89.5053 Z-5.0
G1 X72.6303 Y82.9736
G0 F200
( Contour2 )
S1000
G0 Z3.0
G0 X109.3314 Y80.0237
G0 Z1.0
G1 F20.0 Z-1.0
G1 F150.0 X106.074 Y125.628
G1 X153.926
G1 X149.0689 Y57.628
G1 X110.9311
G1 X109.3314 Y80.0237
G1 F20.0 Z-2.0
G1 F150.0 X106.074 Y125.628
G1 X153.926
G1 X149.0689 Y57.628
G1 X110.9311
G1 X109.3314 Y80.0237
G1 F20.0 Z-3.0
G1 F150.0 X107.007 Y112.5656
G1 X106.9001 Y114.0617 Z-2.0
G1 X106.7576 Y116.0567
G1 X106.6508 Y117.5529 Z-3.0
G1 X106.074 Y125.628
G1 X127.5
G1 X129.0 Z-2.0
G1 X131.0
G1 X132.5 Z-3.0
G1 X153.926
G1 X153.3442 Y117.4818
G1 X153.2373 Y115.9856 Z-2.0
G1 X153.0948 Y113.9907
G1 X152.9879 Y112.4945 Z-3.0
G1 X150.065 Y71.5732
G1 X149.9581 Y70.077 Z-2.0
G1 X149.8156 Y68.0821
G1 X149.7087 Y66.5859 Z-3.0
G1 X149.0689 Y57.628
G1 X134.5
G1 X133.0 Z-2.0
G1 X131.0
G1 X129.5 Z-3.0
G1 X110.9311
G1 X110.2202 Y67.5808
G1 X110.1133 Y69.077 Z-2.0
G1 X109.9708 Y71.0719
G1 X109.864 Y72.5681 Z-3.0
G1 X109.3314 Y80.0237
G1 F20.0 Z-4.0
G1 F150.0 X107.007 Y112.5656
G1 X106.9001 Y114.0617 Z-2.0
G1 X106.7576 Y116.0567
G1 X106.6508 Y117.5529 Z-4.0
G1 X106.074 Y125.628
G1 X127.5
G1 X129.0 Z-2.0
G1 X131.0
G1 X132.5 Z-4.0
G1 X153.926
G1 X153.3442 Y117.4818
G1 X153.2373 Y115.9856 Z-2.0
G1 X153.0948 Y113.9907
G1 X152.9879 Y112.4945 Z-4.0
G1 X150.065 Y71.5732
G1 X149.9581 Y70.077 Z-2.0
G1 X149.8156 Y68.0821
G1 X149.7087 Y66.5859 Z-4.0
G1 X149.0689 Y57.628
G1 X134.5
G1 X133.0 Z-2.0
G1 X131.0
G1 X129.5 Z-4.0
G1 X110.9311
G1 X110.2202 Y67.5808
G1 X110.1133 Y69.077 Z-2.0
G1 X109.9708 Y71.0719
G1 X109.864 Y72.5681 Z-4.0
G1 X109.3314 Y80.0237
G1 F20.0 Z-5.0
G1 F150.0 X107.007 Y112.5656
G1 X106.9001 Y114.0617 Z-2.0
G1 X106.7576 Y116.0567
G1 X106.6508 Y117.5529 Z-5.0
G1 X106.074 Y125.628
G1 X127.5
G1 X129.0 Z-2.0
G1 X131.0
G1 X132.5 Z-5.0
G1 X153.926
G1 X153.3442 Y117.4818
G1 X153.2373 Y115.9856 Z-2.0
G1 X153.0948 Y113.9907
G1 X152.9879 Y112.4945 Z-5.0
G1 X150.065 Y71.5732
G1 X149.9581 Y70.077 Z-2.0
G1 X149.8156 Y68.0821
G1 X149.7087 Y66.5859 Z-5.0
G1 X149.0689 Y57.628
G1 X134.5
G1 X133.0 Z-2.0
G1 X131.0
G1 X129.5 Z-5.0
G1 X110.9311
G1 X110.2202 Y67.5808
G1 X110.1133 Y69.077 Z-2.0
G1 X109.9708 Y71.0719
G1 X109.864 Y72.5681 Z-5.0
G1 X109.3314 Y80.0237
G0 F200
( Contour3 )
S1000
G0 Z3.0
G0 X87.194 Y91.3191
G0 Z1.0
G1 F20.0 Z-1.0
G2 F150.0 X87.1754 Y91.6178 I21.689 J1.5014
G3 X87.1746 Y91.631 I-0.9985 J-0.0553
G2 X87.1564 Y91.9254 I22.1362 J1.5188
G3 X87.1556 Y91.9381 I-0.9985 J-0.0552
G2 X87.1377 Y92.2281 I22.608 J1.538
G3 X87.137 Y92.2403 I-0.9985 J-0.0551
G2 X87.1195 Y92.5261 I23.1074 J1.5592
G3 X87.1188 Y92.5379 I-0.9985 J-0.055
G2 X87.1016 Y92.8195 I23.6381 J1.5824
G3 X87.1009 Y92.8309 I-0.9985 J-0.0549
G2 X87.0841 Y93.1083 I24.2045 J1.6081
G3 X87.0834 Y93.1193 I-0.9985 J-0.0549
G2 X87.0669 Y93.3927 I24.811 J1.6364
G3 X87.0661 Y93.4052 I-0.9985 J-0.0548
G2 X87.0334 Y93.9503 I37.0501 J2.4991
G3 X87.0326 Y93.964 I-0.9986 J-0.0526
G2 X87.001 Y94.4929 I39.2533 J2.607
G3 X87.0003 Y94.5054 I-0.9986 J-0.0528
G2 X86.9698 Y95.0186 I41.913 J2.7431
G3 X86.9692 Y95.03 I-0.9986 J-0.0531
G2 X86.9398 Y95.528 I45.2254 J2.919
G3 X86.9392 Y95.5381 I-0.9986 J-0.0534
G2 X86.9108 Y96.0215 I49.5242 J3.1539
G3 X86.9102 Y96.0304 I-0.9986 J-0.0538
G2 X86.8827 Y96.4997 I55.4342 J3.4844
G3 X86.8826 Y96.5028 I-0.9985 J-0.0543
G3 X86.4438 Y103.9105 I-2133.009 J-122.6175
G3 X86.4437 Y103.9123 I-0.9981 J-0.0609
G1 X86.3275 Y105.7629
G3 X86.3274 Y105.7652 I-0.998 J-0.0626
G1 X86.2371 Y107.153
G3 X86.2369 Y107.155 I-0.9979 J-0.0649
G1 X86.1671 Y108.1957
G3 X86.167 Y108.1969 I-0.9978 J-0.067
G3 X85.9437 Y111.3243 I-512.5076 J-35.0229
G3 X85.9435 Y111.3263 I-0.9972 J-0.0743
G1 X85.8478 Y112.5774
G3 X85.8476 Y112.5802 I-0.9971 J-0.0763
G1 X85.7546 Y113.7529
G3 X85.7544 Y113.7552 I-0.9969 J-0.079
G1 X85.6647 Y114.8544
G3 X85.6645 Y114.8572 I-0.9967 J-0.0813
G1 X85.4906 Y116.9177
G3 X85.4903 Y116.9205 I-0.9965 J-0.0841
G1 X85.3331 Y118.7229
G3 X85.3329 Y118.7248 I-0.9962 J-0.0869
G1 X85.1923 Y120.3017
G3 X85.1922 Y120.3033 I-0.996 J-0.0888
G1 X84.9418 Y123.0625
G3 X84.9417 Y123.0633 I-0.9959 J-0.0904
G1 X84.7521 Y125.1326
G3 X84.7517 Y125.1373 I-0.9958 J-0.0912
G2 X84.6815 Y125.9039 I81.1895 J7.8231
G3 X84.6807 Y125.9125 I-0.9963 J-0.0865
G2 X84.6504 Y126.244 I41.2063 J3.9367
G3 X84.6496 Y126.2522 I-0.9962 J-0.0871
G2 X84.6213 Y126.5619 I35.7947 J3.4272
G3 X84.6203 Y126.5727 I-0.9962 J-0.0867
G2 X84.5671 Y127.1562 I43.8312 J4.2922
G3 X84.5659 Y127.1695 I-0.9964 J-0.0842
G2 X84.5196 Y127.6779 I36.474 J3.5738
G3 X84.5184 Y127.6915 I-0.9965 J-0.0836
G2 X84.4782 Y128.1344 I31.3421 J3.0654
G3 X84.477 Y128.1482 I-0.9965 J-0.0833
G2 X84.4421 Y128.534 I27.4739 J2.6783
G3 X84.4415 Y128.5407 I-0.9965 J-0.083
G2 X84.1926 Y131.337 I1350.7505 J121.6326
G1 X84.0754 Y132.6895
G1 X83.8602 Y135.2269
G1 X83.4913 Y139.6703
G1 Y139.6704
G1 X83.2144 Y143.0036
G3 X83.2143 Y143.0049 I-0.9966 J-0.0828
G1 X83.0034 Y145.5045
G3 X83.0032 Y145.5061 I-0.9965 J-0.0841
G1 X82.8422 Y147.3805
G3 X82.842 Y147.3818 I-0.9963 J-0.0856
G3 X82.3387 Y153.008 I-1276.297 J-111.3406
G3 X82.3386 Y153.0097 I-0.9958 J-0.0913
G1 X82.1148 Y155.4037
G3 X82.1146 Y155.4056 I-0.9957 J-0.0931
G2 X81.6907 Y159.8919 I2258.7831 J215.6796
G3 Y159.8926 I-0.9957 J-0.0931
G2 X80.9722 Y167.7434 I1468.4538 J138.3457
G1 X80.843 Y169.2155
G1 X80.6058 Y171.9772
G1 X80.5041 Y173.1853
G1 X80.4983 Y173.2554
G1 X80.3117 Y175.513
G1 X80.2314 Y176.5001
G1 X80.0829 Y178.3522
G1 X80.0508 Y178.7566
G1 X79.8059 Y181.8974
G1 X79.7159 Y183.0749
G2 X79.1106 Y191.3206 I1596.6813 J121.3529
G3 X78.1131 Y192.25 I-0.9975 J-0.0706
G1 X20.1131
G3 X19.1163 Y191.3295 I0.0 J-1.0
G1 X18.734 Y186.5363
G1 X18.3938 Y182.3433
G1 X18.2431 Y180.5094
G1 X17.9571 Y177.0702
G2 X16.9201 Y165.0391 I-2281.6773 J190.6106
G1 X16.3828 Y159.0227
G1 X16.1133 Y156.0145
G3 X16.1132 Y156.014 I0.996 J-0.0892
G1 X16.0462 Y155.2619
G3 Y155.2616 I0.9961 J-0.0888
G1 X15.9961 Y154.6975
G3 X15.996 Y154.6971 I0.9961 J-0.0885
G1 X15.9212 Y153.851
G3 X15.9211 Y153.8504 I0.9961 J-0.0881
G1 X15.8467 Y153.0042
G3 X15.8466 Y153.0029 I0.9962 J-0.0876
G1 X15.6124 Y150.2952
G3 X15.6122 Y150.2934 I0.9963 J-0.0862
G1 X15.4115 Y147.9238
G3 X15.4113 Y147.922 I0.9964 J-0.0844
G1 X15.0675 Y143.7746
G3 Y143.7735 I0.9966 J-0.0826
G1 X14.5585 Y137.5523
G1 X14.43 Y135.9974
G1 Y135.9973
G2 X14.0336 Y131.3375 I-953.9221 J78.7931
G1 X13.9234 Y130.0888
G1 X13.7128 Y127.7471
G1 X13.338 Y123.6477
G3 X13.3379 Y123.6472 I0.9958 J-0.0911
G1 X13.0582 Y120.5719
G3 X13.058 Y120.57 I0.9959 J-0.0906
G1 X12.8528 Y118.2658
G3 X12.8336 Y118.0468 I16.9332 J-1.5978
G3 X12.7968 Y117.6257 I22.6977 J-2.194
G3 X12.7627 Y117.2323 I21.4739 J-2.061
G3 X12.7309 Y116.8634 I20.3815 J-1.9431
G3 X12.7013 Y116.5175 I19.3974 J-1.8365
G3 X12.6736 Y116.1932 I18.5032 J-1.7395
G3 X12.6479 Y115.8891 I17.6854 J-1.6508
G3 X12.6239 Y115.604 I16.9326 J-1.5693
G3 X12.6011 Y115.3317 I16.2361 J-1.4941
G1 X12.4383 Y113.3369
G3 X12.4175 Y113.0754 I14.5738 J-1.2882
G1 X12.283 Y111.3309
G3 X12.2592 Y111.0116 I15.5662 J-1.325
G3 X12.2364 Y110.7035 I15.7005 J-1.3144
G3 X12.2142 Y110.4002 I15.8349 J-1.3103
G3 X12.1926 Y110.1016 I15.9696 J-1.3066
G3 X12.1715 Y109.8077 I16.1047 J-1.3033
G3 X12.1509 Y109.5184 I16.2411 J-1.3002
G3 X12.1309 Y109.2336 I16.3784 J-1.2976
G3 X12.1113 Y108.9533 I16.5159 J-1.2952
G3 X12.0921 Y108.6773 I16.6547 J-1.2932
G3 X12.0733 Y108.4024 I16.7944 J-1.2915
G3 X11.9313 Y106.2693 I314.7694 J-22.0252
G3 X11.916 Y106.0329 I18.199 J-1.2954
G3 X11.9013 Y105.8039 I18.3589 J-1.2949
G3 X11.872 Y105.3445 I25.9832 J-1.885
G3 X11.4501 Y98.3263 I1631.8546 J-101.6194
G1 X11.2445 Y94.818
G1 X11.1395 Y93.0649
G1 X11.0317 Y91.3123
G1 X10.9527 Y90.0638
G1 X10.8002 Y87.7216
G1 X10.6631 Y85.6725
G1 X10.1719 Y78.4964
G3 X10.1718 Y78.4953 I0.9977 J-0.0683
G1 X9.9303 Y74.9094
G3 X9.9004 Y74.4563 I33.0525 J-2.4108
G3 X9.8746 Y74.0634 I30.1554 J-2.1765
G3 X9.8519 Y73.7159 I27.656 J-1.9786
G1 X9.6985 Y71.3138
G3 X9.6983 Y71.3115 I0.998 J-0.0638
G1 X9.6149 Y69.9583
G3 X9.6148 Y69.9566 I0.9981 J-0.0615
G1 X9.5388 Y68.6878
G3 X9.5386 Y68.6854 I0.9982 J-0.0598
G1 X9.4019 Y66.3061
G3 X9.4018 Y66.303 I0.9984 J-0.0574
G1 X9.2886 Y64.2208
G3 X9.2885 Y64.2187 I0.9985 J-0.0543
G1 X9.2409 Y63.3076
G3 Y63.3074 I0.9986 J-0.0522
G3 X8.9195 Y56.4624 I670.5837 J-34.9139
G3 Y56.462 I0.9991 J-0.0418
G1 X8.8486 Y54.7528
G3 Y54.7511 I0.9991 J-0.0414
G1 X8.7976 Y53.4691
G3 Y53.4679 I0.9992 J-0.0397
G1 X8.7606 Y52.5064
G3 Y52.5051 I0.9993 J-0.0384
G1 X8.707 Y51.0628
G3 X8.7069 Y51.062 I0.9993 J-0.0371
G1 X8.7036 Y50.9718
G1 X8.7006 Y50.8872
G3 Y50.8865 I0.9993 J-0.0363
G1 X8.6554 Y49.6189
G3 Y49.618 I0.9994 J-0.0356
G1 X8.6346 Y49.0193
G3 Y49.0189 I0.9994 J-0.0347
G3 X8.2094 Y30.1303 I803.2276 J-27.5306
G1 X8.1842 Y27.7717
G3 Y27.7699 I0.9999 J-0.0107
G1 X8.1659 Y25.706
G3 Y25.7046 I1.0 J-0.0089
G1 X8.1524 Y23.8987
G3 Y23.8978 I1.0 J-0.0074
G1 X8.1473 Y23.1077
G3 Y23.1065 I1.0 J-0.0065
G1 X8.1316 Y20.1437
G3 Y20.1428 I1.0 J-0.0053
G1 X8.1309 Y20.0039
G3 Y20.0032 I1.0 J-0.0044
G1 X8.1229 Y17.8158
G3 X8.1228 Y17.8143 I1.0 J-0.0037
G1 X8.1154 Y14.5333
G3 Y14.5317 I1.0 J-0.0023
G1 X8.1131 Y11.2507
G3 X9.1131 Y10.25 I1.0 J-0.0007
G1 X89.1131
G3 X90.1131 Y11.2505 I0.0 J1.0
G1 X90.1119 Y13.6275
G3 X90.1123 Y13.7175 I-1.7083 J0.0531
G3 X90.1122 Y13.7877 I-1.7077 J0.0332
G3 X90.1121 Y13.8577 I-1.7065 J0.0331
G3 Y13.9276 I-1.7053 J0.033
G3 X90.1114 Y14.017 I-1.7041 J0.0328
G1 X90.1076 Y16.2224
G3 Y16.2232 I-1.0 J-0.0017
G1 X90.105 Y17.2661
G3 Y17.2669 I-1.0 J-0.0025
G1 X90.0982 Y19.2872
G3 Y19.2883 I-1.0 J-0.0034
G1 X90.0897 Y21.1823
G3 Y21.1835 I-1.0 J-0.0045
G1 X90.0798 Y22.9592
G3 Y22.9603 I-1.0 J-0.0056
G1 X90.0686 Y24.625
G3 Y24.6259 I-1.0 J-0.0067
G1 X90.0628 Y25.3894
G3 X90.0627 Y25.4538 I-1.5145 J0.0288
G3 X90.0618 Y25.5187 I-1.5139 J0.0116
G1 X90.0346 Y28.514
G3 Y28.5164 I-1.0 J-0.0091
G1 X90.0044 Y31.1517
G3 Y31.154 I-0.9999 J-0.0114
G1 X89.9726 Y33.4599
G3 Y33.4621 I-0.9999 J-0.0138
G1 X89.9403 Y35.4743
G3 X89.9363 Y35.7079 I-9.9994 J-0.0556
G3 X89.8687 Y39.1807 I-1078.5417 J-19.2467
G3 Y39.1821 I-0.9998 J-0.0211
G1 X89.8395 Y40.4853
G3 X89.8394 Y40.4861 I-0.9997 J-0.0225
G3 X89.5708 Y49.6189 I-742.4569 J-17.2682
G3 Y49.6197 I-0.9994 J-0.0355
G1 X89.4723 Y52.3294
G3 X89.4722 Y52.3321 I-0.9993 J-0.0363
G1 X89.3796 Y54.7029
G3 X89.3795 Y54.7039 I-0.9992 J-0.039
G3 X88.5278 Y71.3125 I-737.8882 J-29.5147
G3 Y71.3131 I-0.998 J-0.0625
G1 X88.4487 Y72.5634
G3 X88.4486 Y72.5653 I-0.998 J-0.0631
G1 X88.2959 Y74.9093
G3 X88.2958 Y74.911 I-0.9979 J-0.065
G1 X88.1585 Y76.9618
G3 X88.1584 Y76.9633 I-0.9978 J-0.0668
G1 X87.6673 Y84.1396
G1 X87.4256 Y87.7278
G3 X87.4252 Y87.7334 I-0.9977 J-0.0672
G2 X87.3965 Y88.1681 I31.0576 J2.268
G3 X87.3956 Y88.1815 I-0.9983 J-0.0589
G2 X87.3708 Y88.5606 I28.1601 J2.0388
G3 X87.3699 Y88.5734 I-0.9983 J-0.0588
G2 X87.3483 Y88.9041 I25.6607 J1.8418
G3 X87.348 Y88.9091 I-0.9983 J-0.0587
G1 X87.1944 Y91.3138
G3 X87.194 Y91.3191 I-0.998 J-0.0638
G1 F20.0 Z-2.0
G2 F150.0 X87.1754 Y91.6178 I21.689 J1.5014
G3 X87.1746 Y91.631 I-0.9985 J-0.0553
G2 X87.1564 Y91.9254 I22.1362 J1.5188
G3 X87.1556 Y91.9381 I-0.9985 J-0.0552
G2 X87.1377 Y92.2281 I22.608 J1.538
G3 X87.137 Y92.2403 I-0.9985 J-0.0551
G2 X87.1195 Y92.5261 I23.1074 J1.5592
G3 X87.1188 Y92.5379 I-0.9985 J-0.055
G2 X87.1016 Y92.8195 I23.6381 J1.5824
G3 X87.1009 Y92.8309 I-0.9985 J-0.0549
G2 X87.0841 Y93.1083 I24.2045 J1.6081
G3 X87.0834 Y93.1193 I-0.9985 J-0.0549
G2 X87.0669 Y93.3927 I24.811 J1.6364
G3 X87.0661 Y93.4052 I-0.9985 J-0.0548
G2 X87.0334 Y93.9503 I37.0501 J2.4991
G3 X87.0326 Y93.964 I-0.9986 J-0.0526
G2 X87.001 Y94.4929 I39.2533 J2.607
G3 X87.0003 Y94.5054 I-0.9986 J-0.0528
G2 X86.9698 Y95.0186 I41.913 J2.7431
G3 X86.9692 Y95.03 I-0.9986 J-0.0531
G2 X86.9398 Y95.528 I45.2254 J2.919
G3 X86.9392 Y95.5381 I-0.9986 J-0.0534
G2 X86.9108 Y96.0215 I49.5242 J3.1539
G3 X86.9102 Y96.0304 I-0.9986 J-0.0538
G2 X86.8827 Y96.4997 I55.4342 J3.4844
G3 X86.8826 Y96.5028 I-0.9985 J-0.0543
G3 X86.4438 Y103.9105 I-2133.009 J-122.6175
G3 X86.4437 Y103.9123 I-0.9981 J-0.0609
G1 X86.3275 Y105.7629
G3 X86.3274 Y105.7652 I-0.998 J-0.0626
G1 X86.2371 Y107.153
G3 X86.2369 Y107.155 I-0.9979 J-0.0649
G1 X86.1671 Y108.1957
G3 X86.167 Y108.1969 I-0.9978 J-0.067
G3 X85.9437 Y111.3243 I-512.5076 J-35.0229
G3 X85.9435 Y111.3263 I-0.9972 J-0.0743
G1 X85.8478 Y112.5774
G3 X85.8476 Y112.5802 I-0.9971 J-0.0763
G1 X85.7546 Y113.7529
G3 X85.7544 Y113.7552 I-0.9969 J-0.079
G1 X85.6647 Y114.8544
G3 X85.6645 Y114.8572 I-0.9967 J-0.0813
G1 X85.4906 Y116.9177
G3 X85.4903 Y116.9205 I-0.9965 J-0.0841
G1 X85.3331 Y118.7229
G3 X85.3329 Y118.7248 I-0.9962 J-0.0869
G1 X85.1923 Y120.3017
G3 X85.1922 Y120.3033 I-0.996 J-0.0888
G1 X84.9418 Y123.0625
G3 X84.9417 Y123.0633 I-0.9959 J-0.0904
G1 X84.7521 Y125.1326
G3 X84.7517 Y125.1373 I-0.9958 J-0.0912
G2 X84.6815 Y125.9039 I81.1895 J7.8231
G3 X84.6807 Y125.9125 I-0.9963 J-0.0865
G2 X84.6504 Y126.244 I41.2063 J3.9367
G3 X84.6496 Y126.2522 I-0.9962 J-0.0871
G2 X84.6213 Y126.5619 I35.7947 J3.4272
G3 X84.6203 Y126.5727 I-0.9962 J-0.0867
G2 X84.5671 Y127.1562 I43.8312 J4.2922
G3 X84.5659 Y127.1695 I-0.9964 J-0.0842
G2 X84.5196 Y127.6779 I36.474 J3.5738
G3 X84.5184 Y127.6915 I-0.9965 J-0.0836
G2 X84.4782 Y128.1344 I31.3421 J3.0654
G3 X84.477 Y128.1482 I-0.9965 J-0.0833
G2 X84.4421 Y128.534 I27.4739 J2.6783
G3 X84.4415 Y128.5407 I-0.9965 J-0.083
G2 X84.1926 Y131.337 I1350.7505 J121.6326
G1 X84.0754 Y132.6895
G1 X83.8602 Y135.2269
G1 X83.4913 Y139.6703
G1 Y139.6704
G1 X83.2144 Y143.0036
G3 X83.2143 Y143.0049 I-0.9966 J-0.0828
G1 X83.0034 Y145.5045
G3 X83.0032 Y145.5061 I-0.9965 J-0.0841
G1 X82.8422 Y147.3805
G3 X82.842 Y147.3818 I-0.9963 J-0.0856
G3 X82.3387 Y153.008 I-1276.297 J-111.3406
G3 X82.3386 Y153.0097 I-0.9958 J-0.0913
G1 X82.1148 Y155.4037
G3 X82.1146 Y155.4056 I-0.9957 J-0.0931
G2 X81.6907 Y159.8919 I2258.7831 J215.6796
G3 Y159.8926 I-0.9957 J-0.0931
G2 X80.9722 Y167.7434 I1468.4538 J138.3457
G1 X80.843 Y169.2155
G1 X80.6058 Y171.9772
G1 X80.5041 Y173.1853
G1 X80.4983 Y173.2554
G1 X80.3117 Y175.513
G1 X80.2314 Y176.5001
G1 X80.0829 Y178.3522
G1 X80.0508 Y178.7566
G1 X79.8059 Y181.8974
G1 X79.7159 Y183.0749
G2 X79.1106 Y191.3206 I1596.6813 J121.3529
G3 X78.1131 Y192.25 I-0.9975 J-0.0706
G1 X20.1131
G3 X19.1163 Y191.3295 I0.0 J-1.0
G1 X18.734 Y186.5363
G1 X18.3938 Y182.3433
G1 X18.2431 Y180.5094
G1 X17.9571 Y177.0702
G2 X16.9201 Y165.0391 I-2281.6773 J190.6106
G1 X16.3828 Y159.0227
G1 X16.1133 Y156.0145
G3 X16.1132 Y156.014 I0.996 J-0.0892
G1 X16.0462 Y155.2619
G3 Y155.2616 I0.9961 J-0.0888
G1 X15.9961 Y154.6975
G3 X15.996 Y154.6971 I0.9961 J-0.0885
G1 X15.9212 Y153.851
G3 X15.9211 Y153.8504 I0.9961 J-0.0881
G1 X15.8467 Y153.0042
G3 X15.8466 Y153.0029 I0.9962 J-0.0876
G1 X15.6124 Y150.2952
G3 X15.6122 Y150.2934 I0.9963 J-0.0862
G1 X15.4115 Y147.9238
G3 X15.4113 Y147.922 I0.9964 J-0.0844
G1 X15.0675 Y143.7746
G3 Y143.7735 I0.9966 J-0.0826
G1 X14.5585 Y137.5523
G1 X14.43 Y135.9974
G1 Y135.9973
G2 X14.0336 Y131.3375 I-953.9221 J78.7931
G1 X13.9234 Y130.0888
G1 X13.7128 Y127.7471
G1 X13.338 Y123.6477
G3 X13.3379 Y123.6472 I0.9958 J-0.0911
G1 X13.0582 Y120.5719
G3 X13.058 Y120.57 I0.9959 J-0.0906
G1 X12.8528 Y118.2658
G3 X12.8336 Y118.0468 I16.9332 J-1.5978
G3 X12.7968 Y117.6257 I22.6977 J-2.194
G3 X12.7627 Y117.2323 I21.4739 J-2.061
G3 X12.7309 Y116.8634 I20.3815 J-1.9431
G3 X12.7013 Y116.5175 I19.3974 J-1.8365
G3 X12.6736 Y116.1932 I18.5032 J-1.7395
G3 X12.6479 Y115.8891 I17.6854 J-1.6508
G3 X12.6239 Y115.604 I16.9326 J-1.5693
G3 X12.6011 Y115.3317 I16.2361 J-1.4941
G1 X12.4383 Y113.3369
G3 X12.4175 Y113.0754 I14.5738 J-1.2882
G1 X12.283 Y111.3309
G3 X12.2592 Y111.0116 I15.5662 J-1.325
G3 X12.2364 Y110.7035 I15.7005 J-1.3144
G3 X12.2142 Y110.4002 I15.8349 J-1.3103
G3 X12.1926 Y110.1016 I15.9696 J-1.3066
G3 X12.1715 Y109.8077 I16.1047 J-1.3033
G3 X12.1509 Y109.5184 I16.2411 J-1.3002
G3 X12.1309 Y109.2336 I16.3784 J-1.2976
G3 X12.1113 Y108.9533 I16.5159 J-1.2952
G3 X12.0921 Y108.6773 I16.6547 J-1.2932
G3 X12.0733 Y108.4024 I16.7944 J-1.2915
G3 X11.9313 Y106.2693 I314.7694 J-22.0252
G3 X11.916 Y106.0329 I18.199 J-1.2954
G3 X11.9013 Y105.8039 I18.3589 J-1.2949
G3 X11.872 Y105.3445 I25.9832 J-1.885
G3 X11.4501 Y98.3263 I1631.8546 J-101.6194
G1 X11.2445 Y94.818
G1 X11.1395 Y93.0649
G1 X11.0317 Y91.3123
G1 X10.9527 Y90.0638
G1 X10.8002 Y87.7216
G1 X10.6631 Y85.6725
G1 X10.1719 Y78.4964
G3 X10.1718 Y78.4953 I0.9977 J-0.0683
G1 X9.9303 Y74.9094
G3 X9.9004 Y74.4563 I33.0525 J-2.4108
G3 X9.8746 Y74.0634 I30.1554 J-2.1765
G3 X9.8519 Y73.7159 I27.656 J-1.9786
G1 X9.6985 Y71.3138
G3 X9.6983 Y71.3115 I0.998 J-0.0638
G1 X9.6149 Y69.9583
G3 X9.6148 Y69.9566 I0.9981 J-0.0615
G1 X9.5388 Y68.6878
G3 X9.5386 Y68.6854 I0.9982 J-0.0598
G1 X9.4019 Y66.3061
G3 X9.4018 Y66.303 I0.9984 J-0.0574
G1 X9.2886 Y64.2208
G3 X9.2885 Y64.2187 I0.9985 J-0.0543
G1 X9.2409 Y63.3076
G3 Y63.3074 I0.9986 J-0.0522
G3 X8.9195 Y56.4624 I670.5837 J-34.9139
G3 Y56.462 I0.9991 J-0.0418
G1 X8.8486 Y54.7528
G3 Y54.7511 I0.9991 J-0.0414
G1 X8.7976 Y53.4691
G3 Y53.4679 I0.9992 J-0.0397
G1 X8.7606 Y52.5064
G3 Y52.5051 I0.9993 J-0.0384
G1 X8.707 Y51.0628
G3 X8.7069 Y51.062 I0.9993 J-0.0371
G1 X8.7036 Y50.9718
G1 X8.7006 Y50.8872
G3 Y50.8865 I0.9993 J-0.0363
G1 X8.6554 Y49.6189
G3 Y49.618 I0.9994 J-0.0356
G1 X8.6346 Y49.0193
G3 Y49.0189 I0.9994 J-0.0347
G3 X8.2094 Y30.1303 I803.2276 J-27.5306
G1 X8.1842 Y27.7717
G3 Y27.7699 I0.9999 J-0.0107
G1 X8.1659 Y25.706
G3 Y25.7046 I1.0 J-0.0089
G1 X8.1524 Y23.8987
G3 Y23.8978 I1.0 J-0.0074
G1 X8.1473 Y23.1077
G3 Y23.1065 I1.0 J-0.0065
G1 X8.1316 Y20.1437
G3 Y20.1428 I1.0 J-0.0053
G1 X8.1309 Y20.0039
G3 Y20.0032 I1.0 J-0.0044
G1 X8.1229 Y17.8158
G3 X8.1228 Y17.8143 I1.0 J-0.0037
G1 X8.1154 Y14.5333
G3 Y14.5317 I1.0 J-0.0023
G1 X8.1131 Y11.2507
G3 X9.1131 Y10.25 I1.0 J-0.0007
G1 X89.1131
G3 X90.1131 Y11.2505 I0.0 J1.0
G1 X90.1119 Y13.6275
G3 X90.1123 Y13.7175 I-1.7083 J0.0531
G3 X90.1122 Y13.7877 I-1.7077 J0.0332
G3 X90.1121 Y13.8577 I-1.7065 J0.0331
G3 Y13.9276 I-1.7053 J0.033
G3 X90.1114 Y14.017 I-1.7041 J0.0328
G1 X90.1076 Y16.2224
G3 Y16.2232 I-1.0 J-0.0017
G1 X90.105 Y17.2661
G3 Y17.2669 I-1.0 J-0.0025
G1 X90.0982 Y19.2872
G3 Y19.2883 I-1.0 J-0.0034
G1 X90.0897 Y21.1823
G3 Y21.1835 I-1.0 J-0.0045
G1 X90.0798 Y22.9592
G3 Y22.9603 I-1.0 J-0.0056
G1 X90.0686 Y24.625
G3 Y24.6259 I-1.0 J-0.0067
G1 X90.0628 Y25.3894
G3 X90.0627 Y25.4538 I-1.5145 J0.0288
G3 X90.0618 Y25.5187 I-1.5139 J0.0116
G1 X90.0346 Y28.514
G3 Y28.5164 I-1.0 J-0.0091
G1 X90.0044 Y31.1517
G3 Y31.154 I-0.9999 J-0.0114
G1 X89.9726 Y33.4599
G3 Y33.4621 I-0.9999 J-0.0138
G1 X89.9403 Y35.4743
G3 X89.9363 Y35.7079 I-9.9994 J-0.0556
G3 X89.8687 Y39.1807 I-1078.5417 J-19.2467
G3 Y39.1821 I-0.9998 J-0.0211
G1 X89.8395 Y40.4853
G3 X89.8394 Y40.4861 I-0.9997 J-0.0225
G3 X89.5708 Y49.6189 I-742.4569 J-17.2682
G3 Y49.6197 I-0.9994 J-0.0355
G1 X89.4723 Y52.3294
G3 X89.4722 Y52.3321 I-0.9993 J-0.0363
G1 X89.3796 Y54.7029
G3 X89.3795 Y54.7039 I-0.9992 J-0.039
G3 X88.5278 Y71.3125 I-737.8882 J-29.5147
G3 Y71.3131 I-0.998 J-0.0625
G1 X88.4487 Y72.5634
G3 X88.4486 Y72.5653 I-0.998 J-0.0631
G1 X88.2959 Y74.9093
G3 X88.2958 Y74.911 I-0.9979 J-0.065
G1 X88.1585 Y76.9618
G3 X88.1584 Y76.9633 I-0.9978 J-0.0668
G1 X87.6673 Y84.1396
G1 X87.4256 Y87.7278
G3 X87.4252 Y87.7334 I-0.9977 J-0.0672
G2 X87.3965 Y88.1681 I31.0576 J2.268
G3 X87.3956 Y88.1815 I-0.9983 J-0.0589
G2 X87.3708 Y88.5606 I28.1601 J2.0388
G3 X87.3699 Y88.5734 I-0.9983 J-0.0588
G2 X87.3483 Y88.9041 I25.6607 J1.8418
G3 X87.348 Y88.9091 I-0.9983 J-0.0587
G1 X87.1944 Y91.3138
G3 X87.194 Y91.3191 I-0.998 J-0.0638
G1 F20.0 Z-3.0
G2 F150.0 X87.1754 Y91.6178 I21.689 J1.5014
G3 X87.1746 Y91.631 I-0.9985 J-0.0553
G2 X87.1564 Y91.9254 I22.1362 J1.5188
G3 X87.1556 Y91.9381 I-0.9985 J-0.0552
G2 X87.1377 Y92.2281 I22.608 J1.538
G3 X87.137 Y92.2403 I-0.9985 J-0.0551
G2 X87.1195 Y92.5261 I23.1074 J1.5592
G3 X87.1188 Y92.5379 I-0.9985 J-0.055
G2 X87.1016 Y92.8195 I23.6381 J1.5824
G3 X87.1009 Y92.8309 I-0.9985 J-0.0549
G2 X87.0841 Y93.1083 I24.2045 J1.6081
G3 X87.0834 Y93.1193 I-0.9985 J-0.0549
G2 X87.0669 Y93.3927 I24.811 J1.6364
G3 X87.0661 Y93.4052 I-0.9985 J-0.0548
G2 X87.0334 Y93.9503 I37.0501 J2.4991
G3 X87.0326 Y93.964 I-0.9986 J-0.0526
G2 X87.001 Y94.4929 I39.2533 J2.607
G3 X87.0003 Y94.5054 I-0.9986 J-0.0528
G2 X86.9698 Y95.0186 I41.913 J2.7431
G3 X86.9692 Y95.03 I-0.9986 J-0.0531
G2 X86.9398 Y95.528 I45.2254 J2.919
G3 X86.9392 Y95.5381 I-0.9986 J-0.0534
G2 X86.9108 Y96.0215 I49.5242 J3.1539
G3 X86.9102 Y96.0304 I-0.9986 J-0.0538
G2 X86.8827 Y96.4997 I55.4342 J3.4844
G3 X86.8826 Y96.5028 I-0.9985 J-0.0543
G3 X86.4438 Y103.9105 I-2133.009 J-122.6175
G3 X86.4437 Y103.9123 I-0.9981 J-0.0609
G1 X86.3275 Y105.7629
G3 X86.3274 Y105.7652 I-0.998 J-0.0626
G1 X86.2371 Y107.153
G3 X86.2369 Y107.155 I-0.9979 J-0.0649
G1 X86.1671 Y108.1957
G3 X86.167 Y108.1969 I-0.9978 J-0.067
G3 X85.9437 Y111.3243 I-512.5076 J-35.0229
G3 X85.9435 Y111.3263 I-0.9972 J-0.0743
G1 X85.8478 Y112.5774
G3 X85.8476 Y112.5802 I-0.9971 J-0.0763
G1 X85.7546 Y113.7529
G3 X85.7544 Y113.7552 I-0.9969 J-0.079
G1 X85.6647 Y114.8544
G3 X85.6645 Y114.8572 I-0.9967 J-0.0813
G1 X85.4906 Y116.9177
G3 X85.4903 Y116.9205 I-0.9965 J-0.0841
G1 X85.335 Y118.7017
G1 X85.3331 Y118.7229 Z-2.9858
G3 X85.3329 Y118.7248 Z-2.9845 I-0.9962 J-0.0869
G1 X85.2018 Y120.1957 Z-2.0
G1 X85.1923 Y120.3017
G3 X85.1922 Y120.3033 I-0.996 J-0.0888
G1 X85.0212 Y122.1876
G1 X84.9418 Y123.0625 Z-2.5857
G3 X84.9417 Y123.0633 Z-2.5862 I-0.9959 J-0.0904
G1 X84.8851 Y123.6814 Z-3.0
G1 X84.7521 Y125.1326
G3 X84.7517 Y125.1373 I-0.9958 J-0.0912
G2 X84.6815 Y125.9039 I81.1895 J7.8231
G3 X84.6807 Y125.9125 I-0.9963 J-0.0865
G2 X84.6504 Y126.244 I41.2063 J3.9367
G3 X84.6496 Y126.2522 I-0.9962 J-0.0871
G2 X84.6213 Y126.5619 I35.7947 J3.4272
G3 X84.6203 Y126.5727 I-0.9962 J-0.0867
G2 X84.5671 Y127.1562 I43.8312 J4.2922
G3 X84.5659 Y127.1695 I-0.9964 J-0.0842
G2 X84.5196 Y127.6779 I36.474 J3.5738
G3 X84.5184 Y127.6915 I-0.9965 J-0.0836
G2 X84.4782 Y128.1344 I31.3421 J3.0654
G3 X84.477 Y128.1482 I-0.9965 J-0.0833
G2 X84.4421 Y128.534 I27.4739 J2.6783
G3 X84.4415 Y128.5407 I-0.9965 J-0.083
G2 X84.1926 Y131.337 I1350.7505 J121.6326
G1 X84.0754 Y132.6895
G1 X83.8602 Y135.2269
G1 X83.4913 Y139.6703
G1 Y139.6704
G1 X83.2144 Y143.0036
G3 X83.2143 Y143.0049 I-0.9966 J-0.0828
G1 X83.0034 Y145.5045
G3 X83.0032 Y145.5061 I-0.9965 J-0.0841
G1 X82.8422 Y147.3805
G3 X82.842 Y147.3818 I-0.9963 J-0.0856
G3 X82.3387 Y153.008 I-1276.297 J-111.3406
G3 X82.3386 Y153.0097 I-0.9958 J-0.0913
G1 X82.1148 Y155.4037
G3 X82.1146 Y155.4056 I-0.9957 J-0.0931
G2 X81.6907 Y159.8919 I2258.7831 J215.6796
G3 Y159.8926 I-0.9957 J-0.0931
G2 X80.9722 Y167.7434 I1468.4538 J138.3457
G1 X80.843 Y169.2155
G1 X80.7099 Y170.7649
G1 X80.6058 Y171.9772 Z-2.1888
G1 X80.582 Y172.2594 Z-2.0
G1 X80.5041 Y173.1853
G1 X80.4983 Y173.2554
G1 X80.4158 Y174.2525
G1 X80.3117 Y175.513 Z-2.8432
G1 X80.2926 Y175.7475 Z-3.0
G1 X80.2314 Y176.5001
G1 X80.0829 Y178.3522
G1 X80.0508 Y178.7566
G1 X79.8059 Y181.8974
G1 X79.7159 Y183.0749
G2 X79.1106 Y191.3206 I1596.6813 J121.3529
G3 X78.1131 Y192.25 I-0.9975 J-0.0706
G1 X51.5
G1 X50.0 Z-2.0
G1 X48.0
G1 X46.5 Z-3.0
G1 X20.1131
G3 X19.1163 Y191.3295 I0.0 J-1.0
G1 X18.734 Y186.5363
G1 X18.3938 Y182.3433
G1 X18.2431 Y180.5094
G1 X17.9571 Y177.0702
G2 X17.7436 Y174.5312 I-2281.6773 J190.6106
G2 X17.6165 Y173.0366 Z-2.0 I-2281.4637 J193.1496
G2 X17.4456 Y171.0439 I-2281.3367 J194.6442
G2 X17.3163 Y169.5495 Z-3.0 I-2281.1658 J196.6369
G2 X16.9201 Y165.0391 I-2281.0365 J198.1313
G1 X16.3828 Y159.0227
G1 X16.1133 Y156.0145
G3 X16.1132 Y156.014 I0.996 J-0.0892
G1 X16.0462 Y155.2619
G3 Y155.2616 I0.9961 J-0.0888
G1 X15.9961 Y154.6975
G3 X15.996 Y154.6971 I0.9961 J-0.0885
G1 X15.9212 Y153.851
G3 X15.9211 Y153.8504 I0.9961 J-0.0881
G1 X15.8467 Y153.0042
G3 X15.8466 Y153.0029 I0.9962 J-0.0876
G1 X15.6124 Y150.2952
G3 X15.6122 Y150.2934 I0.9963 J-0.0862
G1 X15.4115 Y147.9238
G3 X15.4113 Y147.922 I0.9964 J-0.0844
G1 X15.0675 Y143.7746
G3 Y143.7735 I0.9966 J-0.0826
G1 X14.5585 Y137.5523
G1 X14.43 Y135.9974
G1 Y135.9973
G2 X14.0336 Y131.3375 I-953.9221 J78.7931
G1 X13.9234 Y130.0888
G1 X13.7128 Y127.7471
G1 X13.338 Y123.6477
G3 X13.3379 Y123.6472 I0.9958 J-0.0911
G1 X13.3146 Y123.3907
G1 X13.1787 Y121.8969 Z-2.0
G1 X13.0582 Y120.5719
G3 X13.058 Y120.57 I0.9959 J-0.0906
G1 X12.9988 Y119.905
G1 X12.8658 Y118.4109 Z-3.0
G1 X12.8528 Y118.2658
G3 X12.8336 Y118.0468 I16.9332 J-1.5978
G3 X12.7968 Y117.6257 I22.6977 J-2.194
G3 X12.7627 Y117.2323 I21.4739 J-2.061
G3 X12.7309 Y116.8634 I20.3815 J-1.9431
G3 X12.7013 Y116.5175 I19.3974 J-1.8365
G3 X12.6736 Y116.1932 I18.5032 J-1.7395
G3 X12.6479 Y115.8891 I17.6854 J-1.6508
G3 X12.6239 Y115.604 I16.9326 J-1.5693
G3 X12.6011 Y115.3317 I16.2361 J-1.4941
G1 X12.4383 Y113.3369
G3 X12.4175 Y113.0754 I14.5738 J-1.2882
G1 X12.283 Y111.3309
G3 X12.2592 Y111.0116 I15.5662 J-1.325
G3 X12.2364 Y110.7035 I15.7005 J-1.3144
G3 X12.2142 Y110.4002 I15.8349 J-1.3103
G3 X12.1926 Y110.1016 I15.9696 J-1.3066
G3 X12.1715 Y109.8077 I16.1047 J-1.3033
G3 X12.1509 Y109.5184 I16.2411 J-1.3002
G3 X12.1309 Y109.2336 I16.3784 J-1.2976
G3 X12.1113 Y108.9533 I16.5159 J-1.2952
G3 X12.0921 Y108.6773 I16.6547 J-1.2932
G3 X12.0733 Y108.4024 I16.7944 J-1.2915
G3 X11.9313 Y106.2693 I314.7694 J-22.0252
G3 X11.916 Y106.0329 I18.199 J-1.2954
G3 X11.9013 Y105.8039 I18.3589 J-1.2949
G3 X11.872 Y105.3445 I25.9832 J-1.885
G3 X11.4501 Y98.3263 I1631.8546 J-101.6194
G1 X11.2445 Y94.818
G1 X11.1395 Y93.0649
G1 X11.0317 Y91.3123
G1 X10.9527 Y90.0638
G1 X10.8002 Y87.7216
G1 X10.6631 Y85.6725
G1 X10.1719 Y78.4964
G3 X10.1718 Y78.4953 I0.9977 J-0.0683
G1 X9.9303 Y74.9094
G3 X9.9004 Y74.4563 I33.0525 J-2.4108
G3 X9.8746 Y74.0634 I30.1554 J-2.1765
G3 X9.8519 Y73.7159 I27.656 J-1.9786
G1 X9.6985 Y71.3138
G3 X9.6983 Y71.3115 I0.998 J-0.0638
G1 X9.6149 Y69.9583
G3 X9.6148 Y69.9566 I0.9981 J-0.0615
G1 X9.5456 Y68.8019
G1 X9.5388 Y68.6878 Z-2.9238
G3 X9.5386 Y68.6854 Z-2.9221 I0.9982 J-0.0598
G1 X9.4593 Y67.3044 Z-2.0
G1 X9.4019 Y66.3061
G3 X9.4018 Y66.303 I0.9984 J-0.0574
G1 X9.3477 Y65.3075
G1 X9.2886 Y64.2208 Z-2.7256
G3 X9.2885 Y64.2187 Z-2.727 I0.9985 J-0.0543
G1 X9.2671 Y63.8097 Z-3.0
G1 X9.2409 Y63.3076
G3 Y63.3074 I0.9986 J-0.0522
G3 X8.9195 Y56.4624 I670.5837 J-34.9139
G3 Y56.462 I0.9991 J-0.0418
G1 X8.8486 Y54.7528
G3 Y54.7511 I0.9991 J-0.0414
G1 X8.7976 Y53.4691
G3 Y53.4679 I0.9992 J-0.0397
G1 X8.7606 Y52.5064
G3 Y52.5051 I0.9993 J-0.0384
G1 X8.707 Y51.0628
G3 X8.7069 Y51.062 I0.9993 J-0.0371
G1 X8.7036 Y50.9718
G1 X8.7006 Y50.8872
G3 Y50.8865 I0.9993 J-0.0363
G1 X8.6554 Y49.6189
G3 Y49.618 I0.9994 J-0.0356
G1 X8.6346 Y49.0193
G3 Y49.0189 I0.9994 J-0.0347
G3 X8.2094 Y30.1303 I803.2276 J-27.5306
G1 X8.1842 Y27.7717
G3 Y27.7699 I0.9999 J-0.0107
G1 X8.1817 Y27.4913
G1 X8.1684 Y25.9914 Z-2.0
G1 X8.1659 Y25.706
G3 Y25.7046 I1.0 J-0.0089
G1 X8.1531 Y23.9914
G1 X8.1524 Y23.8987 Z-2.0618
G3 Y23.8978 Z-2.0624 I1.0 J-0.0074
G1 X8.1473 Y23.1077 Z-2.5891
G3 Y23.1065 Z-2.59 I1.0 J-0.0065
G1 X8.144 Y22.4914 Z-3.0
G1 X8.1316 Y20.1437
G3 Y20.1428 I1.0 J-0.0053
G1 X8.1309 Y20.0039
G3 Y20.0032 I1.0 J-0.0044
G1 X8.1229 Y17.8158
G3 X8.1228 Y17.8143 I1.0 J-0.0037
G1 X8.1154 Y14.5333
G3 Y14.5317 I1.0 J-0.0023
G1 X8.1131 Y11.2507
G3 X9.1131 Y10.25 I1.0 J-0.0007
G1 X45.5
G1 X47.0 Z-2.0
G1 X49.0
G1 X50.5 Z-3.0
G1 X89.1131
G3 X90.1131 Y11.2505 I0.0 J1.0
G1 X90.1119 Y13.6275
G3 X90.1123 Y13.7175 I-1.7083 J0.0531
G3 X90.1122 Y13.7877 I-1.7077 J0.0332
G3 X90.1121 Y13.8577 I-1.7065 J0.0331
G3 Y13.9276 I-1.7053 J0.033
G3 X90.1114 Y14.017 I-1.7041 J0.0328
G1 X90.1076 Y16.2224
G3 Y16.2232 I-1.0 J-0.0017
G1 X90.105 Y17.2661
G3 Y17.2669 I-1.0 J-0.0025
G1 X90.0982 Y19.2872
G3 Y19.2883 I-1.0 J-0.0034
G1 X90.0897 Y21.1823
G3 Y21.1835 I-1.0 J-0.0045
G1 X90.0798 Y22.9592
G3 Y22.9603 I-1.0 J-0.0056
G1 X90.0793 Y23.0443
G1 X90.0692 Y24.5459 Z-2.0
G1 X90.0686 Y24.625
G3 Y24.6259 I-1.0 J-0.0067
G1 X90.0628 Y25.3894
G3 X90.0627 Y25.4538 I-1.5145 J0.0288
G3 X90.0618 Y25.5187 I-1.5139 J0.0116
G1 X90.0525 Y26.5479
G1 X90.0388 Y28.0494 Z-3.0
G1 X90.0346 Y28.514
G3 Y28.5164 I-1.0 J-0.0091
G1 X90.0044 Y31.1517
G3 Y31.154 I-0.9999 J-0.0114
G1 X89.9726 Y33.4599
G3 Y33.4621 I-0.9999 J-0.0138
G1 X89.9403 Y35.4743
G3 X89.9363 Y35.7079 I-9.9994 J-0.0556
G3 X89.8687 Y39.1807 I-1078.5417 J-19.2467
G3 Y39.1821 I-0.9998 J-0.0211
G1 X89.8395 Y40.4853
G3 X89.8394 Y40.4861 I-0.9997 J-0.0225
G3 X89.5708 Y49.6189 I-742.4569 J-17.2682
G3 Y49.6197 I-0.9994 J-0.0355
G1 X89.4723 Y52.3294
G3 X89.4722 Y52.3321 I-0.9993 J-0.0363
G1 X89.3796 Y54.7029
G3 X89.3795 Y54.7039 I-0.9992 J-0.039
G3 X88.9531 Y63.9217 I-737.8882 J-29.5147
G3 X88.8729 Y65.4196 Z-2.0 I-737.4618 J-38.7326
G3 X88.7613 Y67.4165 I-737.3816 J-40.2304
G3 X88.674 Y68.9139 Z-3.0 I-737.27 J-42.2273
G3 X88.5278 Y71.3125 I-737.1827 J-43.7248
G3 Y71.3131 I-0.998 J-0.0625
G1 X88.4487 Y72.5634
G3 X88.4486 Y72.5653 I-0.998 J-0.0631
G1 X88.2959 Y74.9093
G3 X88.2958 Y74.911 I-0.9979 J-0.065
G1 X88.1585 Y76.9618
G3 X88.1584 Y76.9633 I-0.9978 J-0.0668
G1 X87.6673 Y84.1396
G1 X87.4256 Y87.7278
G3 X87.4252 Y87.7334 I-0.9977 J-0.0672
G2 X87.3965 Y88.1681 I31.0576 J2.268
G3 X87.3956 Y88.1815 I-0.9983 J-0.0589
G2 X87.3708 Y88.5606 I28.1601 J2.0388
G3 X87.3699 Y88.5734 I-0.9983 J-0.0588
G2 X87.3483 Y88.9041 I25.6607 J1.8418
G3 X87.348 Y88.9091 I-0.9983 J-0.0587
G1 X87.1944 Y91.3138
G3 X87.194 Y91.3191 I-0.998 J-0.0638
G1 F20.0 Z-4.0
G2 F150.0 X87.1754 Y91.6178 I21.689 J1.5014
G3 X87.1746 Y91.631 I-0.9985 J-0.0553
G2 X87.1564 Y91.9254 I22.1362 J1.5188
G3 X87.1556 Y91.9381 I-0.9985 J-0.0552
G2 X87.1377 Y92.2281 I22.608 J1.538
G3 X87.137 Y92.2403 I-0.9985 J-0.0551
G2 X87.1195 Y92.5261 I23.1074 J1.5592
G3 X87.1188 Y92.5379 I-0.9985 J-0.055
G2 X87.1016 Y92.8195 I23.6381 J1.5824
G3 X87.1009 Y92.8309 I-0.9985 J-0.0549
G2 X87.0841 Y93.1083 I24.2045 J1.6081
G3 X87.0834 Y93.1193 I-0.9985 J-0.0549
G2 X87.0669 Y93.3927 I24.811 J1.6364
G3 X87.0661 Y93.4052 I-0.9985 J-0.0548
G2 X87.0334 Y93.9503 I37.0501 J2.4991
G3 X87.0326 Y93.964 I-0.9986 J-0.0526
G2 X87.001 Y94.4929 I39.2533 J2.607
G3 X87.0003 Y94.5054 I-0.9986 J-0.0528
G2 X86.9698 Y95.0186 I41.913 J2.7431
G3 X86.9692 Y95.03 I-0.9986 J-0.0531
G2 X86.9398 Y95.528 I45.2254 J2.919
G3 X86.9392 Y95.5381 I-0.9986 J-0.0534
G2 X86.9108 Y96.0215 I49.5242 J3.1539
G3 X86.9102 Y96.0304 I-0.9986 J-0.0538
G2 X86.8827 Y96.4997 I55.4342 J3.4844
G3 X86.8826 Y96.5028 I-0.9985 J-0.0543
G3 X86.4438 Y103.9105 I-2133.009 J-122.6175
G3 X86.4437 Y103.9123 I-0.9981 J-0.0609
G1 X86.3275 Y105.7629
G3 X86.3274 Y105.7652 I-0.998 J-0.0626
G1 X86.2371 Y107.153
G3 X86.2369 Y107.155 I-0.9979 J-0.0649
G1 X86.1671 Y108.1957
G3 X86.167 Y108.1969 I-0.9978 J-0.067
G3 X85.9437 Y111.3243 I-512.5076 J-35.0229
G3 X85.9435 Y111.3263 I-0.9972 J-0.0743
G1 X85.8478 Y112.5774
G3 X85.8476 Y112.5802 I-0.9971 J-0.0763
G1 X85.7546 Y113.7529
G3 X85.7544 Y113.7552 I-0.9969 J-0.079
G1 X85.6647 Y114.8544
G3 X85.6645 Y114.8572 I-0.9967 J-0.0813
G1 X85.4906 Y116.9177
G3 X85.4903 Y116.9205 I-0.9965 J-0.0841
G1 X85.335 Y118.7017
G1 X85.3331 Y118.7229 Z-3.9715
G3 X85.3329 Y118.7248 Z-3.969 I-0.9962 J-0.0869
G1 X85.2018 Y120.1957 Z-2.0
G1 X85.1923 Y120.3017
G3 X85.1922 Y120.3033 I-0.996 J-0.0888
G1 X85.0212 Y122.1876
G1 X84.9418 Y123.0625 Z-3.1714
G3 X84.9417 Y123.0633 Z-3.1725 I-0.9959 J-0.0904
G1 X84.8851 Y123.6814 Z-4.0
G1 X84.7521 Y125.1326
G3 X84.7517 Y125.1373 I-0.9958 J-0.0912
G2 X84.6815 Y125.9039 I81.1895 J7.8231
G3 X84.6807 Y125.9125 I-0.9963 J-0.0865
G2 X84.6504 Y126.244 I41.2063 J3.9367
G3 X84.6496 Y126.2522 I-0.9962 J-0.0871
G2 X84.6213 Y126.5619 I35.7947 J3.4272
G3 X84.6203 Y126.5727 I-0.9962 J-0.0867
G2 X84.5671 Y127.1562 I43.8312 J4.2922
G3 X84.5659 Y127.1695 I-0.9964 J-0.0842
G2 X84.5196 Y127.6779 I36.474 J3.5738
G3 X84.5184 Y127.6915 I-0.9965 J-0.0836
G2 X84.4782 Y128.1344 I31.3421 J3.0654
G3 X84.477 Y128.1482 I-0.9965 J-0.0833
G2 X84.4421 Y128.534 I27.4739 J2.6783
G3 X84.4415 Y128.5407 I-0.9965 J-0.083
G2 X84.1926 Y131.337 I1350.7505 J121.6326
G1 X84.0754 Y132.6895
G1 X83.8602 Y135.2269
G1 X83.4913 Y139.6703
G1 Y139.6704
G1 X83.2144 Y143.0036
G3 X83.2143 Y143.0049 I-0.9966 J-0.0828
G1 X83.0034 Y145.5045
G3 X83.0032 Y145.5061 I-0.9965 J-0.0841
G1 X82.8422 Y147.3805
G3 X82.842 Y147.3818 I-0.9963 J-0.0856
G3 X82.3387 Y153.008 I-1276.297 J-111.3406
G3 X82.3386 Y153.0097 I-0.9958 J-0.0913
G1 X82.1148 Y155.4037
G3 X82.1146 Y155.4056 I-0.9957 J-0.0931
G2 X81.6907 Y159.8919 I2258.7831 J215.6796
G3 Y159.8926 I-0.9957 J-0.0931
G2 X80.9722 Y167.7434 I1468.4538 J138.3457
G1 X80.843 Y169.2155
G1 X80.7099 Y170.7649
G1 X80.6058 Y171.9772 Z-2.3776
G1 X80.582 Y172.2594 Z-2.0
G1 X80.5041 Y173.1853
G1 X80.4983 Y173.2554
G1 X80.4158 Y174.2525
G1 X80.3117 Y175.513 Z-3.6864
G1 X80.2926 Y175.7475 Z-4.0
G1 X80.2314 Y176.5001
G1 X80.0829 Y178.3522
G1 X80.0508 Y178.7566
G1 X79.8059 Y181.8974
G1 X79.7159 Y183.0749
G2 X79.1106 Y191.3206 I1596.6813 J121.3529
G3 X78.1131 Y192.25 I-0.9975 J-0.0706
G1 X51.5
G1 X50.0 Z-2.0
G1 X48.0
G1 X46.5 Z-4.0
G1 X20.1131
G3 X19.1163 Y191.3295 I0.0 J-1.0
G1 X18.734 Y186.5363
G1 X18.3938 Y182.3433
G1 X18.2431 Y180.5094
G1 X17.9571 Y177.0702
G2 X17.7436 Y174.5312 I-2281.6773 J190.6106
G2 X17.6165 Y173.0366 Z-2.0 I-2281.4637 J193.1496
G2 X17.4456 Y171.0439 I-2281.3367 J194.6442
G2 X17.3163 Y169.5495 Z-4.0 I-2281.1658 J196.6369
G2 X16.9201 Y165.0391 I-2281.0365 J198.1313
G1 X16.3828 Y159.0227
G1 X16.1133 Y156.0145
G3 X16.1132 Y156.014 I0.996 J-0.0892
G1 X16.0462 Y155.2619
G3 Y155.2616 I0.9961 J-0.0888
G1 X15.9961 Y154.6975
G3 X15.996 Y154.6971 I0.9961 J-0.0885
G1 X15.9212 Y153.851
G3 X15.9211 Y153.8504 I0.9961 J-0.0881
G1 X15.8467 Y153.0042
G3 X15.8466 Y153.0029 I0.9962 J-0.0876
G1 X15.6124 Y150.2952
G3 X15.6122 Y150.2934 I0.9963 J-0.0862
G1 X15.4115 Y147.9238
G3 X15.4113 Y147.922 I0.9964 J-0.0844
G1 X15.0675 Y143.7746
G3 Y143.7735 I0.9966 J-0.0826
G1 X14.5585 Y137.5523
G1 X14.43 Y135.9974
G1 Y135.9973
G2 X14.0336 Y131.3375 I-953.9221 J78.7931
G1 X13.9234 Y130.0888
G1 X13.7128 Y127.7471
G1 X13.338 Y123.6477
G3 X13.3379 Y123.6472 I0.9958 J-0.0911
G1 X13.3146 Y123.3907
G1 X13.1787 Y121.8969 Z-2.0
G1 X13.0582 Y120.5719
G3 X13.058 Y120.57 I0.9959 J-0.0906
G1 X12.9988 Y119.905
G1 X12.8658 Y118.4109 Z-4.0
G1 X12.8528 Y118.2658
G3 X12.8336 Y118.0468 I16.9332 J-1.5978
G3 X12.7968 Y117.6257 I22.6977 J-2.194
G3 X12.7627 Y117.2323 I21.4739 J-2.061
G3 X12.7309 Y116.8634 I20.3815 J-1.9431
G3 X12.7013 Y116.5175 I19.3974 J-1.8365
G3 X12.6736 Y116.1932 I18.5032 J-1.7395
G3 X12.6479 Y115.8891 I17.6854 J-1.6508
G3 X12.6239 Y115.604 I16.9326 J-1.5693
G3 X12.6011 Y115.3317 I16.2361 J-1.4941
G1 X12.4383 Y113.3369
G3 X12.4175 Y113.0754 I14.5738 J-1.2882
G1 X12.283 Y111.3309
G3 X12.2592 Y111.0116 I15.5662 J-1.325
G3 X12.2364 Y110.7035 I15.7005 J-1.3144
G3 X12.2142 Y110.4002 I15.8349 J-1.3103
G3 X12.1926 Y110.1016 I15.9696 J-1.3066
G3 X12.1715 Y109.8077 I16.1047 J-1.3033
G3 X12.1509 Y109.5184 I16.2411 J-1.3002
G3 X12.1309 Y109.2336 I16.3784 J-1.2976
G3 X12.1113 Y108.9533 I16.5159 J-1.2952
G3 X12.0921 Y108.6773 I16.6547 J-1.2932
G3 X12.0733 Y108.4024 I16.7944 J-1.2915
G3 X11.9313 Y106.2693 I314.7694 J-22.0252
G3 X11.916 Y106.0329 I18.199 J-1.2954
G3 X11.9013 Y105.8039 I18.3589 J-1.2949
G3 X11.872 Y105.3445 I25.9832 J-1.885
G3 X11.4501 Y98.3263 I1631.8546 J-101.6194
G1 X11.2445 Y94.818
G1 X11.1395 Y93.0649
G1 X11.0317 Y91.3123
G1 X10.9527 Y90.0638
G1 X10.8002 Y87.7216
G1 X10.6631 Y85.6725
G1 X10.1719 Y78.4964
G3 X10.1718 Y78.4953 I0.9977 J-0.0683
G1 X9.9303 Y74.9094
G3 X9.9004 Y74.4563 I33.0525 J-2.4108
G3 X9.8746 Y74.0634 I30.1554 J-2.1765
G3 X9.8519 Y73.7159 I27.656 J-1.9786
G1 X9.6985 Y71.3138
G3 X9.6983 Y71.3115 I0.998 J-0.0638
G1 X9.6149 Y69.9583
G3 X9.6148 Y69.9566 I0.9981 J-0.0615
G1 X9.5456 Y68.8019
G1 X9.5388 Y68.6878 Z-3.8476
G3 X9.5386 Y68.6854 Z-3.8443 I0.9982 J-0.0598
G1 X9.4593 Y67.3044 Z-2.0
G1 X9.4019 Y66.3061
G3 X9.4018 Y66.303 I0.9984 J-0.0574
G1 X9.3477 Y65.3075
G1 X9.2886 Y64.2208 Z-3.4512
G3 X9.2885 Y64.2187 Z-3.454 I0.9985 J-0.0543
G1 X9.2671 Y63.8097 Z-4.0
G1 X9.2409 Y63.3076
G3 Y63.3074 I0.9986 J-0.0522
G3 X8.9195 Y56.4624 I670.5837 J-34.9139
G3 Y56.462 I0.9991 J-0.0418
G1 X8.8486 Y54.7528
G3 Y54.7511 I0.9991 J-0.0414
G1 X8.7976 Y53.4691
G3 Y53.4679 I0.9992 J-0.0397
G1 X8.7606 Y52.5064
G3 Y52.5051 I0.9993 J-0.0384
G1 X8.707 Y51.0628
G3 X8.7069 Y51.062 I0.9993 J-0.0371
G1 X8.7036 Y50.9718
G1 X8.7006 Y50.8872
G3 Y50.8865 I0.9993 J-0.0363
G1 X8.6554 Y49.6189
G3 Y49.618 I0.9994 J-0.0356
G1 X8.6346 Y49.0193
G3 Y49.0189 I0.9994 J-0.0347
G3 X8.2094 Y30.1303 I803.2276 J-27.5306
G1 X8.1842 Y27.7717
G3 Y27.7699 I0.9999 J-0.0107
G1 X8.1817 Y27.4913
G1 X8.1684 Y25.9914 Z-2.0
G1 X8.1659 Y25.706
G3 Y25.7046 I1.0 J-0.0089
G1 X8.1531 Y23.9914
G1 X8.1524 Y23.8987 Z-2.1236
G3 Y23.8978 Z-2.1248 I1.0 J-0.0074
G1 X8.1473 Y23.1077 Z-3.1783
G3 Y23.1065 Z-3.1799 I1.0 J-0.0065
G1 X8.144 Y22.4914 Z-4.0
G1 X8.1316 Y20.1437
G3 Y20.1428 I1.0 J-0.0053
G1 X8.1309 Y20.0039
G3 Y20.0032 I1.0 J-0.0044
G1 X8.1229 Y17.8158
G3 X8.1228 Y17.8143 I1.0 J-0.0037
G1 X8.1154 Y14.5333
G3 Y14.5317 I1.0 J-0.0023
G1 X8.1131 Y11.2507
G3 X9.1131 Y10.25 I1.0 J-0.0007
G1 X45.5
G1 X47.0 Z-2.0
G1 X49.0
G1 X50.5 Z-4.0
G1 X89.1131
G3 X90.1131 Y11.2505 I0.0 J1.0
G1 X90.1119 Y13.6275
G3 X90.1123 Y13.7175 I-1.7083 J0.0531
G3 X90.1122 Y13.7877 I-1.7077 J0.0332
G3 X90.1121 Y13.8577 I-1.7065 J0.0331
G3 Y13.9276 I-1.7053 J0.033
G3 X90.1114 Y14.017 I-1.7041 J0.0328
G1 X90.1076 Y16.2224
G3 Y16.2232 I-1.0 J-0.0017
G1 X90.105 Y17.2661
G3 Y17.2669 I-1.0 J-0.0025
G1 X90.0982 Y19.2872
G3 Y19.2883 I-1.0 J-0.0034
G1 X90.0897 Y21.1823
G3 Y21.1835 I-1.0 J-0.0045
G1 X90.0798 Y22.9592
G3 Y22.9603 I-1.0 J-0.0056
G1 X90.0793 Y23.0443
G1 X90.0692 Y24.5459 Z-2.0
G1 X90.0686 Y24.625
G3 Y24.6259 I-1.0 J-0.0067
G1 X90.0628 Y25.3894
G3 X90.0627 Y25.4538 I-1.5145 J0.0288
G3 X90.0618 Y25.5187 I-1.5139 J0.0116
G1 X90.0525 Y26.5479
G1 X90.0388 Y28.0494 Z-4.0
G1 X90.0346 Y28.514
G3 Y28.5164 I-1.0 J-0.0091
G1 X90.0044 Y31.1517
G3 Y31.154 I-0.9999 J-0.0114
G1 X89.9726 Y33.4599
G3 Y33.4621 I-0.9999 J-0.0138
G1 X89.9403 Y35.4743
G3 X89.9363 Y35.7079 I-9.9994 J-0.0556
G3 X89.8687 Y39.1807 I-1078.5417 J-19.2467
G3 Y39.1821 I-0.9998 J-0.0211
G1 X89.8395 Y40.4853
G3 X89.8394 Y40.4861 I-0.9997 J-0.0225
G3 X89.5708 Y49.6189 I-742.4569 J-17.2682
G3 Y49.6197 I-0.9994 J-0.0355
G1 X89.4723 Y52.3294
G3 X89.4722 Y52.3321 I-0.9993 J-0.0363
G1 X89.3796 Y54.7029
G3 X89.3795 Y54.7039 I-0.9992 J-0.039
G3 X88.9531 Y63.9217 I-737.8882 J-29.5147
G3 X88.8729 Y65.4196 Z-2.0 I-737.4618 J-38.7326
G3 X88.7613 Y67.4165 I-737.3816 J-40.2304
G3 X88.674 Y68.9139 Z-4.0 I-737.27 J-42.2273
G3 X88.5278 Y71.3125 I-737.1827 J-43.7248
G3 Y71.3131 I-0.998 J-0.0625
G1 X88.4487 Y72.5634
G3 X88.4486 Y72.5653 I-0.998 J-0.0631
G1 X88.2959 Y74.9093
G3 X88.2958 Y74.911 I-0.9979 J-0.065
G1 X88.1585 Y76.9618
G3 X88.1584 Y76.9633 I-0.9978 J-0.0668
G1 X87.6673 Y84.1396
G1 X87.4256 Y87.7278
G3 X87.4252 Y87.7334 I-0.9977 J-0.0672
G2 X87.3965 Y88.1681 I31.0576 J2.268
G3 X87.3956 Y88.1815 I-0.9983 J-0.0589
G2 X87.3708 Y88.5606 I28.1601 J2.0388
G3 X87.3699 Y88.5734 I-0.9983 J-0.0588
G2 X87.3483 Y88.9041 I25.6607 J1.8418
G3 X87.348 Y88.9091 I-0.9983 J-0.0587
G1 X87.1944 Y91.3138
G3 X87.194 Y91.3191 I-0.998 J-0.0638
G1 F20.0 Z-5.0
G2 F150.0 X87.1754 Y91.6178 I21.689 J1.5014
G3 X87.1746 Y91.631 I-0.9985 J-0.0553
G2 X87.1564 Y91.9254 I22.1362 J1.5188
G3 X87.1556 Y91.9381 I-0.9985 J-0.0552
G2 X87.1377 Y92.2281 I22.608 J1.538
G3 X87.137 Y92.2403 I-0.9985 J-0.0551
G2 X87.1195 Y92.5261 I23.1074 J1.5592
G3 X87.1188 Y92.5379 I-0.9985 J-0.055
G2 X87.1016 Y92.8195 I23.6381 J1.5824
G3 X87.1009 Y92.8309 I-0.9985 J-0.0549
G2 X87.0841 Y93.1083 I24.2045 J1.6081
G3 X87.0834 Y93.1193 I-0.9985 J-0.0549
G2 X87.0669 Y93.3927 I24.811 J1.6364
G3 X87.0661 Y93.4052 I-0.9985 J-0.0548
G2 X87.0334 Y93.9503 I37.0501 J2.4991
G3 X87.0326 Y93.964 I-0.9986 J-0.0526
G2 X87.001 Y94.4929 I39.2533 J2.607
G3 X87.0003 Y94.5054 I-0.9986 J-0.0528
G2 X86.9698 Y95.0186 I41.913 J2.7431
G3 X86.9692 Y95.03 I-0.9986 J-0.0531
G2 X86.9398 Y95.528 I45.2254 J2.919
G3 X86.9392 Y95.5381 I-0.9986 J-0.0534
G2 X86.9108 Y96.0215 I49.5242 J3.1539
G3 X86.9102 Y96.0304 I-0.9986 J-0.0538
G2 X86.8827 Y96.4997 I55.4342 J3.4844
G3 X86.8826 Y96.5028 I-0.9985 J-0.0543
G3 X86.4438 Y103.9105 I-2133.009 J-122.6175
G3 X86.4437 Y103.9123 I-0.9981 J-0.0609
G1 X86.3275 Y105.7629
G3 X86.3274 Y105.7652 I-0.998 J-0.0626
G1 X86.2371 Y107.153
G3 X86.2369 Y107.155 I-0.9979 J-0.0649
G1 X86.1671 Y108.1957
G3 X86.167 Y108.1969 I-0.9978 J-0.067
G3 X85.9437 Y111.3243 I-512.5076 J-35.0229
G3 X85.9435 Y111.3263 I-0.9972 J-0.0743
G1 X85.8478 Y112.5774
G3 X85.8476 Y112.5802 I-0.9971 J-0.0763
G1 X85.7546 Y113.7529
G3 X85.7544 Y113.7552 I-0.9969 J-0.079
G1 X85.6647 Y114.8544
G3 X85.6645 Y114.8572 I-0.9967 J-0.0813
G1 X85.4906 Y116.9177
G3 X85.4903 Y116.9205 I-0.9965 J-0.0841
G1 X85.335 Y118.7017
G1 X85.3331 Y118.7229 Z-4.9573
G3 X85.3329 Y118.7248 Z-4.9535 I-0.9962 J-0.0869
G1 X85.2018 Y120.1957 Z-2.0
G1 X85.1923 Y120.3017
G3 X85.1922 Y120.3033 I-0.996 J-0.0888
G1 X85.0212 Y122.1876
G1 X84.9418 Y123.0625 Z-3.7571
G3 X84.9417 Y123.0633 Z-3.7587 I-0.9959 J-0.0904
G1 X84.8851 Y123.6814 Z-5.0
G1 X84.7521 Y125.1326
G3 X84.7517 Y125.1373 I-0.9958 J-0.0912
G2 X84.6815 Y125.9039 I81.1895 J7.8231
G3 X84.6807 Y125.9125 I-0.9963 J-0.0865
G2 X84.6504 Y126.244 I41.2063 J3.9367
G3 X84.6496 Y126.2522 I-0.9962 J-0.0871
G2 X84.6213 Y126.5619 I35.7947 J3.4272
G3 X84.6203 Y126.5727 I-0.9962 J-0.0867
G2 X84.5671 Y127.1562 I43.8312 J4.2922
G3 X84.5659 Y127.1695 I-0.9964 J-0.0842
G2 X84.5196 Y127.6779 I36.474 J3.5738
G3 X84.5184 Y127.6915 I-0.9965 J-0.0836
G2 X84.4782 Y128.1344 I31.3421 J3.0654
G3 X84.477 Y128.1482 I-0.9965 J-0.0833
G2 X84.4421 Y128.534 I27.4739 J2.6783
G3 X84.4415 Y128.5407 I-0.9965 J-0.083
G2 X84.1926 Y131.337 I1350.7505 J121.6326
G1 X84.0754 Y132.6895
G1 X83.8602 Y135.2269
G1 X83.4913 Y139.6703
G1 Y139.6704
G1 X83.2144 Y143.0036
G3 X83.2143 Y143.0049 I-0.9966 J-0.0828
G1 X83.0034 Y145.5045
G3 X83.0032 Y145.5061 I-0.9965 J-0.0841
G1 X82.8422 Y147.3805
G3 X82.842 Y147.3818 I-0.9963 J-0.0856
G3 X82.3387 Y153.008 I-1276.297 J-111.3406
G3 X82.3386 Y153.0097 I-0.9958 J-0.0913
G1 X82.1148 Y155.4037
G3 X82.1146 Y155.4056 I-0.9957 J-0.0931
G2 X81.6907 Y159.8919 I2258.7831 J215.6796
G3 Y159.8926 I-0.9957 J-0.0931
G2 X80.9722 Y167.7434 I1468.4538 J138.3457
G1 X80.843 Y169.2155
G1 X80.7099 Y170.7649
G1 X80.6058 Y171.9772 Z-2.5665
G1 X80.582 Y172.2594 Z-2.0
G1 X80.5041 Y173.1853
G1 X80.4983 Y173.2554
G1 X80.4158 Y174.2525
G1 X80.3117 Y175.513 Z-4.5296
G1 X80.2926 Y175.7475 Z-5.0
G1 X80.2314 Y176.5001
G1 X80.0829 Y178.3522
G1 X80.0508 Y178.7566
G1 X79.8059 Y181.8974
G1 X79.7159 Y183.0749
G2 X79.1106 Y191.3206 I1596.6813 J121.3529
G3 X78.1131 Y192.25 I-0.9975 J-0.0706
G1 X51.5
G1 X50.0 Z-2.0
G1 X48.0
G1 X46.5 Z-5.0
G1 X20.1131
G3 X19.1163 Y191.3295 I0.0 J-1.0
G1 X18.734 Y186.5363
G1 X18.3938 Y182.3433
G1 X18.2431 Y180.5094
G1 X17.9571 Y177.0702
G2 X17.7436 Y174.5312 I-2281.6773 J190.6106
G2 X17.6165 Y173.0366 Z-2.0 I-2281.4637 J193.1496
G2 X17.4456 Y171.0439 I-2281.3367 J194.6442
G2 X17.3163 Y169.5495 Z-5.0 I-2281.1658 J196.6369
G2 X16.9201 Y165.0391 I-2281.0365 J198.1313
G1 X16.3828 Y159.0227
G1 X16.1133 Y156.0145
G3 X16.1132 Y156.014 I0.996 J-0.0892
G1 X16.0462 Y155.2619
G3 Y155.2616 I0.9961 J-0.0888
G1 X15.9961 Y154.6975
G3 X15.996 Y154.6971 I0.9961 J-0.0885
G1 X15.9212 Y153.851
G3 X15.9211 Y153.8504 I0.9961 J-0.0881
G1 X15.8467 Y153.0042
G3 X15.8466 Y153.0029 I0.9962 J-0.0876
G1 X15.6124 Y150.2952
G3 X15.6122 Y150.2934 I0.9963 J-0.0862
G1 X15.4115 Y147.9238
G3 X15.4113 Y147.922 I0.9964 J-0.0844
G1 X15.0675 Y143.7746
G3 Y143.7735 I0.9966 J-0.0826
G1 X14.5585 Y137.5523
G1 X14.43 Y135.9974
G1 Y135.9973
G2 X14.0336 Y131.3375 I-953.9221 J78.7931
G1 X13.9234 Y130.0888
G1 X13.7128 Y127.7471
G1 X13.338 Y123.6477
G3 X13.3379 Y123.6472 I0.9958 J-0.0911
G1 X13.3146 Y123.3907
G1 X13.1787 Y121.8969 Z-2.0
G1 X13.0582 Y120.5719
G3 X13.058 Y120.57 I0.9959 J-0.0906
G1 X12.9988 Y119.905
G1 X12.8658 Y118.4109 Z-5.0
G1 X12.8528 Y118.2658
G3 X12.8336 Y118.0468 I16.9332 J-1.5978
G3 X12.7968 Y117.6257 I22.6977 J-2.194
G3 X12.7627 Y117.2323 I21.4739 J-2.061
G3 X12.7309 Y116.8634 I20.3815 J-1.9431
G3 X12.7013 Y116.5175 I19.3974 J-1.8365
G3 X12.6736 Y116.1932 I18.5032 J-1.7395
G3 X12.6479 Y115.8891 I17.6854 J-1.6508
G3 X12.6239 Y115.604 I16.9326 J-1.5693
G3 X12.6011 Y115.3317 I16.2361 J-1.4941
G1 X12.4383 Y113.3369
G3 X12.4175 Y113.0754 I14.5738 J-1.2882
G1 X12.283 Y111.3309
G3 X12.2592 Y111.0116 I15.5662 J-1.325
G3 X12.2364 Y110.7035 I15.7005 J-1.3144
G3 X12.2142 Y110.4002 I15.8349 J-1.3103
G3 X12.1926 Y110.1016 I15.9696 J-1.3066
G3 X12.1715 Y109.8077 I16.1047 J-1.3033
G3 X12.1509 Y109.5184 I16.2411 J-1.3002
G3 X12.1309 Y109.2336 I16.3784 J-1.2976
G3 X12.1113 Y108.9533 I16.5159 J-1.2952
G3 X12.0921 Y108.6773 I16.6547 J-1.2932
G3 X12.0733 Y108.4024 I16.7944 J-1.2915
G3 X11.9313 Y106.2693 I314.7694 J-22.0252
G3 X11.916 Y106.0329 I18.199 J-1.2954
G3 X11.9013 Y105.8039 I18.3589 J-1.2949
G3 X11.872 Y105.3445 I25.9832 J-1.885
G3 X11.4501 Y98.3263 I1631.8546 J-101.6194
G1 X11.2445 Y94.818
G1 X11.1395 Y93.0649
G1 X11.0317 Y91.3123
G1 X10.9527 Y90.0638
G1 X10.8002 Y87.7216
G1 X10.6631 Y85.6725
G1 X10.1719 Y78.4964
G3 X10.1718 Y78.4953 I0.9977 J-0.0683
G1 X9.9303 Y74.9094
G3 X9.9004 Y74.4563 I33.0525 J-2.4108
G3 X9.8746 Y74.0634 I30.1554 J-2.1765
G3 X9.8519 Y73.7159 I27.656 J-1.9786
G1 X9.6985 Y71.3138
G3 X9.6983 Y71.3115 I0.998 J-0.0638
G1 X9.6149 Y69.9583
G3 X9.6148 Y69.9566 I0.9981 J-0.0615
G1 X9.5456 Y68.8019
G1 X9.5388 Y68.6878 Z-4.7713
G3 X9.5386 Y68.6854 Z-4.7664 I0.9982 J-0.0598
G1 X9.4593 Y67.3044 Z-2.0
G1 X9.4019 Y66.3061
G3 X9.4018 Y66.303 I0.9984 J-0.0574
G1 X9.3477 Y65.3075
G1 X9.2886 Y64.2208 Z-4.1768
G3 X9.2885 Y64.2187 Z-4.181 I0.9985 J-0.0543
G1 X9.2671 Y63.8097 Z-5.0
G1 X9.2409 Y63.3076
G3 Y63.3074 I0.9986 J-0.0522
G3 X8.9195 Y56.4624 I670.5837 J-34.9139
G3 Y56.462 I0.9991 J-0.0418
G1 X8.8486 Y54.7528
G3 Y54.7511 I0.9991 J-0.0414
G1 X8.7976 Y53.4691
G3 Y53.4679 I0.9992 J-0.0397
G1 X8.7606 Y52.5064
G3 Y52.5051 I0.9993 J-0.0384
G1 X8.707 Y51.0628
G3 X8.7069 Y51.062 I0.9993 J-0.0371
G1 X8.7036 Y50.9718
G1 X8.7006 Y50.8872
G3 Y50.8865 I0.9993 J-0.0363
G1 X8.6554 Y49.6189
G3 Y49.618 I0.9994 J-0.0356
G1 X8.6346 Y49.0193
G3 Y49.0189 I0.9994 J-0.0347
G3 X8.2094 Y30.1303 I803.2276 J-27.5306
G1 X8.1842 Y27.7717
G3 Y27.7699 I0.9999 J-0.0107
G1 X8.1817 Y27.4913
G1 X8.1684 Y25.9914 Z-2.0
G1 X8.1659 Y25.706
G3 Y25.7046 I1.0 J-0.0089
G1 X8.1531 Y23.9914
G1 X8.1524 Y23.8987 Z-2.1854
G3 Y23.8978 Z-2.1872 I1.0 J-0.0074
G1 X8.1473 Y23.1077 Z-3.7674
G3 Y23.1065 Z-3.7699 I1.0 J-0.0065
G1 X8.144 Y22.4914 Z-5.0
G1 X8.1316 Y20.1437
G3 Y20.1428 I1.0 J-0.0053
G1 X8.1309 Y20.0039
G3 Y20.0032 I1.0 J-0.0044
G1 X8.1229 Y17.8158
G3 X8.1228 Y17.8143 I1.0 J-0.0037
G1 X8.1154 Y14.5333
G3 Y14.5317 I1.0 J-0.0023
G1 X8.1131 Y11.2507
G3 X9.1131 Y10.25 I1.0 J-0.0007
G1 X45.5
G1 X47.0 Z-2.0
G1 X49.0
G1 X50.5 Z-5.0
G1 X89.1131
G3 X90.1131 Y11.2505 I0.0 J1.0
G1 X90.1119 Y13.6275
G3 X90.1123 Y13.7175 I-1.7083 J0.0531
G3 X90.1122 Y13.7877 I-1.7077 J0.0332
G3 X90.1121 Y13.8577 I-1.7065 J0.0331
G3 Y13.9276 I-1.7053 J0.033
G3 X90.1114 Y14.017 I-1.7041 J0.0328
G1 X90.1076 Y16.2224
G3 Y16.2232 I-1.0 J-0.0017
G1 X90.105 Y17.2661
G3 Y17.2669 I-1.0 J-0.0025
G1 X90.0982 Y19.2872
G3 Y19.2883 I-1.0 J-0.0034
G1 X90.0897 Y21.1823
G3 Y21.1835 I-1.0 J-0.0045
G1 X90.0798 Y22.9592
G3 Y22.9603 I-1.0 J-0.0056
G1 X90.0793 Y23.0443
G1 X90.0692 Y24.5459 Z-2.0
G1 X90.0686 Y24.625
G3 Y24.6259 I-1.0 J-0.0067
G1 X90.0628 Y25.3894
G3 X90.0627 Y25.4538 I-1.5145 J0.0288
G3 X90.0618 Y25.5187 I-1.5139 J0.0116
G1 X90.0525 Y26.5479
G1 X90.0388 Y28.0494 Z-5.0
G1 X90.0346 Y28.514
G3 Y28.5164 I-1.0 J-0.0091
G1 X90.0044 Y31.1517
G3 Y31.154 I-0.9999 J-0.0114
G1 X89.9726 Y33.4599
G3 Y33.4621 I-0.9999 J-0.0138
G1 X89.9403 Y35.4743
G3 X89.9363 Y35.7079 I-9.9994 J-0.0556
G3 X89.8687 Y39.1807 I-1078.5417 J-19.2467
G3 Y39.1821 I-0.9998 J-0.0211
G1 X89.8395 Y40.4853
G3 X89.8394 Y40.4861 I-0.9997 J-0.0225
G3 X89.5708 Y49.6189 I-742.4569 J-17.2682
G3 Y49.6197 I-0.9994 J-0.0355
G1 X89.4723 Y52.3294
G3 X89.4722 Y52.3321 I-0.9993 J-0.0363
G1 X89.3796 Y54.7029
G3 X89.3795 Y54.7039 I-0.9992 J-0.039
G3 X88.9531 Y63.9217 I-737.8882 J-29.5147
G3 X88.8729 Y65.4196 Z-2.0 I-737.4618 J-38.7326
G3 X88.7613 Y67.4165 I-737.3816 J-40.2304
G3 X88.674 Y68.9139 Z-5.0 I-737.27 J-42.2273
G3 X88.5278 Y71.3125 I-737.1827 J-43.7248
G3 Y71.3131 I-0.998 J-0.0625
G1 X88.4487 Y72.5634
G3 X88.4486 Y72.5653 I-0.998 J-0.0631
G1 X88.2959 Y74.9093
G3 X88.2958 Y74.911 I-0.9979 J-0.065
G1 X88.1585 Y76.9618
G3 X88.1584 Y76.9633 I-0.9978 J-0.0668
G1 X87.6673 Y84.1396
G1 X87.4256 Y87.7278
G3 X87.4252 Y87.7334 I-0.9977 J-0.0672
G2 X87.3965 Y88.1681 I31.0576 J2.268
G3 X87.3956 Y88.1815 I-0.9983 J-0.0589
G2 X87.3708 Y88.5606 I28.1601 J2.0388
G3 X87.3699 Y88.5734 I-0.9983 J-0.0588
G2 X87.3483 Y88.9041 I25.6607 J1.8418
G3 X87.348 Y88.9091 I-0.9983 J-0.0587
G1 X87.1944 Y91.3138
G3 X87.194 Y91.3191 I-0.998 J-0.0638
G0 F200
( Contour4 )
S1000
G0 Z3.0
G0 X91.9191 Y111.5589
G0 Z1.0
G1 F20.0 Z-1.0
G2 F150.0 X91.9377 Y111.2601 I-21.689 J-1.5014
G3 X91.9385 Y111.247 I0.9985 J0.0553
G2 X91.9567 Y110.9526 I-22.1362 J-1.5188
G3 X91.9575 Y110.9399 I0.9985 J0.0552
G2 X91.9754 Y110.6499 I-22.608 J-1.538
G3 X91.9761 Y110.6376 I0.9985 J0.0551
G2 X91.9936 Y110.3519 I-23.1074 J-1.5592
G3 X91.9943 Y110.34 I0.9985 J0.055
G2 X92.0115 Y110.0585 I-23.6381 J-1.5824
G3 X92.0122 Y110.0471 I0.9985 J0.0549
G2 X92.029 Y109.7696 I-24.2045 J-1.6081
G3 X92.0297 Y109.7587 I0.9985 J0.0549
G2 X92.0462 Y109.4853 I-24.811 J-1.6364
G3 X92.047 Y109.4728 I0.9985 J0.0548
G2 X92.0797 Y108.9276 I-37.0501 J-2.4991
G3 X92.0805 Y108.914 I0.9986 J0.0526
G2 X92.1121 Y108.385 I-39.2533 J-2.607
G3 X92.1128 Y108.3726 I0.9986 J0.0528
G2 X92.1433 Y107.8593 I-41.913 J-2.7431
G3 X92.1439 Y107.848 I0.9986 J0.0531
G2 X92.1733 Y107.35 I-45.2254 J-2.919
G3 X92.1739 Y107.3398 I0.9986 J0.0534
G2 X92.2023 Y106.8565 I-49.5242 J-3.1539
G3 X92.2029 Y106.8475 I0.9986 J0.0538
G2 X92.2304 Y106.3783 I-55.4342 J-3.4844
G3 X92.2305 Y106.3752 I0.9985 J0.0543
G3 X92.6693 Y98.9675 I2133.0091 J122.6175
G3 X92.6694 Y98.9657 I0.9981 J0.0609
G1 X92.7856 Y97.1151
G3 X92.7857 Y97.1128 I0.998 J0.0626
G1 X92.876 Y95.725
G3 X92.8762 Y95.723 I0.9979 J0.0649
G1 X92.946 Y94.6823
G3 X92.9461 Y94.6811 I0.9978 J0.067
G3 X93.1694 Y91.5537 I512.5076 J35.0229
G3 X93.1696 Y91.5517 I0.9972 J0.0743
G1 X93.2653 Y90.3005
G3 X93.2655 Y90.2978 I0.9971 J0.0763
G1 X93.3585 Y89.1251
G3 X93.3587 Y89.1228 I0.9969 J0.079
G1 X93.4484 Y88.0235
G3 X93.4486 Y88.0208 I0.9967 J0.0813
G1 X93.6225 Y85.9603
G3 X93.6227 Y85.9575 I0.9965 J0.0841
G1 X93.78 Y84.1551
G3 X93.7802 Y84.1532 I0.9962 J0.0869
G1 X93.9208 Y82.5763
G3 X93.9209 Y82.5747 I0.996 J0.0888
G1 X94.1713 Y79.8155
G3 X94.1714 Y79.8147 I0.9959 J0.0904
G1 X94.361 Y77.7454
G3 X94.3614 Y77.7407 I0.9958 J0.0912
G2 X94.4316 Y76.9741 I-81.1895 J-7.8231
G3 X94.4324 Y76.9655 I0.9963 J0.0865
G2 X94.4627 Y76.634 I-41.2063 J-3.9367
G3 X94.4635 Y76.6258 I0.9962 J0.0871
G2 X94.4918 Y76.3161 I-35.7947 J-3.4272
G3 X94.4928 Y76.3053 I0.9962 J0.0867
G2 X94.546 Y75.7218 I-43.8312 J-4.2922
G3 X94.5472 Y75.7085 I0.9964 J0.0842
G2 X94.5935 Y75.2001 I-36.474 J-3.5738
G3 X94.5947 Y75.1864 I0.9965 J0.0836
G2 X94.6349 Y74.7435 I-31.3421 J-3.0654
G3 X94.6361 Y74.7298 I0.9965 J0.0833
G2 X94.671 Y74.3439 I-27.4739 J-2.6783
G3 X94.6716 Y74.3373 I0.9965 J0.083
G2 X94.9205 Y71.541 I-1350.7505 J-121.6326
G1 X95.0377 Y70.1885
G1 X95.2529 Y67.651
G1 X95.6218 Y63.2077
G1 Y63.2076
G1 X95.8987 Y59.8744
G3 X95.8988 Y59.8731 I0.9966 J0.0828
G1 X96.1097 Y57.3735
G3 X96.1098 Y57.3719 I0.9965 J0.0841
G1 X96.2709 Y55.4975
G3 X96.2711 Y55.4962 I0.9963 J0.0856
G3 X96.7744 Y49.87 I1276.297 J111.3406
G3 X96.7745 Y49.8682 I0.9958 J0.0913
G1 X96.9983 Y47.4743
G3 X96.9985 Y47.4723 I0.9957 J0.0931
G2 X97.4224 Y42.9861 I-2258.7831 J-215.6796
G3 Y42.9853 I0.9957 J0.0931
G2 X98.1409 Y35.1346 I-1468.4538 J-138.3457
G1 X98.2701 Y33.6624
G1 X98.5073 Y30.9008
G1 X98.609 Y29.6927
G1 X98.6148 Y29.6225
G1 X98.8014 Y27.365
G1 X98.8817 Y26.3779
G1 X99.0302 Y24.5257
G1 X99.0623 Y24.1214
G1 X99.3072 Y20.9806
G1 X99.3972 Y19.8031
G2 X100.0025 Y11.5573 I-1596.6813 J-121.3529
G3 X101.0 Y10.628 I0.9975 J0.0706
G1 X159.0
G3 X159.9968 Y11.5485 I0.0 J1.0
G1 X160.3791 Y16.3417
G1 X160.7193 Y20.5347
G1 X160.87 Y22.3686
G1 X161.156 Y25.8078
G2 X162.193 Y37.8389 I2281.6773 J-190.6106
G1 X162.7303 Y43.8553
G1 X162.9998 Y46.8635
G3 X162.9999 Y46.8639 I-0.996 J0.0892
G1 X163.0669 Y47.6161
G3 Y47.6164 I-0.9961 J0.0888
G1 X163.117 Y48.1805
G3 X163.1171 Y48.1809 I-0.9961 J0.0885
G1 X163.1919 Y49.027
G3 X163.192 Y49.0276 I-0.9961 J0.0881
G1 X163.2663 Y49.8737
G3 X163.2665 Y49.8751 I-0.9962 J0.0876
G1 X163.5007 Y52.5828
G3 X163.5009 Y52.5846 I-0.9963 J0.0862
G1 X163.7016 Y54.9542
G3 X163.7018 Y54.956 I-0.9964 J0.0844
G1 X164.0456 Y59.1034
G3 Y59.1045 I-0.9966 J0.0826
G1 X164.5546 Y65.3257
G1 X164.6831 Y66.8806
G1 Y66.8807
G2 X165.0795 Y71.5404 I953.9221 J-78.7931
G1 X165.1897 Y72.7892
G1 X165.4003 Y75.1308
G1 X165.7751 Y79.2303
G3 X165.7752 Y79.2308 I-0.9958 J0.0911
G1 X166.0549 Y82.3061
G3 X166.0551 Y82.308 I-0.9959 J0.0906
G1 X166.2603 Y84.6121
G3 X166.2795 Y84.8312 I-16.9332 J1.5978
G3 X166.3163 Y85.2523 I-22.6977 J2.194
G3 X166.3504 Y85.6457 I-21.4739 J2.061
G3 X166.3822 Y86.0146 I-20.3815 J1.9431
G3 X166.4118 Y86.3605 I-19.3974 J1.8365
G3 X166.4395 Y86.6848 I-18.5032 J1.7395
G3 X166.4652 Y86.9889 I-17.6854 J1.6508
G3 X166.4892 Y87.274 I-16.9326 J1.5693
G3 X166.512 Y87.5463 I-16.2361 J1.4941
G1 X166.6748 Y89.541
G3 X166.6956 Y89.8026 I-14.5738 J1.2882
G1 X166.8301 Y91.5471
G3 X166.8539 Y91.8663 I-15.5662 J1.325
G3 X166.8767 Y92.1745 I-15.7005 J1.3144
G3 X166.8989 Y92.4778 I-15.8349 J1.3103
G3 X166.9205 Y92.7764 I-15.9696 J1.3066
G3 X166.9416 Y93.0703 I-16.1047 J1.3033
G3 X166.9622 Y93.3596 I-16.2411 J1.3002
G3 X166.9822 Y93.6444 I-16.3784 J1.2976
G3 X167.0018 Y93.9247 I-16.5159 J1.2952
G3 X167.021 Y94.2007 I-16.6547 J1.2932
G3 X167.0398 Y94.4756 I-16.7944 J1.2915
G3 X167.1818 Y96.6086 I-314.7694 J22.0252
G3 X167.1971 Y96.8451 I-18.199 J1.2954
G3 X167.2118 Y97.0741 I-18.3589 J1.2949
G3 X167.2411 Y97.5335 I-25.9832 J1.885
G3 X167.663 Y104.5517 I-1631.8546 J101.6194
G1 X167.8686 Y108.06
G1 X167.9736 Y109.8131
G1 X168.0814 Y111.5657
G1 X168.1604 Y112.8142
G1 X168.3129 Y115.1564
G1 X168.45 Y117.2055
G1 X168.9412 Y124.3816
G3 X168.9413 Y124.3826 I-0.9977 J0.0683
G1 X169.1828 Y127.9686
G3 X169.2127 Y128.4217 I-33.0525 J2.4108
G3 X169.2385 Y128.8146 I-30.1554 J2.1765
G3 X169.2612 Y129.162 I-27.656 J1.9786
G1 X169.4146 Y131.5642
G3 X169.4148 Y131.5665 I-0.998 J0.0638
G1 X169.4982 Y132.9197
G3 X169.4983 Y132.9214 I-0.9981 J0.0615
G1 X169.5743 Y134.1902
G3 X169.5745 Y134.1926 I-0.9982 J0.0598
G1 X169.7112 Y136.5719
G3 X169.7113 Y136.575 I-0.9984 J0.0574
G1 X169.8245 Y138.6572
G3 X169.8246 Y138.6593 I-0.9985 J0.0543
G1 X169.8722 Y139.5704
G3 Y139.5706 I-0.9986 J0.0522
G3 X170.1936 Y146.4156 I-670.5837 J34.9139
G3 Y146.416 I-0.9991 J0.0418
G1 X170.2645 Y148.1251
G3 Y148.1269 I-0.9991 J0.0414
G1 X170.3155 Y149.4088
G3 Y149.4101 I-0.9992 J0.0397
G1 X170.3525 Y150.3716
G3 Y150.3729 I-0.9993 J0.0384
G1 X170.4061 Y151.8152
G3 X170.4062 Y151.816 I-0.9993 J0.0371
G1 X170.4095 Y151.9061
G1 Y151.9062
G1 X170.4125 Y151.9908
G3 Y151.9914 I-0.9993 J0.0363
G1 X170.4577 Y153.2591
G3 Y153.26 I-0.9994 J0.0356
G1 X170.4785 Y153.8587
G3 Y153.8591 I-0.9994 J0.0347
G3 X170.9037 Y172.7476 I-803.2276 J27.5306
G1 Y172.7477
G1 X170.9289 Y175.1063
G3 Y175.1081 I-0.9999 J0.0107
G1 X170.9472 Y177.1719
G3 Y177.1734 I-1.0 J0.0089
G1 X170.9607 Y178.9793
G3 Y178.9802 I-1.0 J0.0074
G1 X170.9658 Y179.7703
G3 Y179.7715 I-1.0 J0.0065
G1 X170.9815 Y182.7343
G3 Y182.7352 I-1.0 J0.0053
G1 X170.9822 Y182.8741
G3 Y182.8748 I-1.0 J0.0044
G1 X170.9902 Y185.0622
G3 X170.9903 Y185.0636 I-1.0 J0.0037
G1 X170.9977 Y188.3447
G3 Y188.3463 I-1.0 J0.0023
G1 X171.0 Y191.6273
G3 X170.0 Y192.628 I-1.0 J0.0007
G1 X90.0
G3 X89.0 Y191.6275 I0.0 J-1.0
G1 X89.0012 Y189.2505
G3 X89.0008 Y189.1605 I1.7083 J-0.0531
G3 X89.0009 Y189.0903 I1.7077 J-0.0332
G3 X89.001 Y189.0203 I1.7065 J-0.0331
G3 Y188.9504 I1.7053 J-0.033
G3 X89.0017 Y188.8609 I1.7041 J-0.0328
G1 X89.0055 Y186.6555
G3 Y186.6547 I1.0 J0.0017
G1 X89.0081 Y185.6119
G3 Y185.6111 I1.0 J0.0025
G1 X89.0149 Y183.5908
G3 Y183.5897 I1.0 J0.0034
G1 X89.0234 Y181.6957
G3 Y181.6945 I1.0 J0.0045
G1 X89.0333 Y179.9188
G3 Y179.9177 I1.0 J0.0056
G1 X89.0445 Y178.253
G3 Y178.2521 I1.0 J0.0067
G1 X89.0503 Y177.4886
G3 X89.0504 Y177.4241 I1.5145 J-0.0288
G3 X89.0513 Y177.3593 I1.5139 J-0.0116
G1 X89.0785 Y174.3639
G3 Y174.3616 I1.0 J0.0091
G1 X89.1087 Y171.7263
G3 Y171.724 I0.9999 J0.0114
G1 X89.1405 Y169.4181
G3 Y169.4159 I0.9999 J0.0138
G1 X89.1728 Y167.4037
G3 X89.1768 Y167.1701 I9.9994 J0.0556
G3 X89.2444 Y163.6972 I1078.5417 J19.2467
G3 Y163.6959 I0.9998 J0.0211
G1 X89.2736 Y162.3927
G3 X89.2737 Y162.3919 I0.9997 J0.0225
G3 X89.5423 Y153.2591 I742.4569 J17.2682
G3 Y153.2583 I0.9994 J0.0355
G1 X89.6408 Y150.5486
G3 X89.6409 Y150.5459 I0.9993 J0.0363
G1 X89.7335 Y148.1751
G3 X89.7336 Y148.1741 I0.9992 J0.039
G3 X90.5853 Y131.5655 I737.8882 J29.5147
G3 Y131.5649 I0.998 J0.0625
G1 X90.6644 Y130.3146
G3 X90.6645 Y130.3127 I0.998 J0.0631
G1 X90.8172 Y127.9687
G3 X90.8173 Y127.9669 I0.9979 J0.065
G1 X90.9545 Y125.9162
G3 X90.9547 Y125.9146 I0.9978 J0.0668
G1 X91.4458 Y118.7384
G1 X91.6875 Y115.1502
G3 X91.6879 Y115.1445 I0.9977 J0.0672
G2 X91.7166 Y114.7099 I-31.0576 J-2.268
G3 X91.7175 Y114.6965 I0.9983 J0.0589
G2 X91.7423 Y114.3174 I-28.1601 J-2.0388
G3 X91.7432 Y114.3046 I0.9983 J0.0588
G2 X91.7648 Y113.9739 I-25.6607 J-1.8418
G3 X91.7651 Y113.9689 I0.9983 J0.0587
G1 X91.9187 Y111.5642
G3 X91.9191 Y111.5589 I0.998 J0.0638
G1 F20.0 Z-2.0
G2 F150.0 X91.9377 Y111.2601 I-21.689 J-1.5014
G3 X91.9385 Y111.247 I0.9985 J0.0553
G2 X91.9567 Y110.9526 I-22.1362 J-1.5188
G3 X91.9575 Y110.9399 I0.9985 J0.0552
G2 X91.9754 Y110.6499 I-22.608 J-1.538
G3 X91.9761 Y110.6376 I0.9985 J0.0551
G2 X91.9936 Y110.3519 I-23.1074 J-1.5592
G3 X91.9943 Y110.34 I0.9985 J0.055
G2 X92.0115 Y110.0585 I-23.6381 J-1.5824
G3 X92.0122 Y110.0471 I0.9985 J0.0549
G2 X92.029 Y109.7696 I-24.2045 J-1.6081
G3 X92.0297 Y109.7587 I0.9985 J0.0549
G2 X92.0462 Y109.4853 I-24.811 J-1.6364
G3 X92.047 Y109.4728 I0.9985 J0.0548
G2 X92.0797 Y108.9276 I-37.0501 J-2.4991
G3 X92.0805 Y108.914 I0.9986 J0.0526
G2 X92.1121 Y108.385 I-39.2533 J-2.607
G3 X92.1128 Y108.3726 I0.9986 J0.0528
G2 X92.1433 Y107.8593 I-41.913 J-2.7431
G3 X92.1439 Y107.848 I0.9986 J0.0531
G2 X92.1733 Y107.35 I-45.2254 J-2.919
G3 X92.1739 Y107.3398 I0.9986 J0.0534
G2 X92.2023 Y106.8565 I-49.5242 J-3.1539
G3 X92.2029 Y106.8475 I0.9986 J0.0538
G2 X92.2304 Y106.3783 I-55.4342 J-3.4844
G3 X92.2305 Y106.3752 I0.9985 J0.0543
G3 X92.6693 Y98.9675 I2133.0091 J122.6175
G3 X92.6694 Y98.9657 I0.9981 J0.0609
G1 X92.7856 Y97.1151
G3 X92.7857 Y97.1128 I0.998 J0.0626
G1 X92.876 Y95.725
G3 X92.8762 Y95.723 I0.9979 J0.0649
G1 X92.946 Y94.6823
G3 X92.9461 Y94.6811 I0.9978 J0.067
G3 X93.1694 Y91.5537 I512.5076 J35.0229
G3 X93.1696 Y91.5517 I0.9972 J0.0743
G1 X93.2653 Y90.3005
G3 X93.2655 Y90.2978 I0.9971 J0.0763
G1 X93.3585 Y89.1251
G3 X93.3587 Y89.1228 I0.9969 J0.079
G1 X93.4484 Y88.0235
G3 X93.4486 Y88.0208 I0.9967 J0.0813
G1 X93.6225 Y85.9603
G3 X93.6227 Y85.9575 I0.9965 J0.0841
G1 X93.78 Y84.1551
G3 X93.7802 Y84.1532 I0.9962 J0.0869
G1 X93.9208 Y82.5763
G3 X93.9209 Y82.5747 I0.996 J0.0888
G1 X94.1713 Y79.8155
G3 X94.1714 Y79.8147 I0.9959 J0.0904
G1 X94.361 Y77.7454
G3 X94.3614 Y77.7407 I0.9958 J0.0912
G2 X94.4316 Y76.9741 I-81.1895 J-7.8231
G3 X94.4324 Y76.9655 I0.9963 J0.0865
G2 X94.4627 Y76.634 I-41.2063 J-3.9367
G3 X94.4635 Y76.6258 I0.9962 J0.0871
G2 X94.4918 Y76.3161 I-35.7947 J-3.4272
G3 X94.4928 Y76.3053 I0.9962 J0.0867
G2 X94.546 Y75.7218 I-43.8312 J-4.2922
G3 X94.5472 Y75.7085 I0.9964 J0.0842
G2 X94.5935 Y75.2001 I-36.474 J-3.5738
G3 X94.5947 Y75.1864 I0.9965 J0.0836
G2 X94.6349 Y74.7435 I-31.3421 J-3.0654
G3 X94.6361 Y74.7298 I0.9965 J0.0833
G2 X94.671 Y74.3439 I-27.4739 J-2.6783
G3 X94.6716 Y74.3373 I0.9965 J0.083
G2 X94.9205 Y71.541 I-1350.7505 J-121.6326
G1 X95.0377 Y70.1885
G1 X95.2529 Y67.651
G1 X95.6218 Y63.2077
G1 Y63.2076
G1 X95.8987 Y59.8744
G3 X95.8988 Y59.8731 I0.9966 J0.0828
G1 X96.1097 Y57.3735
G3 X96.1098 Y57.3719 I0.9965 J0.0841
G1 X96.2709 Y55.4975
G3 X96.2711 Y55.4962 I0.9963 J0.0856
G3 X96.7744 Y49.87 I1276.297 J111.3406
G3 X96.7745 Y49.8682 I0.9958 J0.0913
G1 X96.9983 Y47.4743
G3 X96.9985 Y47.4723 I0.9957 J0.0931
G2 X97.4224 Y42.9861 I-2258.7831 J-215.6796
G3 Y42.9853 I0.9957 J0.0931
G2 X98.1409 Y35.1346 I-1468.4538 J-138.3457
G1 X98.2701 Y33.6624
G1 X98.5073 Y30.9008
G1 X98.609 Y29.6927
G1 X98.6148 Y29.6225
G1 X98.8014 Y27.365
G1 X98.8817 Y26.3779
G1 X99.0302 Y24.5257
G1 X99.0623 Y24.1214
G1 X99.3072 Y20.9806
G1 X99.3972 Y19.8031
G2 X100.0025 Y11.5573 I-1596.6813 J-121.3529
G3 X101.0 Y10.628 I0.9975 J0.0706
G1 X159.0
G3 X159.9968 Y11.5485 I0.0 J1.0
G1 X160.3791 Y16.3417
G1 X160.7193 Y20.5347
G1 X160.87 Y22.3686
G1 X161.156 Y25.8078
G2 X162.193 Y37.8389 I2281.6773 J-190.6106
G1 X162.7303 Y43.8553
G1 X162.9998 Y46.8635
G3 X162.9999 Y46.8639 I-0.996 J0.0892
G1 X163.0669 Y47.6161
G3 Y47.6164 I-0.9961 J0.0888
G1 X163.117 Y48.1805
G3 X163.1171 Y48.1809 I-0.9961 J0.0885
G1 X163.1919 Y49.027
G3 X163.192 Y49.0276 I-0.9961 J0.0881
G1 X163.2663 Y49.8737
G3 X163.2665 Y49.8751 I-0.9962 J0.0876
G1 X163.5007 Y52.5828
G3 X163.5009 Y52.5846 I-0.9963 J0.0862
G1 X163.7016 Y54.9542
G3 X163.7018 Y54.956 I-0.9964 J0.0844
G1 X164.0456 Y59.1034
G3 Y59.1045 I-0.9966 J0.0826
G1 X164.5546 Y65.3257
G1 X164.6831 Y66.8806
G1 Y66.8807
G2 X165.0795 Y71.5404 I953.9221 J-78.7931
G1 X165.1897 Y72.7892
G1 X165.4003 Y75.1308
G1 X165.7751 Y79.2303
G3 X165.7752 Y79.2308 I-0.9958 J0.0911
G1 X166.0549 Y82.3061
G3 X166.0551 Y82.308 I-0.9959 J0.0906
G1 X166.2603 Y84.6121
G3 X166.2795 Y84.8312 I-16.9332 J1.5978
G3 X166.3163 Y85.2523 I-22.6977 J2.194
G3 X166.3504 Y85.6457 I-21.4739 J2.061
G3 X166.3822 Y86.0146 I-20.3815 J1.9431
G3 X166.4118 Y86.3605 I-19.3974 J1.8365
G3 X166.4395 Y86.6848 I-18.5032 J1.7395
G3 X166.4652 Y86.9889 I-17.6854 J1.6508
G3 X166.4892 Y87.274 I-16.9326 J1.5693
G3 X166.512 Y87.5463 I-16.2361 J1.4941
G1 X166.6748 Y89.541
G3 X166.6956 Y89.8026 I-14.5738 J1.2882
G1 X166.8301 Y91.5471
G3 X166.8539 Y91.8663 I-15.5662 J1.325
G3 X166.8767 Y92.1745 I-15.7005 J1.3144
G3 X166.8989 Y92.4778 I-15.8349 J1.3103
G3 X166.9205 Y92.7764 I-15.9696 J1.3066
G3 X166.9416 Y93.0703 I-16.1047 J1.3033
G3 X166.9622 Y93.3596 I-16.2411 J1.3002
G3 X166.9822 Y93.6444 I-16.3784 J1.2976
G3 X167.0018 Y93.9247 I-16.5159 J1.2952
G3 X167.021 Y94.2007 I-16.6547 J1.2932
G3 X167.0398 Y94.4756 I-16.7944 J1.2915
G3 X167.1818 Y96.6086 I-314.7694 J22.0252
G3 X167.1971 Y96.8451 I-18.199 J1.2954
G3 X167.2118 Y97.0741 I-18.3589 J1.2949
G3 X167.2411 Y97.5335 I-25.9832 J1.885
G3 X167.663 Y104.5517 I-1631.8546 J101.6194
G1 X167.8686 Y108.06
G1 X167.9736 Y109.8131
G1 X168.0814 Y111.5657
G1 X168.1604 Y112.8142
G1 X168.3129 Y115.1564
G1 X168.45 Y117.2055
G1 X168.9412 Y124.3816
G3 X168.9413 Y124.3826 I-0.9977 J0.0683
G1 X169.1828 Y127.9686
G3 X169.2127 Y128.4217 I-33.0525 J2.4108
G3 X169.2385 Y128.8146 I-30.1554 J2.1765
G3 X169.2612 Y129.162 I-27.656 J1.9786
G1 X169.4146 Y131.5642
G3 X169.4148 Y131.5665 I-0.998 J0.0638
G1 X169.4982 Y132.9197
G3 X169.4983 Y132.9214 I-0.9981 J0.0615
G1 X169.5743 Y134.1902
G3 X169.5745 Y134.1926 I-0.9982 J0.0598
G1 X169.7112 Y136.5719
G3 X169.7113 Y136.575 I-0.9984 J0.0574
G1 X169.8245 Y138.6572
G3 X169.8246 Y138.6593 I-0.9985 J0.0543
G1 X169.8722 Y139.5704
G3 Y139.5706 I-0.9986 J0.0522
G3 X170.1936 Y146.4156 I-670.5837 J34.9139
G3 Y146.416 I-0.9991 J0.0418
G1 X170.2645 Y148.1251
G3 Y148.1269 I-0.9991 J0.0414
G1 X170.3155 Y149.4088
G3 Y149.4101 I-0.9992 J0.0397
G1 X170.3525 Y150.3716
G3 Y150.3729 I-0.9993 J0.0384
G1 X170.4061 Y151.8152
G3 X170.4062 Y151.816 I-0.9993 J0.0371
G1 X170.4095 Y151.9061
G1 Y151.9062
G1 X170.4125 Y151.9908
G3 Y151.9914 I-0.9993 J0.0363
G1 X170.4577 Y153.2591
G3 Y153.26 I-0.9994 J0.0356
G1 X170.4785 Y153.8587
G3 Y153.8591 I-0.9994 J0.0347
G3 X170.9037 Y172.7476 I-803.2276 J27.5306
G1 Y172.7477
G1 X170.9289 Y175.1063
G3 Y175.1081 I-0.9999 J0.0107
G1 X170.9472 Y177.1719
G3 Y177.1734 I-1.0 J0.0089
G1 X170.9607 Y178.9793
G3 Y178.9802 I-1.0 J0.0074
G1 X170.9658 Y179.7703
G3 Y179.7715 I-1.0 J0.0065
G1 X170.9815 Y182.7343
G3 Y182.7352 I-1.0 J0.0053
G1 X170.9822 Y182.8741
G3 Y182.8748 I-1.0 J0.0044
G1 X170.9902 Y185.0622
G3 X170.9903 Y185.0636 I-1.0 J0.0037
G1 X170.9977 Y188.3447
G3 Y188.3463 I-1.0 J0.0023
G1 X171.0 Y191.6273
G3 X170.0 Y192.628 I-1.0 J0.0007
G1 X90.0
G3 X89.0 Y191.6275 I0.0 J-1.0
G1 X89.0012 Y189.2505
G3 X89.0008 Y189.1605 I1.7083 J-0.0531
G3 X89.0009 Y189.0903 I1.7077 J-0.0332
G3 X89.001 Y189.0203 I1.7065 J-0.0331
G3 Y188.9504 I1.7053 J-0.033
G3 X89.0017 Y188.8609 I1.7041 J-0.0328
G1 X89.0055 Y186.6555
G3 Y186.6547 I1.0 J0.0017
G1 X89.0081 Y185.6119
G3 Y185.6111 I1.0 J0.0025
G1 X89.0149 Y183.5908
G3 Y183.5897 I1.0 J0.0034
G1 X89.0234 Y181.6957
G3 Y181.6945 I1.0 J0.0045
G1 X89.0333 Y179.9188
G3 Y179.9177 I1.0 J0.0056
G1 X89.0445 Y178.253
G3 Y178.2521 I1.0 J0.0067
G1 X89.0503 Y177.4886
G3 X89.0504 Y177.4241 I1.5145 J-0.0288
G3 X89.0513 Y177.3593 I1.5139 J-0.0116
G1 X89.0785 Y174.3639
G3 Y174.3616 I1.0 J0.0091
G1 X89.1087 Y171.7263
G3 Y171.724 I0.9999 J0.0114
G1 X89.1405 Y169.4181
G3 Y169.4159 I0.9999 J0.0138
G1 X89.1728 Y167.4037
G3 X89.1768 Y167.1701 I9.9994 J0.0556
G3 X89.2444 Y163.6972 I1078.5417 J19.2467
G3 Y163.6959 I0.9998 J0.0211
G1 X89.2736 Y162.3927
G3 X89.2737 Y162.3919 I0.9997 J0.0225
G3 X89.5423 Y153.2591 I742.4569 J17.2682
G3 Y153.2583 I0.9994 J0.0355
G1 X89.6408 Y150.5486
G3 X89.6409 Y150.5459 I0.9993 J0.0363
G1 X89.7335 Y148.1751
G3 X89.7336 Y148.1741 I0.9992 J0.039
G3 X90.5853 Y131.5655 I737.8882 J29.5147
G3 Y131.5649 I0.998 J0.0625
G1 X90.6644 Y130.3146
G3 X90.6645 Y130.3127 I0.998 J0.0631
G1 X90.8172 Y127.9687
G3 X90.8173 Y127.9669 I0.9979 J0.065
G1 X90.9545 Y125.9162
G3 X90.9547 Y125.9146 I0.9978 J0.0668
G1 X91.4458 Y118.7384
G1 X91.6875 Y115.1502
G3 X91.6879 Y115.1445 I0.9977 J0.0672
G2 X91.7166 Y114.7099 I-31.0576 J-2.268
G3 X91.7175 Y114.6965 I0.9983 J0.0589
G2 X91.7423 Y114.3174 I-28.1601 J-2.0388
G3 X91.7432 Y114.3046 I0.9983 J0.0588
G2 X91.7648 Y113.9739 I-25.6607 J-1.8418
G3 X91.7651 Y113.9689 I0.9983 J0.0587
G1 X91.9187 Y111.5642
G3 X91.9191 Y111.5589 I0.998 J0.0638
G1 F20.0 Z-3.0
G2 F150.0 X91.9377 Y111.2601 I-21.689 J-1.5014
G3 X91.9385 Y111.247 I0.9985 J0.0553
G2 X91.9567 Y110.9526 I-22.1362 J-1.5188
G3 X91.9575 Y110.9399 I0.9985 J0.0552
G2 X91.9754 Y110.6499 I-22.608 J-1.538
G3 X91.9761 Y110.6376 I0.9985 J0.0551
G2 X91.9936 Y110.3519 I-23.1074 J-1.5592
G3 X91.9943 Y110.34 I0.9985 J0.055
G2 X92.0115 Y110.0585 I-23.6381 J-1.5824
G3 X92.0122 Y110.0471 I0.9985 J0.0549
G2 X92.029 Y109.7696 I-24.2045 J-1.6081
G3 X92.0297 Y109.7587 I0.9985 J0.0549
G2 X92.0462 Y109.4853 I-24.811 J-1.6364
G3 X92.047 Y109.4728 I0.9985 J0.0548
G2 X92.0797 Y108.9276 I-37.0501 J-2.4991
G3 X92.0805 Y108.914 I0.9986 J0.0526
G2 X92.1121 Y108.385 I-39.2533 J-2.607
G3 X92.1128 Y108.3726 I0.9986 J0.0528
G2 X92.1433 Y107.8593 I-41.913 J-2.7431
G3 X92.1439 Y107.848 I0.9986 J0.0531
G2 X92.1733 Y107.35 I-45.2254 J-2.919
G3 X92.1739 Y107.3398 I0.9986 J0.0534
G2 X92.2023 Y106.8565 I-49.5242 J-3.1539
G3 X92.2029 Y106.8475 I0.9986 J0.0538
G2 X92.2304 Y106.3783 I-55.4342 J-3.4844
G3 X92.2305 Y106.3752 I0.9985 J0.0543
G3 X92.6693 Y98.9675 I2133.0091 J122.6175
G3 X92.6694 Y98.9657 I0.9981 J0.0609
G1 X92.7856 Y97.1151
G3 X92.7857 Y97.1128 I0.998 J0.0626
G1 X92.876 Y95.725
G3 X92.8762 Y95.723 I0.9979 J0.0649
G1 X92.946 Y94.6823
G3 X92.9461 Y94.6811 I0.9978 J0.067
G3 X93.1694 Y91.5537 I512.5076 J35.0229
G3 X93.1696 Y91.5517 I0.9972 J0.0743
G1 X93.2653 Y90.3005
G3 X93.2655 Y90.2978 I0.9971 J0.0763
G1 X93.3585 Y89.1251
G3 X93.3587 Y89.1228 I0.9969 J0.079
G1 X93.4484 Y88.0235
G3 X93.4486 Y88.0208 I0.9967 J0.0813
G1 X93.6225 Y85.9603
G3 X93.6227 Y85.9575 I0.9965 J0.0841
G1 X93.78 Y84.1551
G3 X93.7802 Y84.1532 I0.9962 J0.0869
G1 X93.9208 Y82.5763
G3 X93.9209 Y82.5747 I0.996 J0.0888
G1 X94.1713 Y79.8155
G3 X94.1714 Y79.8147 I0.9959 J0.0904
G1 X94.361 Y77.7454
G3 X94.3614 Y77.7407 I0.9958 J0.0912
G2 X94.4316 Y76.9741 I-81.1895 J-7.8231
G3 X94.4324 Y76.9655 I0.9963 J0.0865
G2 X94.4627 Y76.634 I-41.2063 J-3.9367
G3 X94.4635 Y76.6258 I0.9962 J0.0871
G2 X94.4918 Y76.3161 I-35.7947 J-3.4272
G3 X94.4928 Y76.3053 I0.9962 J0.0867
G2 X94.546 Y75.7218 I-43.8312 J-4.2922
G3 X94.5472 Y75.7085 I0.9964 J0.0842
G2 X94.5935 Y75.2001 I-36.474 J-3.5738
G3 X94.5947 Y75.1864 I0.9965 J0.0836
G2 X94.6349 Y74.7435 I-31.3421 J-3.0654
G3 X94.6361 Y74.7298 I0.9965 J0.0833
G2 X94.671 Y74.3439 I-27.4739 J-2.6783
G3 X94.6716 Y74.3373 I0.9965 J0.083
G2 X94.9205 Y71.541 I-1350.7505 J-121.6326
G1 X95.0377 Y70.1885
G1 X95.0417 Y70.1412
G1 X95.1685 Y68.6466 Z-2.0
G1 X95.2529 Y67.651
G1 X95.3357 Y66.6536
G1 X95.4598 Y65.1587 Z-3.0
G1 X95.6218 Y63.2077
G1 Y63.2076
G1 X95.8987 Y59.8744
G3 X95.8988 Y59.8731 I0.9966 J0.0828
G1 X96.1097 Y57.3735
G3 X96.1098 Y57.3719 I0.9965 J0.0841
G1 X96.2709 Y55.4975
G3 X96.2711 Y55.4962 I0.9963 J0.0856
G3 X96.7744 Y49.87 I1276.297 J111.3406
G3 X96.7745 Y49.8682 I0.9958 J0.0913
G1 X96.9983 Y47.4743
G3 X96.9985 Y47.4723 I0.9957 J0.0931
G2 X97.4224 Y42.9861 I-2258.7831 J-215.6796
G3 Y42.9853 I0.9957 J0.0931
G2 X98.1409 Y35.1346 I-1468.4538 J-138.3457
G1 X98.2701 Y33.6624
G1 X98.5073 Y30.9008
G1 X98.609 Y29.6927
G1 X98.6148 Y29.6225
G1 X98.8014 Y27.365
G1 X98.8297 Y27.0172
G1 X98.8817 Y26.3779 Z-2.5724
G1 X98.9503 Y25.5221 Z-2.0
G1 X99.0302 Y24.5257
G1 X99.0623 Y24.1214
G1 X99.1085 Y23.5284
G1 X99.2251 Y22.0329 Z-3.0
G1 X99.3072 Y20.9806
G1 X99.3972 Y19.8031
G2 X100.0025 Y11.5573 I-1596.6813 J-121.3529
G3 X101.0 Y10.628 I0.9975 J0.0706
G1 X128.5
G1 X130.0 Z-2.0
G1 X132.0
G1 X133.5 Z-3.0
G1 X159.0
G3 X159.9968 Y11.5485 I0.0 J1.0
G1 X160.3791 Y16.3417
G1 X160.7193 Y20.5347
G1 X160.87 Y22.3686
G1 X160.8811 Y22.5013
G1 X161.0054 Y23.9961 Z-2.0
G1 X161.156 Y25.8078
G2 X161.1712 Y25.9892 I2281.6773 J-190.6106
G2 X161.2967 Y27.484 Z-3.0 I2281.6621 J-190.792
G2 X162.193 Y37.8389 I2281.5366 J-192.2867
G1 X162.7303 Y43.8553
G1 X162.9998 Y46.8635
G3 X162.9999 Y46.8639 I-0.996 J0.0892
G1 X163.0669 Y47.6161
G3 Y47.6164 I-0.9961 J0.0888
G1 X163.117 Y48.1805
G3 X163.1171 Y48.1809 I-0.9961 J0.0885
G1 X163.1919 Y49.027
G3 X163.192 Y49.0276 I-0.9961 J0.0881
G1 X163.2663 Y49.8737
G3 X163.2665 Y49.8751 I-0.9962 J0.0876
G1 X163.5007 Y52.5828
G3 X163.5009 Y52.5846 I-0.9963 J0.0862
G1 X163.7016 Y54.9542
G3 X163.7018 Y54.956 I-0.9964 J0.0844
G1 X164.0456 Y59.1034
G3 Y59.1045 I-0.9966 J0.0826
G1 X164.3508 Y62.8344
G1 X164.4731 Y64.3295 Z-2.0
G1 X164.5546 Y65.3257
G1 X164.637 Y66.3227
G1 X164.6831 Y66.8806 Z-2.3732
G1 Y66.8807
G2 X164.761 Y67.8176 Z-3.0 I953.9221 J-78.7931
G2 X165.0795 Y71.5404 I953.8443 J-79.73
G1 X165.1897 Y72.7892
G1 X165.4003 Y75.1308
G1 X165.7751 Y79.2303
G3 X165.7752 Y79.2308 I-0.9958 J0.0911
G1 X166.0549 Y82.3061
G3 X166.0551 Y82.308 I-0.9959 J0.0906
G1 X166.2603 Y84.6121
G3 X166.2795 Y84.8312 I-16.9332 J1.5978
G3 X166.3163 Y85.2523 I-22.6977 J2.194
G3 X166.3504 Y85.6457 I-21.4739 J2.061
G3 X166.3822 Y86.0146 I-20.3815 J1.9431
G3 X166.4118 Y86.3605 I-19.3974 J1.8365
G3 X166.4395 Y86.6848 I-18.5032 J1.7395
G3 X166.4652 Y86.9889 I-17.6854 J1.6508
G3 X166.4892 Y87.274 I-16.9326 J1.5693
G3 X166.512 Y87.5463 I-16.2361 J1.4941
G1 X166.6748 Y89.541
G3 X166.6956 Y89.8026 I-14.5738 J1.2882
G1 X166.8301 Y91.5471
G3 X166.8539 Y91.8663 I-15.5662 J1.325
G3 X166.8767 Y92.1745 I-15.7005 J1.3144
G3 X166.8989 Y92.4778 I-15.8349 J1.3103
G3 X166.9205 Y92.7764 I-15.9696 J1.3066
G3 X166.9416 Y93.0703 I-16.1047 J1.3033
G3 X166.9622 Y93.3596 I-16.2411 J1.3002
G3 X166.9822 Y93.6444 I-16.3784 J1.2976
G3 X167.0018 Y93.9247 I-16.5159 J1.2952
G3 X167.021 Y94.2007 I-16.6547 J1.2932
G3 X167.0398 Y94.4756 I-16.7944 J1.2915
G3 X167.1818 Y96.6086 I-314.7694 J22.0252
G3 X167.1971 Y96.8451 I-18.199 J1.2954
G3 X167.2118 Y97.0741 I-18.3589 J1.2949
G3 X167.2411 Y97.5335 I-25.9832 J1.885
G3 X167.663 Y104.5517 I-1631.8546 J101.6194
G1 X167.8686 Y108.06
G1 X167.9736 Y109.8131
G1 X168.0814 Y111.5657
G1 X168.1604 Y112.8142
G1 X168.3129 Y115.1564
G1 X168.45 Y117.2055
G1 X168.6039 Y119.4528
G1 X168.7063 Y120.9493 Z-2.0
G1 X168.8429 Y122.9447
G1 X168.9412 Y124.3816 Z-2.9602
G3 X168.9413 Y124.3826 Z-2.9609 I-0.9977 J0.0683
G1 X168.9452 Y124.4412 Z-3.0
G1 X169.1828 Y127.9686
G3 X169.2127 Y128.4217 I-33.0525 J2.4108
G3 X169.2385 Y128.8146 I-30.1554 J2.1765
G3 X169.2612 Y129.162 I-27.656 J1.9786
G1 X169.4146 Y131.5642
G3 X169.4148 Y131.5665 I-0.998 J0.0638
G1 X169.4982 Y132.9197
G3 X169.4983 Y132.9214 I-0.9981 J0.0615
G1 X169.5743 Y134.1902
G3 X169.5745 Y134.1926 I-0.9982 J0.0598
G1 X169.7112 Y136.5719
G3 X169.7113 Y136.575 I-0.9984 J0.0574
G1 X169.8245 Y138.6572
G3 X169.8246 Y138.6593 I-0.9985 J0.0543
G1 X169.8722 Y139.5704
G3 Y139.5706 I-0.9986 J0.0522
G3 X170.1936 Y146.4156 I-670.5837 J34.9139
G3 Y146.416 I-0.9991 J0.0418
G1 X170.2645 Y148.1251
G3 Y148.1269 I-0.9991 J0.0414
G1 X170.3155 Y149.4088
G3 Y149.4101 I-0.9992 J0.0397
G1 X170.3525 Y150.3716
G3 Y150.3729 I-0.9993 J0.0384
G1 X170.4061 Y151.8152
G3 X170.4062 Y151.816 I-0.9993 J0.0371
G1 X170.4095 Y151.9061
G1 Y151.9062
G1 X170.4125 Y151.9908
G3 Y151.9914 I-0.9993 J0.0363
G1 X170.4577 Y153.2591
G3 Y153.26 I-0.9994 J0.0356
G1 X170.4785 Y153.8587
G3 Y153.8591 I-0.9994 J0.0347
G3 X170.873 Y170.2478 I-803.2276 J27.5306
G3 X170.8924 Y171.7477 Z-2.0 I-803.6221 J11.1419
G3 X170.9037 Y172.7476 I-803.6415 J9.6421
G1 Y172.7477
G1 X170.9144 Y173.7476
G1 X170.9289 Y175.1063 Z-2.9059
G3 Y175.1081 Z-2.9071 I-0.9999 J0.0107
G1 X170.9302 Y175.2475 Z-3.0
G1 X170.9472 Y177.1719
G3 Y177.1734 I-1.0 J0.0089
G1 X170.9607 Y178.9793
G3 Y178.9802 I-1.0 J0.0074
G1 X170.9658 Y179.7703
G3 Y179.7715 I-1.0 J0.0065
G1 X170.9815 Y182.7343
G3 Y182.7352 I-1.0 J0.0053
G1 X170.9822 Y182.8741
G3 Y182.8748 I-1.0 J0.0044
G1 X170.9902 Y185.0622
G3 X170.9903 Y185.0636 I-1.0 J0.0037
G1 X170.9977 Y188.3447
G3 Y188.3463 I-1.0 J0.0023
G1 X171.0 Y191.6273
G3 X170.0 Y192.628 I-1.0 J0.0007
G1 X132.5
G1 X131.0 Z-2.0
G1 X129.0
G1 X127.5 Z-3.0
G1 X90.0
G3 X89.0 Y191.6275 I0.0 J-1.0
G1 X89.0012 Y189.2505
G3 X89.0008 Y189.1605 I1.7083 J-0.0531
G3 X89.0009 Y189.0903 I1.7077 J-0.0332
G3 X89.001 Y189.0203 I1.7065 J-0.0331
G3 Y188.9504 I1.7053 J-0.033
G3 X89.0017 Y188.8609 I1.7041 J-0.0328
G1 X89.0055 Y186.6555
G3 Y186.6547 I1.0 J0.0017
G1 X89.0081 Y185.6119
G3 Y185.6111 I1.0 J0.0025
G1 X89.0149 Y183.5908
G3 Y183.5897 I1.0 J0.0034
G1 X89.0234 Y181.6957
G3 Y181.6945 I1.0 J0.0045
G1 X89.0333 Y179.9188
G3 Y179.9177 I1.0 J0.0056
G1 X89.0445 Y178.253
G3 Y178.2521 I1.0 J0.0067
G1 X89.0503 Y177.4886
G3 X89.0504 Y177.4241 I1.5145 J-0.0288
G3 X89.0513 Y177.3593 I1.5139 J-0.0116
G1 X89.059 Y176.5123
G1 X89.0726 Y175.0123 Z-2.0
G1 X89.0785 Y174.3639
G3 Y174.3616 I1.0 J0.0091
G1 X89.094 Y173.0125
G1 X89.1087 Y171.7263 Z-2.8575
G3 Y171.724 Z-2.8591 I0.9999 J0.0114
G1 X89.1116 Y171.5126 Z-3.0
G1 X89.1405 Y169.4181
G3 Y169.4159 I0.9999 J0.0138
G1 X89.1728 Y167.4037
G3 X89.1768 Y167.1701 I9.9994 J0.0556
G3 X89.2444 Y163.6972 I1078.5417 J19.2467
G3 Y163.6959 I0.9998 J0.0211
G1 X89.2736 Y162.3927
G3 X89.2737 Y162.3919 I0.9997 J0.0225
G3 X89.5423 Y153.2591 I742.4569 J17.2682
G3 Y153.2583 I0.9994 J0.0355
G1 X89.6408 Y150.5486
G3 X89.6409 Y150.5459 I0.9993 J0.0363
G1 X89.7335 Y148.1751
G3 X89.7336 Y148.1741 I0.9992 J0.039
G3 X90.5853 Y131.5655 I737.8882 J29.5147
G3 Y131.5649 I0.998 J0.0625
G1 X90.6644 Y130.3146
G3 X90.6645 Y130.3127 I0.998 J0.0631
G1 X90.8172 Y127.9687
G3 X90.8173 Y127.9669 I0.9979 J0.065
G1 X90.9545 Y125.9162
G3 X90.9547 Y125.9146 I0.9978 J0.0668
G1 X91.0508 Y124.5093
G1 X91.1533 Y123.0128 Z-2.0
G1 X91.2898 Y121.0175
G1 X91.3923 Y119.521 Z-3.0
G1 X91.4458 Y118.7384
G1 X91.6875 Y115.1502
G3 X91.6879 Y115.1445 I0.9977 J0.0672
G2 X91.7166 Y114.7099 I-31.0576 J-2.268
G3 X91.7175 Y114.6965 I0.9983 J0.0589
G2 X91.7423 Y114.3174 I-28.1601 J-2.0388
G3 X91.7432 Y114.3046 I0.9983 J0.0588
G2 X91.7648 Y113.9739 I-25.6607 J-1.8418
G3 X91.7651 Y113.9689 I0.9983 J0.0587
G1 X91.9187 Y111.5642
G3 X91.9191 Y111.5589 I0.998 J0.0638
G1 F20.0 Z-4.0
G2 F150.0 X91.9377 Y111.2601 I-21.689 J-1.5014
G3 X91.9385 Y111.247 I0.9985 J0.0553
G2 X91.9567 Y110.9526 I-22.1362 J-1.5188
G3 X91.9575 Y110.9399 I0.9985 J0.0552
G2 X91.9754 Y110.6499 I-22.608 J-1.538
G3 X91.9761 Y110.6376 I0.9985 J0.0551
G2 X91.9936 Y110.3519 I-23.1074 J-1.5592
G3 X91.9943 Y110.34 I0.9985 J0.055
G2 X92.0115 Y110.0585 I-23.6381 J-1.5824
G3 X92.0122 Y110.0471 I0.9985 J0.0549
G2 X92.029 Y109.7696 I-24.2045 J-1.6081
G3 X92.0297 Y109.7587 I0.9985 J0.0549
G2 X92.0462 Y109.4853 I-24.811 J-1.6364
G3 X92.047 Y109.4728 I0.9985 J0.0548
G2 X92.0797 Y108.9276 I-37.0501 J-2.4991
G3 X92.0805 Y108.914 I0.9986 J0.0526
G2 X92.1121 Y108.385 I-39.2533 J-2.607
G3 X92.1128 Y108.3726 I0.9986 J0.0528
G2 X92.1433 Y107.8593 I-41.913 J-2.7431
G3 X92.1439 Y107.848 I0.9986 J0.0531
G2 X92.1733 Y107.35 I-45.2254 J-2.919
G3 X92.1739 Y107.3398 I0.9986 J0.0534
G2 X92.2023 Y106.8565 I-49.5242 J-3.1539
G3 X92.2029 Y106.8475 I0.9986 J0.0538
G2 X92.2304 Y106.3783 I-55.4342 J-3.4844
G3 X92.2305 Y106.3752 I0.9985 J0.0543
G3 X92.6693 Y98.9675 I2133.0091 J122.6175
G3 X92.6694 Y98.9657 I0.9981 J0.0609
G1 X92.7856 Y97.1151
G3 X92.7857 Y97.1128 I0.998 J0.0626
G1 X92.876 Y95.725
G3 X92.8762 Y95.723 I0.9979 J0.0649
G1 X92.946 Y94.6823
G3 X92.9461 Y94.6811 I0.9978 J0.067
G3 X93.1694 Y91.5537 I512.5076 J35.0229
G3 X93.1696 Y91.5517 I0.9972 J0.0743
G1 X93.2653 Y90.3005
G3 X93.2655 Y90.2978 I0.9971 J0.0763
G1 X93.3585 Y89.1251
G3 X93.3587 Y89.1228 I0.9969 J0.079
G1 X93.4484 Y88.0235
G3 X93.4486 Y88.0208 I0.9967 J0.0813
G1 X93.6225 Y85.9603
G3 X93.6227 Y85.9575 I0.9965 J0.0841
G1 X93.78 Y84.1551
G3 X93.7802 Y84.1532 I0.9962 J0.0869
G1 X93.9208 Y82.5763
G3 X93.9209 Y82.5747 I0.996 J0.0888
G1 X94.1713 Y79.8155
G3 X94.1714 Y79.8147 I0.9959 J0.0904
G1 X94.361 Y77.7454
G3 X94.3614 Y77.7407 I0.9958 J0.0912
G2 X94.4316 Y76.9741 I-81.1895 J-7.8231
G3 X94.4324 Y76.9655 I0.9963 J0.0865
G2 X94.4627 Y76.634 I-41.2063 J-3.9367
G3 X94.4635 Y76.6258 I0.9962 J0.0871
G2 X94.4918 Y76.3161 I-35.7947 J-3.4272
G3 X94.4928 Y76.3053 I0.9962 J0.0867
G2 X94.546 Y75.7218 I-43.8312 J-4.2922
G3 X94.5472 Y75.7085 I0.9964 J0.0842
G2 X94.5935 Y75.2001 I-36.474 J-3.5738
G3 X94.5947 Y75.1864 I0.9965 J0.0836
G2 X94.6349 Y74.7435 I-31.3421 J-3.0654
G3 X94.6361 Y74.7298 I0.9965 J0.0833
G2 X94.671 Y74.3439 I-27.4739 J-2.6783
G3 X94.6716 Y74.3373 I0.9965 J0.083
G2 X94.9205 Y71.541 I-1350.7505 J-121.6326
G1 X95.0377 Y70.1885
G1 X95.0417 Y70.1412
G1 X95.1685 Y68.6466 Z-2.0
G1 X95.2529 Y67.651
G1 X95.3357 Y66.6536
G1 X95.4598 Y65.1587 Z-4.0
G1 X95.6218 Y63.2077
G1 Y63.2076
G1 X95.8987 Y59.8744
G3 X95.8988 Y59.8731 I0.9966 J0.0828
G1 X96.1097 Y57.3735
G3 X96.1098 Y57.3719 I0.9965 J0.0841
G1 X96.2709 Y55.4975
G3 X96.2711 Y55.4962 I0.9963 J0.0856
G3 X96.7744 Y49.87 I1276.297 J111.3406
G3 X96.7745 Y49.8682 I0.9958 J0.0913
G1 X96.9983 Y47.4743
G3 X96.9985 Y47.4723 I0.9957 J0.0931
G2 X97.4224 Y42.9861 I-2258.7831 J-215.6796
G3 Y42.9853 I0.9957 J0.0931
G2 X98.1409 Y35.1346 I-1468.4538 J-138.3457
G1 X98.2701 Y33.6624
G1 X98.5073 Y30.9008
G1 X98.609 Y29.6927
G1 X98.6148 Y29.6225
G1 X98.8014 Y27.365
G1 X98.8297 Y27.0172
G1 X98.8817 Y26.3779 Z-3.1448
G1 X98.9503 Y25.5221 Z-2.0
G1 X99.0302 Y24.5257
G1 X99.0623 Y24.1214
G1 X99.1085 Y23.5284
G1 X99.2251 Y22.0329 Z-4.0
G1 X99.3072 Y20.9806
G1 X99.3972 Y19.8031
G2 X100.0025 Y11.5573 I-1596.6813 J-121.3529
G3 X101.0 Y10.628 I0.9975 J0.0706
G1 X128.5
G1 X130.0 Z-2.0
G1 X132.0
G1 X133.5 Z-4.0
G1 X159.0
G3 X159.9968 Y11.5485 I0.0 J1.0
G1 X160.3791 Y16.3417
G1 X160.7193 Y20.5347
G1 X160.87 Y22.3686
G1 X160.8811 Y22.5013
G1 X161.0054 Y23.9961 Z-2.0
G1 X161.156 Y25.8078
G2 X161.1712 Y25.9892 I2281.6773 J-190.6106
G2 X161.2967 Y27.484 Z-4.0 I2281.6621 J-190.792
G2 X162.193 Y37.8389 I2281.5366 J-192.2867
G1 X162.7303 Y43.8553
G1 X162.9998 Y46.8635
G3 X162.9999 Y46.8639 I-0.996 J0.0892
G1 X163.0669 Y47.6161
G3 Y47.6164 I-0.9961 J0.0888
G1 X163.117 Y48.1805
G3 X163.1171 Y48.1809 I-0.9961 J0.0885
G1 X163.1919 Y49.027
G3 X163.192 Y49.0276 I-0.9961 J0.0881
G1 X163.2663 Y49.8737
G3 X163.2665 Y49.8751 I-0.9962 J0.0876
G1 X163.5007 Y52.5828
G3 X163.5009 Y52.5846 I-0.9963 J0.0862
G1 X163.7016 Y54.9542
G3 X163.7018 Y54.956 I-0.9964 J0.0844
G1 X164.0456 Y59.1034
G3 Y59.1045 I-0.9966 J0.0826
G1 X164.3508 Y62.8344
G1 X164.4731 Y64.3295 Z-2.0
G1 X164.5546 Y65.3257
G1 X164.637 Y66.3227
G1 X164.6831 Y66.8806 Z-2.7464
G1 Y66.8807 Z-2.7465
G2 X164.761 Y67.8176 Z-4.0 I953.9221 J-78.7931
G2 X165.0795 Y71.5404 I953.8443 J-79.73
G1 X165.1897 Y72.7892
G1 X165.4003 Y75.1308
G1 X165.7751 Y79.2303
G3 X165.7752 Y79.2308 I-0.9958 J0.0911
G1 X166.0549 Y82.3061
G3 X166.0551 Y82.308 I-0.9959 J0.0906
G1 X166.2603 Y84.6121
G3 X166.2795 Y84.8312 I-16.9332 J1.5978
G3 X166.3163 Y85.2523 I-22.6977 J2.194
G3 X166.3504 Y85.6457 I-21.4739 J2.061
G3 X166.3822 Y86.0146 I-20.3815 J1.9431
G3 X166.4118 Y86.3605 I-19.3974 J1.8365
G3 X166.4395 Y86.6848 I-18.5032 J1.7395
G3 X166.4652 Y86.9889 I-17.6854 J1.6508
G3 X166.4892 Y87.274 I-16.9326 J1.5693
G3 X166.512 Y87.5463 I-16.2361 J1.4941
G1 X166.6748 Y89.541
G3 X166.6956 Y89.8026 I-14.5738 J1.2882
G1 X166.8301 Y91.5471
G3 X166.8539 Y91.8663 I-15.5662 J1.325
G3 X166.8767 Y92.1745 I-15.7005 J1.3144
G3 X166.8989 Y92.4778 I-15.8349 J1.3103
G3 X166.9205 Y92.7764 I-15.9696 J1.3066
G3 X166.9416 Y93.0703 I-16.1047 J1.3033
G3 X166.9622 Y93.3596 I-16.2411 J1.3002
G3 X166.9822 Y93.6444 I-16.3784 J1.2976
G3 X167.0018 Y93.9247 I-16.5159 J1.2952
G3 X167.021 Y94.2007 I-16.6547 J1.2932
G3 X167.0398 Y94.4756 I-16.7944 J1.2915
G3 X167.1818 Y96.6086 I-314.7694 J22.0252
G3 X167.1971 Y96.8451 I-18.199 J1.2954
G3 X167.2118 Y97.0741 I-18.3589 J1.2949
G3 X167.2411 Y97.5335 I-25.9832 J1.885
G3 X167.663 Y104.5517 I-1631.8546 J101.6194
G1 X167.8686 Y108.06
G1 X167.9736 Y109.8131
G1 X168.0814 Y111.5657
G1 X168.1604 Y112.8142
G1 X168.3129 Y115.1564
G1 X168.45 Y117.2055
G1 X168.6039 Y119.4528
G1 X168.7063 Y120.9493 Z-2.0
G1 X168.8429 Y122.9447
G1 X168.9412 Y124.3816 Z-3.9204
G3 X168.9413 Y124.3826 Z-3.9218 I-0.9977 J0.0683
G1 X168.9452 Y124.4412 Z-4.0
G1 X169.1828 Y127.9686
G3 X169.2127 Y128.4217 I-33.0525 J2.4108
G3 X169.2385 Y128.8146 I-30.1554 J2.1765
G3 X169.2612 Y129.162 I-27.656 J1.9786
G1 X169.4146 Y131.5642
G3 X169.4148 Y131.5665 I-0.998 J0.0638
G1 X169.4982 Y132.9197
G3 X169.4983 Y132.9214 I-0.9981 J0.0615
G1 X169.5743 Y134.1902
G3 X169.5745 Y134.1926 I-0.9982 J0.0598
G1 X169.7112 Y136.5719
G3 X169.7113 Y136.575 I-0.9984 J0.0574
G1 X169.8245 Y138.6572
G3 X169.8246 Y138.6593 I-0.9985 J0.0543
G1 X169.8722 Y139.5704
G3 Y139.5706 I-0.9986 J0.0522
G3 X170.1936 Y146.4156 I-670.5837 J34.9139
G3 Y146.416 I-0.9991 J0.0418
G1 X170.2645 Y148.1251
G3 Y148.1269 I-0.9991 J0.0414
G1 X170.3155 Y149.4088
G3 Y149.4101 I-0.9992 J0.0397
G1 X170.3525 Y150.3716
G3 Y150.3729 I-0.9993 J0.0384
G1 X170.4061 Y151.8152
G3 X170.4062 Y151.816 I-0.9993 J0.0371
G1 X170.4095 Y151.9061
G1 Y151.9062
G1 X170.4125 Y151.9908
G3 Y151.9914 I-0.9993 J0.0363
G1 X170.4577 Y153.2591
G3 Y153.26 I-0.9994 J0.0356
G1 X170.4785 Y153.8587
G3 Y153.8591 I-0.9994 J0.0347
G3 X170.873 Y170.2478 I-803.2276 J27.5306
G3 X170.8924 Y171.7477 Z-2.0 I-803.6221 J11.1419
G3 X170.9037 Y172.7476 I-803.6415 J9.6421
G1 Y172.7477
G1 X170.9144 Y173.7476
G1 X170.9289 Y175.1063 Z-3.8117
G3 Y175.1081 Z-3.8141 I-0.9999 J0.0107
G1 X170.9302 Y175.2475 Z-4.0
G1 X170.9472 Y177.1719
G3 Y177.1734 I-1.0 J0.0089
G1 X170.9607 Y178.9793
G3 Y178.9802 I-1.0 J0.0074
G1 X170.9658 Y179.7703
G3 Y179.7715 I-1.0 J0.0065
G1 X170.9815 Y182.7343
G3 Y182.7352 I-1.0 J0.0053
G1 X170.9822 Y182.8741
G3 Y182.8748 I-1.0 J0.0044
G1 X170.9902 Y185.0622
G3 X170.9903 Y185.0636 I-1.0 J0.0037
G1 X170.9977 Y188.3447
G3 Y188.3463 I-1.0 J0.0023
G1 X171.0 Y191.6273
G3 X170.0 Y192.628 I-1.0 J0.0007
G1 X132.5
G1 X131.0 Z-2.0
G1 X129.0
G1 X127.5 Z-4.0
G1 X90.0
G3 X89.0 Y191.6275 I0.0 J-1.0
G1 X89.0012 Y189.2505
G3 X89.0008 Y189.1605 I1.7083 J-0.0531
G3 X89.0009 Y189.0903 I1.7077 J-0.0332
G3 X89.001 Y189.0203 I1.7065 J-0.0331
G3 Y188.9504 I1.7053 J-0.033
G3 X89.0017 Y188.8609 I1.7041 J-0.0328
G1 X89.0055 Y186.6555
G3 Y186.6547 I1.0 J0.0017
G1 X89.0081 Y185.6119
G3 Y185.6111 I1.0 J0.0025
G1 X89.0149 Y183.5908
G3 Y183.5897 I1.0 J0.0034
G1 X89.0234 Y181.6957
G3 Y181.6945 I1.0 J0.0045
G1 X89.0333 Y179.9188
G3 Y179.9177 I1.0 J0.0056
G1 X89.0445 Y178.253
G3 Y178.2521 I1.0 J0.0067
G1 X89.0503 Y177.4886
G3 X89.0504 Y177.4241 I1.5145 J-0.0288
G3 X89.0513 Y177.3593 I1.5139 J-0.0116
G1 X89.059 Y176.5123
G1 X89.0726 Y175.0123 Z-2.0
G1 X89.0785 Y174.3639
G3 Y174.3616 I1.0 J0.0091
G1 X89.094 Y173.0125
G1 X89.1087 Y171.7263 Z-3.715
G3 Y171.724 Z-3.7181 I0.9999 J0.0114
G1 X89.1116 Y171.5126 Z-4.0
G1 X89.1405 Y169.4181
G3 Y169.4159 I0.9999 J0.0138
G1 X89.1728 Y167.4037
G3 X89.1768 Y167.1701 I9.9994 J0.0556
G3 X89.2444 Y163.6972 I1078.5417 J19.2467
G3 Y163.6959 I0.9998 J0.0211
G1 X89.2736 Y162.3927
G3 X89.2737 Y162.3919 I0.9997 J0.0225
G3 X89.5423 Y153.2591 I742.4569 J17.2682
G3 Y153.2583 I0.9994 J0.0355
G1 X89.6408 Y150.5486
G3 X89.6409 Y150.5459 I0.9993 J0.0363
G1 X89.7335 Y148.1751
G3 X89.7336 Y148.1741 I0.9992 J0.039
G3 X90.5853 Y131.5655 I737.8882 J29.5147
G3 Y131.5649 I0.998 J0.0625
G1 X90.6644 Y130.3146
G3 X90.6645 Y130.3127 I0.998 J0.0631
G1 X90.8172 Y127.9687
G3 X90.8173 Y127.9669 I0.9979 J0.065
G1 X90.9545 Y125.9162
G3 X90.9547 Y125.9146 I0.9978 J0.0668
G1 X91.0508 Y124.5093
G1 X91.1533 Y123.0128 Z-2.0
G1 X91.2898 Y121.0175
G1 X91.3923 Y119.521 Z-4.0
G1 X91.4458 Y118.7384
G1 X91.6875 Y115.1502
G3 X91.6879 Y115.1445 I0.9977 J0.0672
G2 X91.7166 Y114.7099 I-31.0576 J-2.268
G3 X91.7175 Y114.6965 I0.9983 J0.0589
G2 X91.7423 Y114.3174 I-28.1601 J-2.0388
G3 X91.7432 Y114.3046 I0.9983 J0.0588
G2 X91.7648 Y113.9739 I-25.6607 J-1.8418
G3 X91.7651 Y113.9689 I0.9983 J0.0587
G1 X91.9187 Y111.5642
G3 X91.9191 Y111.5589 I0.998 J0.0638
G1 F20.0 Z-5.0
G2 F150.0 X91.9377 Y111.2601 I-21.689 J-1.5014
G3 X91.9385 Y111.247 I0.9985 J0.0553
G2 X91.9567 Y110.9526 I-22.1362 J-1.5188
G3 X91.9575 Y110.9399 I0.9985 J0.0552
G2 X91.9754 Y110.6499 I-22.608 J-1.538
G3 X91.9761 Y110.6376 I0.9985 J0.0551
G2 X91.9936 Y110.3519 I-23.1074 J-1.5592
G3 X91.9943 Y110.34 I0.9985 J0.055
G2 X92.0115 Y110.0585 I-23.6381 J-1.5824
G3 X92.0122 Y110.0471 I0.9985 J0.0549
G2 X92.029 Y109.7696 I-24.2045 J-1.6081
G3 X92.0297 Y109.7587 I0.9985 J0.0549
G2 X92.0462 Y109.4853 I-24.811 J-1.6364
G3 X92.047 Y109.4728 I0.9985 J0.0548
G2 X92.0797 Y108.9276 I-37.0501 J-2.4991
G3 X92.0805 Y108.914 I0.9986 J0.0526
G2 X92.1121 Y108.385 I-39.2533 J-2.607
G3 X92.1128 Y108.3726 I0.9986 J0.0528
G2 X92.1433 Y107.8593 I-41.913 J-2.7431
G3 X92.1439 Y107.848 I0.9986 J0.0531
G2 X92.1733 Y107.35 I-45.2254 J-2.919
G3 X92.1739 Y107.3398 I0.9986 J0.0534
G2 X92.2023 Y106.8565 I-49.5242 J-3.1539
G3 X92.2029 Y106.8475 I0.9986 J0.0538
G2 X92.2304 Y106.3783 I-55.4342 J-3.4844
G3 X92.2305 Y106.3752 I0.9985 J0.0543
G3 X92.6693 Y98.9675 I2133.0091 J122.6175
G3 X92.6694 Y98.9657 I0.9981 J0.0609
G1 X92.7856 Y97.1151
G3 X92.7857 Y97.1128 I0.998 J0.0626
G1 X92.876 Y95.725
G3 X92.8762 Y95.723 I0.9979 J0.0649
G1 X92.946 Y94.6823
G3 X92.9461 Y94.6811 I0.9978 J0.067
G3 X93.1694 Y91.5537 I512.5076 J35.0229
G3 X93.1696 Y91.5517 I0.9972 J0.0743
G1 X93.2653 Y90.3005
G3 X93.2655 Y90.2978 I0.9971 J0.0763
G1 X93.3585 Y89.1251
G3 X93.3587 Y89.1228 I0.9969 J0.079
G1 X93.4484 Y88.0235
G3 X93.4486 Y88.0208 I0.9967 J0.0813
G1 X93.6225 Y85.9603
G3 X93.6227 Y85.9575 I0.9965 J0.0841
G1 X93.78 Y84.1551
G3 X93.7802 Y84.1532 I0.9962 J0.0869
G1 X93.9208 Y82.5763
G3 X93.9209 Y82.5747 I0.996 J0.0888
G1 X94.1713 Y79.8155
G3 X94.1714 Y79.8147 I0.9959 J0.0904
G1 X94.361 Y77.7454
G3 X94.3614 Y77.7407 I0.9958 J0.0912
G2 X94.4316 Y76.9741 I-81.1895 J-7.8231
G3 X94.4324 Y76.9655 I0.9963 J0.0865
G2 X94.4627 Y76.634 I-41.2063 J-3.9367
G3 X94.4635 Y76.6258 I0.9962 J0.0871
G2 X94.4918 Y76.3161 I-35.7947 J-3.4272
G3 X94.4928 Y76.3053 I0.9962 J0.0867
G2 X94.546 Y75.7218 I-43.8312 J-4.2922
G3 X94.5472 Y75.7085 I0.9964 J0.0842
G2 X94.5935 Y75.2001 I-36.474 J-3.5738
G3 X94.5947 Y75.1864 I0.9965 J0.0836
G2 X94.6349 Y74.7435 I-31.3421 J-3.0654
G3 X94.6361 Y74.7298 I0.9965 J0.0833
G2 X94.671 Y74.3439 I-27.4739 J-2.6783
G3 X94.6716 Y74.3373 I0.9965 J0.083
G2 X94.9205 Y71.541 I-1350.7505 J-121.6326
G1 X95.0377 Y70.1885
G1 X95.0417 Y70.1412
G1 X95.1685 Y68.6466 Z-2.0
G1 X95.2529 Y67.651
G1 X95.3357 Y66.6536
G1 X95.4598 Y65.1587 Z-5.0
G1 X95.6218 Y63.2077
G1 Y63.2076
G1 X95.8987 Y59.8744
G3 X95.8988 Y59.8731 I0.9966 J0.0828
G1 X96.1097 Y57.3735
G3 X96.1098 Y57.3719 I0.9965 J0.0841
G1 X96.2709 Y55.4975
G3 X96.2711 Y55.4962 I0.9963 J0.0856
G3 X96.7744 Y49.87 I1276.297 J111.3406
G3 X96.7745 Y49.8682 I0.9958 J0.0913
G1 X96.9983 Y47.4743
G3 X96.9985 Y47.4723 I0.9957 J0.0931
G2 X97.4224 Y42.9861 I-2258.7831 J-215.6796
G3 Y42.9853 I0.9957 J0.0931
G2 X98.1409 Y35.1346 I-1468.4538 J-138.3457
G1 X98.2701 Y33.6624
G1 X98.5073 Y30.9008
G1 X98.609 Y29.6927
G1 X98.6148 Y29.6225
G1 X98.8014 Y27.365
G1 X98.8297 Y27.0172
G1 X98.8817 Y26.3779 Z-3.7171
G1 X98.9503 Y25.5221 Z-2.0
G1 X99.0302 Y24.5257
G1 X99.0623 Y24.1214
G1 X99.1085 Y23.5284
G1 X99.2251 Y22.0329 Z-5.0
G1 X99.3072 Y20.9806
G1 X99.3972 Y19.8031
G2 X100.0025 Y11.5573 I-1596.6813 J-121.3529
G3 X101.0 Y10.628 I0.9975 J0.0706
G1 X128.5
G1 X130.0 Z-2.0
G1 X132.0
G1 X133.5 Z-5.0
G1 X159.0
G3 X159.9968 Y11.5485 I0.0 J1.0
G1 X160.3791 Y16.3417
G1 X160.7193 Y20.5347
G1 X160.87 Y22.3686
G1 X160.8811 Y22.5013
G1 X161.0054 Y23.9961 Z-2.0
G1 X161.156 Y25.8078
G2 X161.1712 Y25.9892 I2281.6773 J-190.6106
G2 X161.2967 Y27.484 Z-5.0 I2281.6621 J-190.792
G2 X162.193 Y37.8389 I2281.5366 J-192.2867
G1 X162.7303 Y43.8553
G1 X162.9998 Y46.8635
G3 X162.9999 Y46.8639 I-0.996 J0.0892
G1 X163.0669 Y47.6161
G3 Y47.6164 I-0.9961 J0.0888
G1 X163.117 Y48.1805
G3 X163.1171 Y48.1809 I-0.9961 J0.0885
G1 X163.1919 Y49.027
G3 X163.192 Y49.0276 I-0.9961 J0.0881
G1 X163.2663 Y49.8737
G3 X163.2665 Y49.8751 I-0.9962 J0.0876
G1 X163.5007 Y52.5828
G3 X163.5009 Y52.5846 I-0.9963 J0.0862
G1 X163.7016 Y54.9542
G3 X163.7018 Y54.956 I-0.9964 J0.0844
G1 X164.0456 Y59.1034
G3 Y59.1045 I-0.9966 J0.0826
G1 X164.3508 Y62.8344
G1 X164.4731 Y64.3295 Z-2.0
G1 X164.5546 Y65.3257
G1 X164.637 Y66.3227
G1 X164.6831 Y66.8806 Z-3.1196
G1 Y66.8807 Z-3.1197
G2 X164.761 Y67.8176 Z-5.0 I953.9221 J-78.7931
G2 X165.0795 Y71.5404 I953.8443 J-79.73
G1 X165.1897 Y72.7892
G1 X165.4003 Y75.1308
G1 X165.7751 Y79.2303
G3 X165.7752 Y79.2308 I-0.9958 J0.0911
G1 X166.0549 Y82.3061
G3 X166.0551 Y82.308 I-0.9959 J0.0906
G1 X166.2603 Y84.6121
G3 X166.2795 Y84.8312 I-16.9332 J1.5978
G3 X166.3163 Y85.2523 I-22.6977 J2.194
G3 X166.3504 Y85.6457 I-21.4739 J2.061
G3 X166.3822 Y86.0146 I-20.3815 J1.9431
G3 X166.4118 Y86.3605 I-19.3974 J1.8365
G3 X166.4395 Y86.6848 I-18.5032 J1.7395
G3 X166.4652 Y86.9889 I-17.6854 J1.6508
G3 X166.4892 Y87.274 I-16.9326 J1.5693
G3 X166.512 Y87.5463 I-16.2361 J1.4941
G1 X166.6748 Y89.541
G3 X166.6956 Y89.8026 I-14.5738 J1.2882
G1 X166.8301 Y91.5471
G3 X166.8539 Y91.8663 I-15.5662 J1.325
G3 X166.8767 Y92.1745 I-15.7005 J1.3144
G3 X166.8989 Y92.4778 I-15.8349 J1.3103
G3 X166.9205 Y92.7764 I-15.9696 J1.3066
G3 X166.9416 Y93.0703 I-16.1047 J1.3033
G3 X166.9622 Y93.3596 I-16.2411 J1.3002
G3 X166.9822 Y93.6444 I-16.3784 J1.2976
G3 X167.0018 Y93.9247 I-16.5159 J1.2952
G3 X167.021 Y94.2007 I-16.6547 J1.2932
G3 X167.0398 Y94.4756 I-16.7944 J1.2915
G3 X167.1818 Y96.6086 I-314.7694 J22.0252
G3 X167.1971 Y96.8451 I-18.199 J1.2954
G3 X167.2118 Y97.0741 I-18.3589 J1.2949
G3 X167.2411 Y97.5335 I-25.9832 J1.885
G3 X167.663 Y104.5517 I-1631.8546 J101.6194
G1 X167.8686 Y108.06
G1 X167.9736 Y109.8131
G1 X168.0814 Y111.5657
G1 X168.1604 Y112.8142
G1 X168.3129 Y115.1564
G1 X168.45 Y117.2055
G1 X168.6039 Y119.4528
G1 X168.7063 Y120.9493 Z-2.0
G1 X168.8429 Y122.9447
G1 X168.9412 Y124.3816 Z-4.8805
G3 X168.9413 Y124.3826 Z-4.8827 I-0.9977 J0.0683
G1 X168.9452 Y124.4412 Z-5.0
G1 X169.1828 Y127.9686
G3 X169.2127 Y128.4217 I-33.0525 J2.4108
G3 X169.2385 Y128.8146 I-30.1554 J2.1765
G3 X169.2612 Y129.162 I-27.656 J1.9786
G1 X169.4146 Y131.5642
G3 X169.4148 Y131.5665 I-0.998 J0.0638
G1 X169.4982 Y132.9197
G3 X169.4983 Y132.9214 I-0.9981 J0.0615
G1 X169.5743 Y134.1902
G3 X169.5745 Y134.1926 I-0.9982 J0.0598
G1 X169.7112 Y136.5719
G3 X169.7113 Y136.575 I-0.9984 J0.0574
G1 X169.8245 Y138.6572
G3 X169.8246 Y138.6593 I-0.9985 J0.0543
G1 X169.8722 Y139.5704
G3 Y139.5706 I-0.9986 J0.0522
G3 X170.1936 Y146.4156 I-670.5837 J34.9139
G3 Y146.416 I-0.9991 J0.0418
G1 X170.2645 Y148.1251
G3 Y148.1269 I-0.9991 J0.0414
G1 X170.3155 Y149.4088
G3 Y149.4101 I-0.9992 J0.0397
G1 X170.3525 Y150.3716
G3 Y150.3729 I-0.9993 J0.0384
G1 X170.4061 Y151.8152
G3 X170.4062 Y151.816 I-0.9993 J0.0371
G1 X170.4095 Y151.9061
G1 Y151.9062
G1 X170.4125 Y151.9908
G3 Y151.9914 I-0.9993 J0.0363
G1 X170.4577 Y153.2591
G3 Y153.26 I-0.9994 J0.0356
G1 X170.4785 Y153.8587
G3 Y153.8591 I-0.9994 J0.0347
G3 X170.873 Y170.2478 I-803.2276 J27.5306
G3 X170.8924 Y171.7477 Z-2.0 I-803.6221 J11.1419
G3 X170.9037 Y172.7476 I-803.6415 J9.6421
G1 Y172.7477
G1 X170.9144 Y173.7476
G1 X170.9289 Y175.1063 Z-4.7176
G3 Y175.1081 Z-4.7212 I-0.9999 J0.0107
G1 X170.9302 Y175.2475 Z-5.0
G1 X170.9472 Y177.1719
G3 Y177.1734 I-1.0 J0.0089
G1 X170.9607 Y178.9793
G3 Y178.9802 I-1.0 J0.0074
G1 X170.9658 Y179.7703
G3 Y179.7715 I-1.0 J0.0065
G1 X170.9815 Y182.7343
G3 Y182.7352 I-1.0 J0.0053
G1 X170.9822 Y182.8741
G3 Y182.8748 I-1.0 J0.0044
G1 X170.9902 Y185.0622
G3 X170.9903 Y185.0636 I-1.0 J0.0037
G1 X170.9977 Y188.3447
G3 Y188.3463 I-1.0 J0.0023
G1 X171.0 Y191.6273
G3 X170.0 Y192.628 I-1.0 J0.0007
G1 X132.5
G1 X131.0 Z-2.0
G1 X129.0
G1 X127.5 Z-5.0
G1 X90.0
G3 X89.0 Y191.6275 I0.0 J-1.0
G1 X89.0012 Y189.2505
G3 X89.0008 Y189.1605 I1.7083 J-0.0531
G3 X89.0009 Y189.0903 I1.7077 J-0.0332
G3 X89.001 Y189.0203 I1.7065 J-0.0331
G3 Y188.9504 I1.7053 J-0.033
G3 X89.0017 Y188.8609 I1.7041 J-0.0328
G1 X89.0055 Y186.6555
G3 Y186.6547 I1.0 J0.0017
G1 X89.0081 Y185.6119
G3 Y185.6111 I1.0 J0.0025
G1 X89.0149 Y183.5908
G3 Y183.5897 I1.0 J0.0034
G1 X89.0234 Y181.6957
G3 Y181.6945 I1.0 J0.0045
G1 X89.0333 Y179.9188
G3 Y179.9177 I1.0 J0.0056
G1 X89.0445 Y178.253
G3 Y178.2521 I1.0 J0.0067
G1 X89.0503 Y177.4886
G3 X89.0504 Y177.4241 I1.5145 J-0.0288
G3 X89.0513 Y177.3593 I1.5139 J-0.0116
G1 X89.059 Y176.5123
G1 X89.0726 Y175.0123 Z-2.0
G1 X89.0785 Y174.3639
G3 Y174.3616 I1.0 J0.0091
G1 X89.094 Y173.0125
G1 X89.1087 Y171.7263 Z-4.5725
G3 Y171.724 Z-4.5772 I0.9999 J0.0114
G1 X89.1116 Y171.5126 Z-5.0
G1 X89.1405 Y169.4181
G3 Y169.4159 I0.9999 J0.0138
G1 X89.1728 Y167.4037
G3 X89.1768 Y167.1701 I9.9994 J0.0556
G3 X89.2444 Y163.6972 I1078.5417 J19.2467
G3 Y163.6959 I0.9998 J0.0211
G1 X89.2736 Y162.3927
G3 X89.2737 Y162.3919 I0.9997 J0.0225
G3 X89.5423 Y153.2591 I742.4569 J17.2682
G3 Y153.2583 I0.9994 J0.0355
G1 X89.6408 Y150.5486
G3 X89.6409 Y150.5459 I0.9993 J0.0363
G1 X89.7335 Y148.1751
G3 X89.7336 Y148.1741 I0.9992 J0.039
G3 X90.5853 Y131.5655 I737.8882 J29.5147
G3 Y131.5649 I0.998 J0.0625
G1 X90.6644 Y130.3146
G3 X90.6645 Y130.3127 I0.998 J0.0631
G1 X90.8172 Y127.9687
G3 X90.8173 Y127.9669 I0.9979 J0.065
G1 X90.9545 Y125.9162
G3 X90.9547 Y125.9146 I0.9978 J0.0668
G1 X91.0508 Y124.5093
G1 X91.1533 Y123.0128 Z-2.0
G1 X91.2898 Y121.0175
G1 X91.3923 Y119.521 Z-5.0
G1 X91.4458 Y118.7384
G1 X91.6875 Y115.1502
G3 X91.6879 Y115.1445 I0.9977 J0.0672
G2 X91.7166 Y114.7099 I-31.0576 J-2.268
G3 X91.7175 Y114.6965 I0.9983 J0.0589
G2 X91.7423 Y114.3174 I-28.1601 J-2.0388
G3 X91.7432 Y114.3046 I0.9983 J0.0588
G2 X91.7648 Y113.9739 I-25.6607 J-1.8418
G3 X91.7651 Y113.9689 I0.9983 J0.0587
G1 X91.9187 Y111.5642
G3 X91.9191 Y111.5589 I0.998 J0.0638
G0 F200
G0 Z3.0
M5
M30
