( Made using CamBam - http://www.cambam.co.uk )
( Calpinage V2 4/13/2025 6:42:58 PM )
( Post-pro: GRBL )
( T2 : 2.0 )
G21 G90 G40
G0 Z3.0
( T2 : 2.0 )
T2 M6
( Contour1 )
G17
M3 S1000
G0 X18.9635 Y26.887
G0 Z1.0
G1 F300.0 Z-1.0
F800.0
G3X23.6498Y15.5733I16.0J0.0
G3X34.9635Y10.887I11.3137J11.3137
G1 X39.9635
G3X40.9635Y11.887I0.0J1.0
G1 Y20.887
G1 X43.9635
G1 Y11.887
G3X44.9635Y10.887I1.0J0.0
G1 X68.9635
G3X69.9635Y11.887I0.0J1.0
G1 Y20.887
G1 X72.9635
G1 Y11.887
G3X73.9635Y10.887I1.0J0.0
G1 X78.9635
G3X90.2772Y15.5733I0.0J16.0
G3X94.9635Y26.887I-11.3137J11.3137
G1 Y39.887
G3X93.9635Y40.887I-1.0J0.0
G1 X85.4635
G1 Y46.887
G3X82.8275Y53.251I-9.0J0.0
G3X76.4635Y55.887I-6.364J-6.364
G3X75.4635Y54.887I0.0J-1.0
G1 Y40.887
G1 X72.4635
G1 Y54.887
G3X71.4635Y55.887I-1.0J0.0
G3X65.0995Y53.251I0.0J-9.0
G3X62.4635Y46.887I6.364J-6.364
G1 Y40.887
G1 X19.9635
G3X18.9635Y39.887I0.0J-1.0
G1 Y26.887
G1 F300.0 Z-1.7
F800.0
G3X18.9881Y26.0I16.0J0.0
G3X19.1426Y24.5Z-2.0I15.9754J0.887
G3X23.6498Y15.5733I15.821J2.387
G3X34.9635Y10.887I11.3137J11.3137
G1 X39.9635
G3X40.9635Y11.887I0.0J1.0
G1 Y20.887
G1 X43.9635
G1 Y11.887
G3X44.9635Y10.887I1.0J0.0
G1 X55.5
G1 X57.0 Z-1.7
G1 X59.0
G1 X60.5 Z-2.0
G1 X68.9635
G3X69.9635Y11.887I0.0J1.0
G1 Y20.887
G1 X72.9635
G1 Y11.887
G3X73.9635Y10.887I1.0J0.0
G1 X78.9635
G3X90.2772Y15.5733I0.0J16.0
G3X94.767Y24.387I-11.3137J11.3137
G3X94.9322Y25.887Z-1.7I-15.8035J2.5
G3X94.9635Y26.887I-15.9687J1.0
G1 Y27.887
G1 Y29.387 Z-2.0
G1 Y39.887
G3X93.9635Y40.887I-1.0J0.0
G1 X85.4635
G1 Y46.887
G3X84.3448Y51.2327I-9.0J0.0
G3X83.4952Y52.5044Z-1.7I-7.8813J-4.3457
G3X82.8275Y53.251I-7.0317J-5.6174
G3X82.0809Y53.9187I-6.364J-6.364
G3X80.8092Y54.7683Z-2.0I-5.6174J-7.0317
G3X76.4635Y55.887I-4.3457J-7.8813
G3X75.4635Y54.887I0.0J-1.0
G1 Y40.887
G1 X72.4635
G1 Y54.887
G3X71.4635Y55.887I-1.0J0.0
G3X67.4993Y54.9669I0.0J-9.0
G3X66.1885Y54.1791Z-1.7I3.9642J-8.0799
G3X65.0995Y53.251I5.275J-7.2921
G3X64.7083Y52.834I6.364J-6.364
G3X63.7989Y51.6044Z-2.0I6.7552J-5.947
G3X62.4635Y46.887I7.6646J-4.7174
G1 Y40.887
G1 X43.5
G1 X42.0 Z-1.7
G1 X40.0
G1 X38.5 Z-2.0
G1 X19.9635
G3X18.9635Y39.887I0.0J-1.0
G1 Y29.5
G1 Y28.0 Z-1.7
G1 Y26.887
G3X18.9881Y26.0I16.0J0.0
G3X19.1426Y24.5Z-3.0I15.9754J0.887
G3X23.6498Y15.5733I15.821J2.387
G3X34.9635Y10.887I11.3137J11.3137
G1 X39.9635
G3X40.9635Y11.887I0.0J1.0
G1 Y20.887
G1 X43.9635
G1 Y11.887
G3X44.9635Y10.887I1.0J0.0
G1 X55.5
G1 X57.0 Z-1.7
G1 X59.0
G1 X60.5 Z-3.0
G1 X68.9635
G3X69.9635Y11.887I0.0J1.0
G1 Y20.887
G1 X72.9635
G1 Y11.887
G3X73.9635Y10.887I1.0J0.0
G1 X78.9635
G3X90.2772Y15.5733I0.0J16.0
G3X94.767Y24.387I-11.3137J11.3137
G3X94.9322Y25.887Z-1.7I-15.8035J2.5
G3X94.9635Y26.887I-15.9687J1.0
G1 Y27.887
G1 Y29.387 Z-3.0
G1 Y39.887
G3X93.9635Y40.887I-1.0J0.0
G1 X85.4635
G1 Y46.887
G3X84.3448Y51.2327I-9.0J0.0
G3X83.4952Y52.5044Z-1.7I-7.8813J-4.3457
G3X82.8275Y53.251I-7.0317J-5.6174
G3X82.0809Y53.9187I-6.364J-6.364
G3X80.8092Y54.7683Z-3.0I-5.6174J-7.0317
G3X76.4635Y55.887I-4.3457J-7.8813
G3X75.4635Y54.887I0.0J-1.0
G1 Y40.887
G1 X72.4635
G1 Y54.887
G3X71.4635Y55.887I-1.0J0.0
G3X67.4993Y54.9669I0.0J-9.0
G3X66.1885Y54.1791Z-1.7I3.9642J-8.0799
G3X65.0995Y53.251I5.275J-7.2921
G3X64.7083Y52.834I6.364J-6.364
G3X63.7989Y51.6044Z-3.0I6.7552J-5.947
G3X62.4635Y46.887I7.6646J-4.7174
G1 Y40.887
G1 X43.5
G1 X42.0 Z-1.7
G1 X40.0
G1 X38.5 Z-3.0
G1 X19.9635
G3X18.9635Y39.887I0.0J-1.0
G1 Y29.5
G1 Y28.0 Z-1.7
G1 Y26.887
G3X18.9881Y26.0I16.0J0.0
G3X19.1426Y24.5Z-4.0I15.9754J0.887
G3X23.6498Y15.5733I15.821J2.387
G3X34.9635Y10.887I11.3137J11.3137
G1 X39.9635
G3X40.9635Y11.887I0.0J1.0
G1 Y20.887
G1 X43.9635
G1 Y11.887
G3X44.9635Y10.887I1.0J0.0
G1 X55.5
G1 X57.0 Z-1.7
G1 X59.0
G1 X60.5 Z-4.0
G1 X68.9635
G3X69.9635Y11.887I0.0J1.0
G1 Y20.887
G1 X72.9635
G1 Y11.887
G3X73.9635Y10.887I1.0J0.0
G1 X78.9635
G3X90.2772Y15.5733I0.0J16.0
G3X94.767Y24.387I-11.3137J11.3137
G3X94.9322Y25.887Z-1.7I-15.8035J2.5
G3X94.9635Y26.887I-15.9687J1.0
G1 Y27.887
G1 Y29.387 Z-4.0
G1 Y39.887
G3X93.9635Y40.887I-1.0J0.0
G1 X85.4635
G1 Y46.887
G3X84.3448Y51.2327I-9.0J0.0
G3X83.4952Y52.5044Z-1.7I-7.8813J-4.3457
G3X82.8275Y53.251I-7.0317J-5.6174
G3X82.0809Y53.9187I-6.364J-6.364
G3X80.8092Y54.7683Z-4.0I-5.6174J-7.0317
G3X76.4635Y55.887I-4.3457J-7.8813
G3X75.4635Y54.887I0.0J-1.0
G1 Y40.887
G1 X72.4635
G1 Y54.887
G3X71.4635Y55.887I-1.0J0.0
G3X67.4993Y54.9669I0.0J-9.0
G3X66.1885Y54.1791Z-1.7I3.9642J-8.0799
G3X65.0995Y53.251I5.275J-7.2921
G3X64.7083Y52.834I6.364J-6.364
G3X63.7989Y51.6044Z-4.0I6.7552J-5.947
G3X62.4635Y46.887I7.6646J-4.7174
G1 Y40.887
G1 X43.5
G1 X42.0 Z-1.7
G1 X40.0
G1 X38.5 Z-4.0
G1 X19.9635
G3X18.9635Y39.887I0.0J-1.0
G1 Y29.5
G1 Y28.0 Z-1.7
G1 Y26.887
G3X18.9881Y26.0I16.0J0.0
G3X19.1426Y24.5Z-4.7I15.9754J0.887
G3X23.6498Y15.5733I15.821J2.387
G3X34.9635Y10.887I11.3137J11.3137
G1 X39.9635
G3X40.9635Y11.887I0.0J1.0
G1 Y20.887
G1 X43.9635
G1 Y11.887
G3X44.9635Y10.887I1.0J0.0
G1 X55.5
G1 X57.0 Z-1.7
G1 X59.0
G1 X60.5 Z-4.7
G1 X68.9635
G3X69.9635Y11.887I0.0J1.0
G1 Y20.887
G1 X72.9635
G1 Y11.887
G3X73.9635Y10.887I1.0J0.0
G1 X78.9635
G3X90.2772Y15.5733I0.0J16.0
G3X94.767Y24.387I-11.3137J11.3137
G3X94.9322Y25.887Z-1.7I-15.8035J2.5
G3X94.9635Y26.887I-15.9687J1.0
G1 Y27.887
G1 Y29.387 Z-4.7
G1 Y39.887
G3X93.9635Y40.887I-1.0J0.0
G1 X85.4635
G1 Y46.887
G3X84.3448Y51.2327I-9.0J0.0
G3X83.4952Y52.5044Z-1.7I-7.8813J-4.3457
G3X82.8275Y53.251I-7.0317J-5.6174
G3X82.0809Y53.9187I-6.364J-6.364
G3X80.8092Y54.7683Z-4.7I-5.6174J-7.0317
G3X76.4635Y55.887I-4.3457J-7.8813
G3X75.4635Y54.887I0.0J-1.0
G1 Y40.887
G1 X72.4635
G1 Y54.887
G3X71.4635Y55.887I-1.0J0.0
G3X67.4993Y54.9669I0.0J-9.0
G3X66.1885Y54.1791Z-1.7I3.9642J-8.0799
G3X65.0995Y53.251I5.275J-7.2921
G3X64.7083Y52.834I6.364J-6.364
G3X63.7989Y51.6044Z-4.7I6.7552J-5.947
G3X62.4635Y46.887I7.6646J-4.7174
G1 Y40.887
G1 X43.5
G1 X42.0 Z-1.7
G1 X40.0
G1 X38.5 Z-4.7
G1 X19.9635
G3X18.9635Y39.887I0.0J-1.0
G1 Y29.5
G1 Y28.0 Z-1.7
G1 Y26.887
( Contour2 )
S1000
G0 Z3.0
G0 X38.3275 Y72.934
G0 Z1.0
G1 F300.0 Z-1.0
F800.0
G2X31.9635Y70.298I-6.364J6.364
G2X23.6486Y75.8538I0.0J9.0
G2X25.5995Y85.662I8.3149J3.4442
G2X35.4077Y87.6129I6.364J-6.364
G2X40.9635Y79.298I-3.4441J-8.3149
G2X38.3275Y72.934I-9.0J0.0
G1 F300.0 Z-2.0
F800.0
G2X34.4635Y70.6522I-6.364J6.364
G2X32.9635Y70.3537Z-1.7I-2.5J8.6458
G2X31.9635Y70.298I-1.0J8.9443
G2X30.9635Y70.3537I0.0J9.0
G2X29.4635Y70.6522Z-2.0I1.0J8.9443
G2X23.6486Y75.8538I2.5J8.6458
G2X23.5422Y82.4731I8.3149J3.4442
G2X24.2014Y83.8531Z-1.7I8.4213J-3.1751
G2X25.399Y85.4549I7.7621J-4.5551
G2X25.5995Y85.662Z-1.7572I6.5645J-6.1569
G2X26.5363Y86.4775Z-2.0I6.364J-6.364
G2X35.4077Y87.6129I5.4272J-7.1795
G2X37.3004Y86.5449I-3.4441J-8.3149
G2X38.4504Y85.5366Z-1.7I-5.3369J-7.2469
G2X39.668Y83.9499I-6.4869J-6.2386
G2X40.3444Y82.5782Z-2.0I-7.7045J-4.6519
G2X40.9635Y79.298I-8.3809J-3.2802
G2X38.3275Y72.934I-9.0J0.0
G1 F300.0 Z-3.0
F800.0
G2X34.4635Y70.6522I-6.364J6.364
G2X32.9635Y70.3537Z-1.7I-2.5J8.6458
G2X31.9635Y70.298I-1.0J8.9443
G2X30.9635Y70.3537I0.0J9.0
G2X29.4635Y70.6522Z-3.0I1.0J8.9443
G2X23.6486Y75.8538I2.5J8.6458
G2X23.5422Y82.4731I8.3149J3.4442
G2X24.2014Y83.8531Z-1.7I8.4213J-3.1751
G2X25.399Y85.4549I7.7621J-4.5551
G2X25.5995Y85.662Z-1.9478I6.5645J-6.1569
G2X26.5363Y86.4775Z-3.0I6.364J-6.364
G2X35.4077Y87.6129I5.4272J-7.1795
G2X37.3004Y86.5449I-3.4441J-8.3149
G2X38.4504Y85.5366Z-1.7I-5.3369J-7.2469
G2X39.668Y83.9499I-6.4869J-6.2386
G2X40.3444Y82.5782Z-3.0I-7.7045J-4.6519
G2X40.9635Y79.298I-8.3809J-3.2802
G2X38.3275Y72.934I-9.0J0.0
G1 F300.0 Z-4.0
F800.0
G2X34.4635Y70.6522I-6.364J6.364
G2X32.9635Y70.3537Z-1.7I-2.5J8.6458
G2X31.9635Y70.298I-1.0J8.9443
G2X30.9635Y70.3537I0.0J9.0
G2X29.4635Y70.6522Z-4.0I1.0J8.9443
G2X23.6486Y75.8538I2.5J8.6458
G2X23.5422Y82.4731I8.3149J3.4442
G2X24.2014Y83.8531Z-1.7I8.4213J-3.1751
G2X25.399Y85.4549I7.7621J-4.5551
G2X25.5995Y85.662Z-2.1384I6.5645J-6.1569
G2X26.5363Y86.4775Z-4.0I6.364J-6.364
G2X35.4077Y87.6129I5.4272J-7.1795
G2X37.3004Y86.5449I-3.4441J-8.3149
G2X38.4504Y85.5366Z-1.7I-5.3369J-7.2469
G2X39.668Y83.9499I-6.4869J-6.2386
G2X40.3444Y82.5782Z-4.0I-7.7045J-4.6519
G2X40.9635Y79.298I-8.3809J-3.2802
G2X38.3275Y72.934I-9.0J0.0
G1 F300.0 Z-4.7
F800.0
G2X34.4635Y70.6522I-6.364J6.364
G2X32.9635Y70.3537Z-1.7I-2.5J8.6458
G2X31.9635Y70.298I-1.0J8.9443
G2X30.9635Y70.3537I0.0J9.0
G2X29.4635Y70.6522Z-4.7I1.0J8.9443
G2X23.6486Y75.8538I2.5J8.6458
G2X23.5422Y82.4731I8.3149J3.4442
G2X24.2014Y83.8531Z-1.7I8.4213J-3.1751
G2X25.399Y85.4549I7.7621J-4.5551
G2X25.5995Y85.662Z-2.2719I6.5645J-6.1569
G2X26.5363Y86.4775Z-4.7I6.364J-6.364
G2X35.4077Y87.6129I5.4272J-7.1795
G2X37.3004Y86.5449I-3.4441J-8.3149
G2X38.4504Y85.5366Z-1.7I-5.3369J-7.2469
G2X39.668Y83.9499I-6.4869J-6.2386
G2X40.3444Y82.5782Z-4.7I-7.7045J-4.6519
G2X40.9635Y79.298I-8.3809J-3.2802
G2X38.3275Y72.934I-9.0J0.0
G0 Z3.0
G0 X47.9875 Y73.6411
G0 Z1.0
G1 F300.0 Z-1.0
F800.0
G2X50.5995Y80.662I8.976J0.6569
G2X60.4077Y82.6129I6.364J-6.364
G2X65.9635Y74.298I-3.4441J-8.3149
G2X63.3275Y67.934I-9.0J0.0
G2X56.9635Y65.298I-6.364J6.364
G2X48.6486Y70.8538I0.0J9.0
G2X47.9875Y73.6411I8.3149J3.4442
G1 F300.0 Z-2.0
F800.0
G2X50.5995Y80.662I8.976J0.6569
G2X54.493Y82.9523I6.364J-6.364
G2X55.994Y83.2456Z-1.7I2.4705J-8.6543
G2X57.994Y83.2388I0.9695J-8.9476
G2X59.493Y82.9352Z-2.0I-1.0305J-8.9408
G2X60.4077Y82.6129I-2.5295J-8.6372
G2X65.9635Y74.298I-3.4441J-8.3149
G2X65.2604Y70.8108I-9.0J0.0
G2X64.5502Y69.4563Z-1.7I-8.2969J3.4872
G2X63.3275Y67.934I-7.5867J4.8417
G2X63.2936Y67.9003I-6.364J6.364
G2X62.1189Y66.9209Z-2.0I-6.3301J6.3977
G2X56.9635Y65.298I-5.1554J7.3771
G2X52.8038Y66.317I0.0J9.0
G2X51.5125Y67.1366Z-1.7I4.1597J7.981
G2X50.0655Y68.5172I5.451J7.1615
G2X49.1863Y69.7687Z-2.0I6.898J5.7808
G2X48.6486Y70.8538I7.7772J4.5294
G2X47.9875Y73.6411I8.3149J3.4442
G1 F300.0 Z-3.0
F800.0
G2X50.5995Y80.662I8.976J0.6569
G2X54.493Y82.9523I6.364J-6.364
G2X55.994Y83.2456Z-1.7I2.4705J-8.6543
G2X57.994Y83.2388I0.9695J-8.9476
G2X59.493Y82.9352Z-3.0I-1.0305J-8.9408
G2X60.4077Y82.6129I-2.5295J-8.6372
G2X65.9635Y74.298I-3.4441J-8.3149
G2X65.2604Y70.8108I-9.0J0.0
G2X64.5502Y69.4563Z-1.7I-8.2969J3.4872
G2X63.3275Y67.934I-7.5867J4.8417
G2X63.2936Y67.9003I-6.364J6.364
G2X62.1189Y66.9209Z-3.0I-6.3301J6.3977
G2X56.9635Y65.298I-5.1554J7.3771
G2X52.8038Y66.317I0.0J9.0
G2X51.5125Y67.1366Z-1.7I4.1597J7.981
G2X50.0655Y68.5172I5.451J7.1615
G2X49.1863Y69.7687Z-3.0I6.898J5.7808
G2X48.6486Y70.8538I7.7772J4.5294
G2X47.9875Y73.6411I8.3149J3.4442
G1 F300.0 Z-4.0
F800.0
G2X50.5995Y80.662I8.976J0.6569
G2X54.493Y82.9523I6.364J-6.364
G2X55.994Y83.2456Z-1.7I2.4705J-8.6543
G2X57.994Y83.2388I0.9695J-8.9476
G2X59.493Y82.9352Z-4.0I-1.0305J-8.9408
G2X60.4077Y82.6129I-2.5295J-8.6372
G2X65.9635Y74.298I-3.4441J-8.3149
G2X65.2604Y70.8108I-9.0J0.0
G2X64.5502Y69.4563Z-1.7I-8.2969J3.4872
G2X63.3275Y67.934I-7.5867J4.8417
G2X63.2936Y67.9003I-6.364J6.364
G2X62.1189Y66.9209Z-4.0I-6.3301J6.3977
G2X56.9635Y65.298I-5.1554J7.3771
G2X52.8038Y66.317I0.0J9.0
G2X51.5125Y67.1366Z-1.7I4.1597J7.981
G2X50.0655Y68.5172I5.451J7.1615
G2X49.1863Y69.7687Z-4.0I6.898J5.7808
G2X48.6486Y70.8538I7.7772J4.5294
G2X47.9875Y73.6411I8.3149J3.4442
G1 F300.0 Z-4.7
F800.0
G2X50.5995Y80.662I8.976J0.6569
G2X54.493Y82.9523I6.364J-6.364
G2X55.994Y83.2456Z-1.7I2.4705J-8.6543
G2X57.994Y83.2388I0.9695J-8.9476
G2X59.493Y82.9352Z-4.7I-1.0305J-8.9408
G2X60.4077Y82.6129I-2.5295J-8.6372
G2X65.9635Y74.298I-3.4441J-8.3149
G2X65.2604Y70.8108I-9.0J0.0
G2X64.5502Y69.4563Z-1.7I-8.2969J3.4872
G2X63.3275Y67.934I-7.5867J4.8417
G2X63.2936Y67.9003I-6.364J6.364
G2X62.1189Y66.9209Z-4.7I-6.3301J6.3977
G2X56.9635Y65.298I-5.1554J7.3771
G2X52.8038Y66.317I0.0J9.0
G2X51.5125Y67.1366Z-1.7I4.1597J7.981
G2X50.0655Y68.5172I5.451J7.1615
G2X49.1863Y69.7687Z-4.7I6.898J5.7808
G2X48.6486Y70.8538I7.7772J4.5294
G2X47.9875Y73.6411I8.3149J3.4442
G0 Z3.0
G0 X73.0857 Y77.8199
G0 Z1.0
G1 F300.0 Z-1.0
F800.0
G2X75.5995Y85.662I8.8778J1.4781
G2X85.4077Y87.6129I6.364J-6.364
G2X90.9635Y79.298I-3.4441J-8.3149
G2X88.3275Y72.934I-9.0J0.0
G2X81.9635Y70.298I-6.364J6.364
G2X73.6486Y75.8538I0.0J9.0
G2X73.0857Y77.8199I8.3149J3.4442
G1 F300.0 Z-2.0
F800.0
G2X73.2179Y81.4226I8.8778J1.4781
G2X73.7039Y82.8727Z-1.7I8.7456J-2.1246
G2X74.6973Y84.6086I8.2596J-3.5747
G2X75.5995Y85.662Z-1.9725I7.2662J-5.3106
G2X75.7014Y85.7622Z-2.0I6.364J-6.364
G2X85.4077Y87.6129I6.2621J-6.4642
G2X87.3004Y86.5449I-3.4441J-8.3149
G2X88.4504Y85.5366Z-1.7I-5.3369J-7.2469
G2X89.668Y83.9499I-6.4869J-6.2386
G2X90.3444Y82.5782Z-2.0I-7.7045J-4.6519
G2X90.9635Y79.298I-8.3809J-3.2802
G2X88.3275Y72.934I-9.0J0.0
G2X84.4974Y70.6621I-6.364J6.364
G2X82.9986Y70.3577Z-1.7I-2.5339J8.6359
G2X81.9635Y70.298I-1.0351J8.9403
G2X80.9986Y70.3499I0.0J9.0
G2X79.4975Y70.6424Z-2.0I0.9649J8.9481
G2X73.6486Y75.8538I2.466J8.6556
G2X73.0857Y77.8199I8.3149J3.4442
G1 F300.0 Z-3.0
F800.0
G2X73.2179Y81.4226I8.8778J1.4781
G2X73.7039Y82.8727Z-1.7I8.7456J-2.1246
G2X74.6973Y84.6086I8.2596J-3.5747
G2X75.5995Y85.662Z-2.8808I7.2662J-5.3106
G2X75.7014Y85.7622Z-3.0I6.364J-6.364
G2X85.4077Y87.6129I6.2621J-6.4642
G2X87.3004Y86.5449I-3.4441J-8.3149
G2X88.4504Y85.5366Z-1.7I-5.3369J-7.2469
G2X89.668Y83.9499I-6.4869J-6.2386
G2X90.3444Y82.5782Z-3.0I-7.7045J-4.6519
G2X90.9635Y79.298I-8.3809J-3.2802
G2X88.3275Y72.934I-9.0J0.0
G2X84.4974Y70.6621I-6.364J6.364
G2X82.9986Y70.3577Z-1.7I-2.5339J8.6359
G2X81.9635Y70.298I-1.0351J8.9403
G2X80.9986Y70.3499I0.0J9.0
G2X79.4975Y70.6424Z-3.0I0.9649J8.9481
G2X73.6486Y75.8538I2.466J8.6556
G2X73.0857Y77.8199I8.3149J3.4442
G1 F300.0 Z-4.0
F800.0
G2X73.2179Y81.4226I8.8778J1.4781
G2X73.7039Y82.8727Z-1.7I8.7456J-2.1246
G2X74.6973Y84.6086I8.2596J-3.5747
G2X75.5995Y85.662Z-3.7891I7.2662J-5.3106
G2X75.7014Y85.7622Z-4.0I6.364J-6.364
G2X85.4077Y87.6129I6.2621J-6.4642
G2X87.3004Y86.5449I-3.4441J-8.3149
G2X88.4504Y85.5366Z-1.7I-5.3369J-7.2469
G2X89.668Y83.9499I-6.4869J-6.2386
G2X90.3444Y82.5782Z-4.0I-7.7045J-4.6519
G2X90.9635Y79.298I-8.3809J-3.2802
G2X88.3275Y72.934I-9.0J0.0
G2X84.4974Y70.6621I-6.364J6.364
G2X82.9986Y70.3577Z-1.7I-2.5339J8.6359
G2X81.9635Y70.298I-1.0351J8.9403
G2X80.9986Y70.3499I0.0J9.0
G2X79.4975Y70.6424Z-4.0I0.9649J8.9481
G2X73.6486Y75.8538I2.466J8.6556
G2X73.0857Y77.8199I8.3149J3.4442
G1 F300.0 Z-4.7
F800.0
G2X73.2179Y81.4226I8.8778J1.4781
G2X73.7039Y82.8727Z-1.7I8.7456J-2.1246
G2X74.6973Y84.6086I8.2596J-3.5747
G2X75.5995Y85.662Z-4.4249I7.2662J-5.3106
G2X75.7014Y85.7622Z-4.7I6.364J-6.364
G2X85.4077Y87.6129I6.2621J-6.4642
G2X87.3004Y86.5449I-3.4441J-8.3149
G2X88.4504Y85.5366Z-1.7I-5.3369J-7.2469
G2X89.668Y83.9499I-6.4869J-6.2386
G2X90.3444Y82.5782Z-4.7I-7.7045J-4.6519
G2X90.9635Y79.298I-8.3809J-3.2802
G2X88.3275Y72.934I-9.0J0.0
G2X84.4974Y70.6621I-6.364J6.364
G2X82.9986Y70.3577Z-1.7I-2.5339J8.6359
G2X81.9635Y70.298I-1.0351J8.9403
G2X80.9986Y70.3499I0.0J9.0
G2X79.4975Y70.6424Z-4.7I0.9649J8.9481
G2X73.6486Y75.8538I2.466J8.6556
G2X73.0857Y77.8199I8.3149J3.4442
( Contour3 )
S1000
G0 Z3.0
G0 X23.6498 Y66.4843
G0 Z1.0
G1 F300.0 Z-1.0
F800.0
G3X34.9635Y61.798I11.3137J11.3137
G1 X39.9635
G3X40.9635Y62.798I0.0J1.0
G1 Y66.798
G1 X43.9635
G1 Y62.798
G3X44.9635Y61.798I1.0J0.0
G1 X68.9635
G3X69.9635Y62.798I0.0J1.0
G1 Y66.798
G1 X72.9635
G1 Y62.798
G3X73.9635Y61.798I1.0J0.0
G1 X78.9635
G3X90.2772Y66.4843I0.0J16.0
G3X94.9635Y77.798I-11.3137J11.3137
G1 Y90.798
G3X93.9635Y91.798I-1.0J0.0
G1 X19.9635
G3X18.9635Y90.798I0.0J-1.0
G1 Y77.798
G3X23.6498Y66.4843I16.0J0.0
G1 F300.0 Z-2.0
F800.0
G3X34.5Y61.8047I11.3137J11.3137
G3X34.9635Y61.798Z-1.9073I0.4635J15.9933
G1 X36.0 Z-1.7
G1 X38.0
G1 X39.5 Z-2.0
G1 X39.9635
G3X40.9635Y62.798I0.0J1.0
G1 Y66.798
G1 X43.9635
G1 Y62.798
G3X44.9635Y61.798I1.0J0.0
G1 X68.9635
G3X69.9635Y62.798I0.0J1.0
G1 Y66.798
G1 X72.9635
G1 Y62.798
G3X73.9635Y61.798I1.0J0.0
G1 X75.5
G1 X77.0 Z-1.7
G1 X78.9635
G3X79.0I0.0J16.0
G3X80.5Y61.8719Z-2.0I-0.0365J16.0
G3X90.2772Y66.4843I-1.5365J15.9261
G3X94.9635Y77.798I-11.3137J11.3137
G1 Y82.5
G1 Y84.0 Z-1.7
G1 Y86.0
G1 Y87.5 Z-2.0
G1 Y90.798
G3X93.9635Y91.798I-1.0J0.0
G1 X59.5
G1 X58.0 Z-1.7
G1 X56.0
G1 X54.5 Z-2.0
G1 X19.9635
G3X18.9635Y90.798I0.0J-1.0
G1 Y87.5
G1 Y86.0 Z-1.7
G1 Y84.0
G1 Y82.5 Z-2.0
G1 Y77.798
G3X23.6498Y66.4843I16.0J0.0
G1 F300.0 Z-3.0
F800.0
G3X34.5Y61.8047I11.3137J11.3137
G3X34.9635Y61.798Z-2.5983I0.4635J15.9933
G1 X36.0 Z-1.7
G1 X38.0
G1 X39.5 Z-3.0
G1 X39.9635
G3X40.9635Y62.798I0.0J1.0
G1 Y66.798
G1 X43.9635
G1 Y62.798
G3X44.9635Y61.798I1.0J0.0
G1 X68.9635
G3X69.9635Y62.798I0.0J1.0
G1 Y66.798
G1 X72.9635
G1 Y62.798
G3X73.9635Y61.798I1.0J0.0
G1 X75.5
G1 X77.0 Z-1.7
G1 X78.9635
G3X79.0I0.0J16.0
G3X80.5Y61.8719Z-3.0I-0.0365J16.0
G3X90.2772Y66.4843I-1.5365J15.9261
G3X94.9635Y77.798I-11.3137J11.3137
G1 Y82.5
G1 Y84.0 Z-1.7
G1 Y86.0
G1 Y87.5 Z-3.0
G1 Y90.798
G3X93.9635Y91.798I-1.0J0.0
G1 X59.5
G1 X58.0 Z-1.7
G1 X56.0
G1 X54.5 Z-3.0
G1 X19.9635
G3X18.9635Y90.798I0.0J-1.0
G1 Y87.5
G1 Y86.0 Z-1.7
G1 Y84.0
G1 Y82.5 Z-3.0
G1 Y77.798
G3X23.6498Y66.4843I16.0J0.0
G1 F300.0 Z-4.0
F800.0
G3X34.5Y61.8047I11.3137J11.3137
G3X34.9635Y61.798Z-3.2893I0.4635J15.9933
G1 X36.0 Z-1.7
G1 X38.0
G1 X39.5 Z-4.0
G1 X39.9635
G3X40.9635Y62.798I0.0J1.0
G1 Y66.798
G1 X43.9635
G1 Y62.798
G3X44.9635Y61.798I1.0J0.0
G1 X68.9635
G3X69.9635Y62.798I0.0J1.0
G1 Y66.798
G1 X72.9635
G1 Y62.798
G3X73.9635Y61.798I1.0J0.0
G1 X75.5
G1 X77.0 Z-1.7
G1 X78.9635
G3X79.0I0.0J16.0
G3X80.5Y61.8719Z-4.0I-0.0365J16.0
G3X90.2772Y66.4843I-1.5365J15.9261
G3X94.9635Y77.798I-11.3137J11.3137
G1 Y82.5
G1 Y84.0 Z-1.7
G1 Y86.0
G1 Y87.5 Z-4.0
G1 Y90.798
G3X93.9635Y91.798I-1.0J0.0
G1 X59.5
G1 X58.0 Z-1.7
G1 X56.0
G1 X54.5 Z-4.0
G1 X19.9635
G3X18.9635Y90.798I0.0J-1.0
G1 Y87.5
G1 Y86.0 Z-1.7
G1 Y84.0
G1 Y82.5 Z-4.0
G1 Y77.798
G3X23.6498Y66.4843I16.0J0.0
G1 F300.0 Z-4.7
F800.0
G3X34.5Y61.8047I11.3137J11.3137
G3X34.9635Y61.798Z-3.773I0.4635J15.9933
G1 X36.0 Z-1.7
G1 X38.0
G1 X39.5 Z-4.7
G1 X39.9635
G3X40.9635Y62.798I0.0J1.0
G1 Y66.798
G1 X43.9635
G1 Y62.798
G3X44.9635Y61.798I1.0J0.0
G1 X68.9635
G3X69.9635Y62.798I0.0J1.0
G1 Y66.798
G1 X72.9635
G1 Y62.798
G3X73.9635Y61.798I1.0J0.0
G1 X75.5
G1 X77.0 Z-1.7
G1 X78.9635
G3X79.0I0.0J16.0
G3X80.5Y61.8719Z-4.7I-0.0365J16.0
G3X90.2772Y66.4843I-1.5365J15.9261
G3X94.9635Y77.798I-11.3137J11.3137
G1 Y82.5
G1 Y84.0 Z-1.7
G1 Y86.0
G1 Y87.5 Z-4.7
G1 Y90.798
G3X93.9635Y91.798I-1.0J0.0
G1 X59.5
G1 X58.0 Z-1.7
G1 X56.0
G1 X54.5 Z-4.7
G1 X19.9635
G3X18.9635Y90.798I0.0J-1.0
G1 Y87.5
G1 Y86.0 Z-1.7
G1 Y84.0
G1 Y82.5 Z-4.7
G1 Y77.798
G3X23.6498Y66.4843I16.0J0.0
( Contour4 )
S1000
G0 Z3.0
G0 X110.9635 Y71.7339
G0 Z1.0
G1 F300.0 Z-1.0
F800.0
G2X108.3225Y78.0958I6.359J6.3689
G2X113.8719Y86.4151I9.0J0.007
G2X123.6815Y84.4717I3.4506J-8.3122
G2X125.6401Y74.6651I-6.359J-6.3689
G2X117.3295Y69.1028I-8.3176J3.4377
G2X110.9635Y71.7339I-0.007J9.0
G1 F300.0 Z-2.0
F800.0
G2X108.6786Y75.5961I6.359J6.3689
G2X108.379Y77.0959Z-1.7I8.6439J2.5067
G2X108.3225Y78.0958I8.9435J1.007
G2X108.3774Y79.0959I9.0J0.007
G2X108.6747Y80.5961Z-2.0I8.945J-0.993
G2X113.8719Y86.4151I8.6478J-2.4933
G2X120.9959Y86.319I3.4506J-8.3122
G2X122.334Y85.5784Z-1.7I-3.6734J-8.2162
G2X123.6815Y84.4717I-5.0115J-7.4756
G2X123.8612Y84.2871I-6.359J-6.3689
G2X124.8139Y83.0907Z-2.0I-6.5387J-6.1843
G2X125.6401Y74.6651I-7.4914J-4.9878
G2X125.0659Y73.516I-8.3176J3.4377
G2X124.1775Y72.2711Z-1.7I-7.7435J4.5868
G2X122.7203Y70.9012I-6.855J5.8317
G2X121.423Y70.0912Z-2.0I-5.3979J7.2016
G2X117.3295Y69.1028I-4.1006J8.0116
G2X110.9635Y71.7339I-0.007J9.0
G1 F300.0 Z-3.0
F800.0
G2X108.6786Y75.5961I6.359J6.3689
G2X108.379Y77.0959Z-1.7I8.6439J2.5067
G2X108.3225Y78.0958I8.9435J1.007
G2X108.3774Y79.0959I9.0J0.007
G2X108.6747Y80.5961Z-3.0I8.945J-0.993
G2X113.8719Y86.4151I8.6478J-2.4933
G2X120.9959Y86.319I3.4506J-8.3122
G2X122.334Y85.5784Z-1.7I-3.6734J-8.2162
G2X123.6815Y84.4717I-5.0115J-7.4756
G2X123.8612Y84.2871I-6.359J-6.3689
G2X124.8139Y83.0907Z-3.0I-6.5387J-6.1843
G2X125.6401Y74.6651I-7.4914J-4.9878
G2X125.0659Y73.516I-8.3176J3.4377
G2X124.1775Y72.2711Z-1.7I-7.7435J4.5868
G2X122.7203Y70.9012I-6.855J5.8317
G2X121.423Y70.0912Z-3.0I-5.3979J7.2016
G2X117.3295Y69.1028I-4.1006J8.0116
G2X110.9635Y71.7339I-0.007J9.0
G1 F300.0 Z-4.0
F800.0
G2X108.6786Y75.5961I6.359J6.3689
G2X108.379Y77.0959Z-1.7I8.6439J2.5067
G2X108.3225Y78.0958I8.9435J1.007
G2X108.3774Y79.0959I9.0J0.007
G2X108.6747Y80.5961Z-4.0I8.945J-0.993
G2X113.8719Y86.4151I8.6478J-2.4933
G2X120.9959Y86.319I3.4506J-8.3122
G2X122.334Y85.5784Z-1.7I-3.6734J-8.2162
G2X123.6815Y84.4717I-5.0115J-7.4756
G2X123.8612Y84.2871I-6.359J-6.3689
G2X124.8139Y83.0907Z-4.0I-6.5387J-6.1843
G2X125.6401Y74.6651I-7.4914J-4.9878
G2X125.0659Y73.516I-8.3176J3.4377
G2X124.1775Y72.2711Z-1.7I-7.7435J4.5868
G2X122.7203Y70.9012I-6.855J5.8317
G2X121.423Y70.0912Z-4.0I-5.3979J7.2016
G2X117.3295Y69.1028I-4.1006J8.0116
G2X110.9635Y71.7339I-0.007J9.0
G1 F300.0 Z-4.7
F800.0
G2X108.6786Y75.5961I6.359J6.3689
G2X108.379Y77.0959Z-1.7I8.6439J2.5067
G2X108.3225Y78.0958I8.9435J1.007
G2X108.3774Y79.0959I9.0J0.007
G2X108.6747Y80.5961Z-4.7I8.945J-0.993
G2X113.8719Y86.4151I8.6478J-2.4933
G2X120.9959Y86.319I3.4506J-8.3122
G2X122.334Y85.5784Z-1.7I-3.6734J-8.2162
G2X123.6815Y84.4717I-5.0115J-7.4756
G2X123.8612Y84.2871I-6.359J-6.3689
G2X124.8139Y83.0907Z-4.7I-6.5387J-6.1843
G2X125.6401Y74.6651I-7.4914J-4.9878
G2X125.0659Y73.516I-8.3176J3.4377
G2X124.1775Y72.2711Z-1.7I-7.7435J4.5868
G2X122.7203Y70.9012I-6.855J5.8317
G2X121.423Y70.0912Z-4.7I-5.3979J7.2016
G2X117.3295Y69.1028I-4.1006J8.0116
G2X110.9635Y71.7339I-0.007J9.0
G0 Z3.0
G0 X111.678 Y62.0744
G0 Z1.0
G1 F300.0 Z-1.0
F800.0
G2X118.7009Y59.4678I0.6639J-8.9755
G2X120.6595Y49.6613I-6.359J-6.3689
G2X112.3489Y44.0989I-8.3176J3.4377
G2X105.9829Y46.73I-0.007J9.0
G2X103.3419Y53.0919I6.359J6.3689
G2X108.8913Y61.4112I9.0J0.007
G2X111.678Y62.0744I3.4506J-8.3122
G1 F300.0 Z-2.0
F800.0
G2X118.6343Y59.5336I0.6639J-8.9755
G2X118.7009Y59.4678Z-1.982I-6.2924J-6.4347
G2X119.633Y58.3753Z-1.7I-6.359J-6.3689
G2X120.6182Y56.6348I-7.2911J-5.2763
G2X121.0974Y55.1824Z-2.0I-8.2763J-3.5359
G2X120.6595Y49.6613I-8.7555J-2.0835
G2X112.3489Y44.0989I-8.3176J3.4377
G2X108.8583Y44.8005I-0.007J9.0
G2X107.5035Y45.5102Z-1.7I3.4836J8.2985
G2X105.9829Y46.73I4.8384J7.5888
G2X105.947Y46.7661I6.359J6.3689
G2X104.967Y47.9403Z-2.0I6.3949J6.3329
G2X103.3419Y53.0919I7.3749J5.1586
G2X104.651Y57.7733I9.0J0.007
G2X105.5535Y59.008Z-1.7I7.6909J-4.6743
G2X107.0261Y60.3613I6.7884J-5.9091
G2X108.3325Y61.1565Z-2.0I5.3158J-7.2624
G2X108.8913Y61.4112I4.0094J-8.0576
G2X111.678Y62.0744I3.4506J-8.3122
G1 F300.0 Z-3.0
F800.0
G2X118.6343Y59.5336I0.6639J-8.9755
G2X118.7009Y59.4678Z-2.922I-6.2924J-6.4347
G2X119.633Y58.3753Z-1.7I-6.359J-6.3689
G2X120.6182Y56.6348I-7.2911J-5.2763
G2X121.0974Y55.1824Z-3.0I-8.2763J-3.5359
G2X120.6595Y49.6613I-8.7555J-2.0835
G2X112.3489Y44.0989I-8.3176J3.4377
G2X108.8583Y44.8005I-0.007J9.0
G2X107.5035Y45.5102Z-1.7I3.4836J8.2985
G2X105.9829Y46.73I4.8384J7.5888
G2X105.947Y46.7661I6.359J6.3689
G2X104.967Y47.9403Z-3.0I6.3949J6.3329
G2X103.3419Y53.0919I7.3749J5.1586
G2X104.651Y57.7733I9.0J0.007
G2X105.5535Y59.008Z-1.7I7.6909J-4.6743
G2X107.0261Y60.3613I6.7884J-5.9091
G2X108.3325Y61.1565Z-3.0I5.3158J-7.2624
G2X108.8913Y61.4112I4.0094J-8.0576
G2X111.678Y62.0744I3.4506J-8.3122
G1 F300.0 Z-4.0
F800.0
G2X118.6343Y59.5336I0.6639J-8.9755
G2X118.7009Y59.4678Z-3.8619I-6.2924J-6.4347
G2X119.633Y58.3753Z-1.7I-6.359J-6.3689
G2X120.6182Y56.6348I-7.2911J-5.2763
G2X121.0974Y55.1824Z-4.0I-8.2763J-3.5359
G2X120.6595Y49.6613I-8.7555J-2.0835
G2X112.3489Y44.0989I-8.3176J3.4377
G2X108.8583Y44.8005I-0.007J9.0
G2X107.5035Y45.5102Z-1.7I3.4836J8.2985
G2X105.9829Y46.73I4.8384J7.5888
G2X105.947Y46.7661I6.359J6.3689
G2X104.967Y47.9403Z-4.0I6.3949J6.3329
G2X103.3419Y53.0919I7.3749J5.1586
G2X104.651Y57.7733I9.0J0.007
G2X105.5535Y59.008Z-1.7I7.6909J-4.6743
G2X107.0261Y60.3613I6.7884J-5.9091
G2X108.3325Y61.1565Z-4.0I5.3158J-7.2624
G2X108.8913Y61.4112I4.0094J-8.0576
G2X111.678Y62.0744I3.4506J-8.3122
G1 F300.0 Z-4.7
F800.0
G2X118.6343Y59.5336I0.6639J-8.9755
G2X118.7009Y59.4678Z-4.5199I-6.2924J-6.4347
G2X119.633Y58.3753Z-1.7I-6.359J-6.3689
G2X120.6182Y56.6348I-7.2911J-5.2763
G2X121.0974Y55.1824Z-4.7I-8.2763J-3.5359
G2X120.6595Y49.6613I-8.7555J-2.0835
G2X112.3489Y44.0989I-8.3176J3.4377
G2X108.8583Y44.8005I-0.007J9.0
G2X107.5035Y45.5102Z-1.7I3.4836J8.2985
G2X105.9829Y46.73I4.8384J7.5888
G2X105.947Y46.7661I6.359J6.3689
G2X104.967Y47.9403Z-4.7I6.3949J6.3329
G2X103.3419Y53.0919I7.3749J5.1586
G2X104.651Y57.7733I9.0J0.007
G2X105.5535Y59.008Z-1.7I7.6909J-4.6743
G2X107.0261Y60.3613I6.7884J-5.9091
G2X108.3325Y61.1565Z-4.7I5.3158J-7.2624
G2X108.8913Y61.4112I4.0094J-8.0576
G2X111.678Y62.0744I3.4506J-8.3122
G0 Z3.0
G0 X115.8763 Y36.9795
G0 Z1.0
G1 F300.0 Z-1.0
F800.0
G2X123.7203Y34.4717I1.485J-8.8766
G2X125.6789Y24.6651I-6.359J-6.3689
G2X117.3683Y19.1028I-8.3176J3.4377
G2X111.0023Y21.7339I-0.007J9.0
G2X108.3613Y28.0958I6.359J6.3689
G2X113.9107Y36.4151I9.0J0.007
G2X115.8763Y36.9795I3.4506J-8.3122
G1 F300.0 Z-2.0
F800.0
G2X121.0111Y36.3296I1.485J-8.8766
G2X122.3513Y35.5928Z-1.7I-3.6497J-8.2268
G2X123.7203Y34.4717I-4.99J-7.49
G2X123.8822Y34.3059I-6.359J-6.3689
G2X124.8384Y33.1122Z-2.0I-6.5209J-6.203
G2X125.6789Y24.6651I-7.4771J-5.0094
G2X124.7745Y22.9994I-8.3176J3.4377
G2X123.8034Y21.8179Z-1.7I-7.4132J5.1034
G2X122.2563Y20.5504I-6.442J6.2849
G2X120.9068Y19.8306Z-2.0I-4.895J7.5524
G2X117.3683Y19.1028I-3.5455J8.2722
G2X111.0023Y21.7339I-0.007J9.0
G2X108.7175Y25.5961I6.359J6.3689
G2X108.4178Y27.0959Z-1.7I8.6439J2.5067
G2X108.3613Y28.0958I8.9435J1.007
G2X108.4163Y29.0959I9.0J0.007
G2X108.7136Y30.5961Z-2.0I8.945J-0.993
G2X113.9107Y36.4151I8.6477J-2.4933
G2X115.8763Y36.9795I3.4506J-8.3122
G1 F300.0 Z-3.0
F800.0
G2X121.0111Y36.3296I1.485J-8.8766
G2X122.3513Y35.5928Z-1.7I-3.6497J-8.2268
G2X123.7203Y34.4717I-4.99J-7.49
G2X123.8822Y34.3059I-6.359J-6.3689
G2X124.8384Y33.1122Z-3.0I-6.5209J-6.203
G2X125.6789Y24.6651I-7.4771J-5.0094
G2X124.7745Y22.9994I-8.3176J3.4377
G2X123.8034Y21.8179Z-1.7I-7.4132J5.1034
G2X122.2563Y20.5504I-6.442J6.2849
G2X120.9068Y19.8306Z-3.0I-4.895J7.5524
G2X117.3683Y19.1028I-3.5455J8.2722
G2X111.0023Y21.7339I-0.007J9.0
G2X108.7175Y25.5961I6.359J6.3689
G2X108.4178Y27.0959Z-1.7I8.6439J2.5067
G2X108.3613Y28.0958I8.9435J1.007
G2X108.4163Y29.0959I9.0J0.007
G2X108.7136Y30.5961Z-3.0I8.945J-0.993
G2X113.9107Y36.4151I8.6477J-2.4933
G2X115.8763Y36.9795I3.4506J-8.3122
G1 F300.0 Z-4.0
F800.0
G2X121.0111Y36.3296I1.485J-8.8766
G2X122.3513Y35.5928Z-1.7I-3.6497J-8.2268
G2X123.7203Y34.4717I-4.99J-7.49
G2X123.8822Y34.3059I-6.359J-6.3689
G2X124.8384Y33.1122Z-4.0I-6.5209J-6.203
G2X125.6789Y24.6651I-7.4771J-5.0094
G2X124.7745Y22.9994I-8.3176J3.4377
G2X123.8034Y21.8179Z-1.7I-7.4132J5.1034
G2X122.2563Y20.5504I-6.442J6.2849
G2X120.9068Y19.8306Z-4.0I-4.895J7.5524
G2X117.3683Y19.1028I-3.5455J8.2722
G2X111.0023Y21.7339I-0.007J9.0
G2X108.7175Y25.5961I6.359J6.3689
G2X108.4178Y27.0959Z-1.7I8.6439J2.5067
G2X108.3613Y28.0958I8.9435J1.007
G2X108.4163Y29.0959I9.0J0.007
G2X108.7136Y30.5961Z-4.0I8.945J-0.993
G2X113.9107Y36.4151I8.6477J-2.4933
G2X115.8763Y36.9795I3.4506J-8.3122
G1 F300.0 Z-4.7
F800.0
G2X121.0111Y36.3296I1.485J-8.8766
G2X122.3513Y35.5928Z-1.7I-3.6497J-8.2268
G2X123.7203Y34.4717I-4.99J-7.49
G2X123.8822Y34.3059I-6.359J-6.3689
G2X124.8384Y33.1122Z-4.7I-6.5209J-6.203
G2X125.6789Y24.6651I-7.4771J-5.0094
G2X124.7745Y22.9994I-8.3176J3.4377
G2X123.8034Y21.8179Z-1.7I-7.4132J5.1034
G2X122.2563Y20.5504I-6.442J6.2849
G2X120.9068Y19.8306Z-4.7I-4.895J7.5524
G2X117.3683Y19.1028I-3.5455J8.2722
G2X111.0023Y21.7339I-0.007J9.0
G2X108.7175Y25.5961I6.359J6.3689
G2X108.4178Y27.0959Z-1.7I8.6439J2.5067
G2X108.3613Y28.0958I8.9435J1.007
G2X108.4163Y29.0959I9.0J0.007
G2X108.7136Y30.5961Z-4.7I8.945J-0.993
G2X113.9107Y36.4151I8.6477J-2.4933
G2X115.8763Y36.9795I3.4506J-8.3122
( Contour5 )
S1000
G0 Z3.0
G0 X125.1353 Y52.4018
G0 Z1.0
G1 F300.0 Z-1.0
F800.0
G2X124.8419Y53.1087I0.7066J0.7077
G2X125.4585Y54.033I1.0J0.0008
G2X126.5485Y53.8171I0.3834J-0.9236
G2X126.7661Y52.7275I-0.7066J-0.7077
G2X125.8427Y52.1094I-0.9242J0.382
G2X125.1353Y52.4018I-0.0008J1.0
G1 F300.0 Z-2.0
F800.0
G2X124.8419Y53.1087I0.7066J0.7077
G2X125.4585Y54.033I1.0J0.0008
G2X126.5485Y53.8171I0.3834J-0.9236
G2X126.7661Y52.7275I-0.7066J-0.7077
G2X125.8427Y52.1094I-0.9242J0.382
G2X125.1353Y52.4018I-0.0008J1.0
G1 F300.0 Z-3.0
F800.0
G2X124.8419Y53.1087I0.7066J0.7077
G2X125.4585Y54.033I1.0J0.0008
G2X126.5485Y53.8171I0.3834J-0.9236
G2X126.7661Y52.7275I-0.7066J-0.7077
G2X125.8427Y52.1094I-0.9242J0.382
G2X125.1353Y52.4018I-0.0008J1.0
G1 F300.0 Z-4.0
F800.0
G2X124.8419Y53.1087I0.7066J0.7077
G2X125.4585Y54.033I1.0J0.0008
G2X126.5485Y53.8171I0.3834J-0.9236
G2X126.7661Y52.7275I-0.7066J-0.7077
G2X125.8427Y52.1094I-0.9242J0.382
G2X125.1353Y52.4018I-0.0008J1.0
G1 F300.0 Z-4.7
F800.0
G2X124.8419Y53.1087I0.7066J0.7077
G2X125.4585Y54.033I1.0J0.0008
G2X126.5485Y53.8171I0.3834J-0.9236
G2X126.7661Y52.7275I-0.7066J-0.7077
G2X125.8427Y52.1094I-0.9242J0.382
G2X125.1353Y52.4018I-0.0008J1.0
( Contour6 )
S1000
G0 Z3.0
G0 X133.8419 Y53.1157
G0 Z1.0
G1 F300.0 Z-1.0
F800.0
G3X129.8365Y60.0408I-8.0J-0.0062
G1 X129.8131 Y90.1125
G3X128.8124Y91.1118I-1.0J-0.0008
G1 X100.8124 Y91.09
G3X99.8131Y90.0892I0.0008J-1.0
G1 X99.8287 Y70.0892
G3X100.8295Y69.09I1.0J0.0008
G1 X104.8295 Y69.0931
G1 X104.8318 Y66.0931
G1 X100.8318 Y66.09
G3X99.8326Y65.0892I0.0008J-1.0
G1 X99.8512 Y41.0892
G3X100.852Y40.09I1.0J0.0008
G1 X104.852 Y40.0931
G1 X104.8543 Y37.0931
G1 X100.8543 Y37.09
G3X99.8551Y36.0892I0.0008J-1.0
G1 X99.8707 Y16.0892
G3X100.8714Y15.09I1.0J0.0008
G1 X128.8714 Y15.1118
G3X129.8707Y16.1125I-0.0008J1.0
G1 X129.8473 Y46.1843
G3X133.8419Y53.1157I-4.0054J6.9251
G1 F300.0 Z-2.0
F800.0
G3X129.8365Y60.0408I-8.0J-0.0062
G1 X129.8323 Y65.5014
G1 X129.8311 Y67.0014 Z-1.7
G1 X129.8295 Y69.0014
G1 X129.8284 Y70.5014 Z-2.0
G1 X129.8131 Y90.1125
G3X128.8124Y91.1118I-1.0J-0.0008
G1 X116.4999 Y91.1022
G1 X114.9999 Y91.101 Z-1.7
G1 X112.9999 Y91.0995
G1 X111.4999 Y91.0983 Z-2.0
G1 X100.8124 Y91.09
G3X99.8131Y90.0892I0.0008J-1.0
G1 X99.819 Y82.4991
G1 X99.8202 Y80.9991 Z-1.7
G1 X99.8218 Y78.9991
G1 X99.8229 Y77.4991 Z-2.0
G1 X99.8287 Y70.0892
G3X100.8295Y69.09I1.0J0.0008
G1 X104.8295 Y69.0931
G1 X104.8318 Y66.0931
G1 X100.8318 Y66.09
G3X99.8326Y65.0892I0.0008J-1.0
G1 X99.8512 Y41.0892
G3X100.852Y40.09I1.0J0.0008
G1 X104.852 Y40.0931
G1 X104.8543 Y37.0931
G1 X100.8543 Y37.09
G3X99.8551Y36.0892I0.0008J-1.0
G1 X99.8602 Y29.4999
G1 X99.8614 Y27.9999 Z-1.7
G1 X99.863 Y25.9999
G1 X99.8641 Y24.4999 Z-2.0
G1 X99.8707 Y16.0892
G3X100.8714Y15.09I1.0J0.0008
G1 X112.5007 Y15.099
G1 X114.0007 Y15.1002 Z-1.7
G1 X116.0007 Y15.1018
G1 X117.5007 Y15.1029 Z-2.0
G1 X128.8714 Y15.1118
G3X129.8707Y16.1125I-0.0008J1.0
G1 X129.8579 Y32.4991
G1 X129.8568 Y33.9991 Z-1.7
G1 X129.8552 Y35.9991
G1 X129.854 Y37.4991 Z-2.0
G1 X129.8473 Y46.1843
G3X133.8419Y53.1157I-4.0054J6.9251
G1 F300.0 Z-3.0
F800.0
G3X129.8365Y60.0408I-8.0J-0.0062
G1 X129.8323 Y65.5014
G1 X129.8311 Y67.0014 Z-1.7
G1 X129.8295 Y69.0014
G1 X129.8284 Y70.5014 Z-3.0
G1 X129.8131 Y90.1125
G3X128.8124Y91.1118I-1.0J-0.0008
G1 X116.4999 Y91.1022
G1 X114.9999 Y91.101 Z-1.7
G1 X112.9999 Y91.0995
G1 X111.4999 Y91.0983 Z-3.0
G1 X100.8124 Y91.09
G3X99.8131Y90.0892I0.0008J-1.0
G1 X99.819 Y82.4991
G1 X99.8202 Y80.9991 Z-1.7
G1 X99.8218 Y78.9991
G1 X99.8229 Y77.4991 Z-3.0
G1 X99.8287 Y70.0892
G3X100.8295Y69.09I1.0J0.0008
G1 X104.8295 Y69.0931
G1 X104.8318 Y66.0931
G1 X100.8318 Y66.09
G3X99.8326Y65.0892I0.0008J-1.0
G1 X99.8512 Y41.0892
G3X100.852Y40.09I1.0J0.0008
G1 X104.852 Y40.0931
G1 X104.8543 Y37.0931
G1 X100.8543 Y37.09
G3X99.8551Y36.0892I0.0008J-1.0
G1 X99.8602 Y29.4999
G1 X99.8614 Y27.9999 Z-1.7
G1 X99.863 Y25.9999
G1 X99.8641 Y24.4999 Z-3.0
G1 X99.8707 Y16.0892
G3X100.8714Y15.09I1.0J0.0008
G1 X112.5007 Y15.099
G1 X114.0007 Y15.1002 Z-1.7
G1 X116.0007 Y15.1018
G1 X117.5007 Y15.1029 Z-3.0
G1 X128.8714 Y15.1118
G3X129.8707Y16.1125I-0.0008J1.0
G1 X129.8579 Y32.4991
G1 X129.8568 Y33.9991 Z-1.7
G1 X129.8552 Y35.9991
G1 X129.854 Y37.4991 Z-3.0
G1 X129.8473 Y46.1843
G3X133.8419Y53.1157I-4.0054J6.9251
G1 F300.0 Z-4.0
F800.0
G3X129.8365Y60.0408I-8.0J-0.0062
G1 X129.8323 Y65.5014
G1 X129.8311 Y67.0014 Z-1.7
G1 X129.8295 Y69.0014
G1 X129.8284 Y70.5014 Z-4.0
G1 X129.8131 Y90.1125
G3X128.8124Y91.1118I-1.0J-0.0008
G1 X116.4999 Y91.1022
G1 X114.9999 Y91.101 Z-1.7
G1 X112.9999 Y91.0995
G1 X111.4999 Y91.0983 Z-4.0
G1 X100.8124 Y91.09
G3X99.8131Y90.0892I0.0008J-1.0
G1 X99.819 Y82.4991
G1 X99.8202 Y80.9991 Z-1.7
G1 X99.8218 Y78.9991
G1 X99.8229 Y77.4991 Z-4.0
G1 X99.8287 Y70.0892
G3X100.8295Y69.09I1.0J0.0008
G1 X104.8295 Y69.0931
G1 X104.8318 Y66.0931
G1 X100.8318 Y66.09
G3X99.8326Y65.0892I0.0008J-1.0
G1 X99.8512 Y41.0892
G3X100.852Y40.09I1.0J0.0008
G1 X104.852 Y40.0931
G1 X104.8543 Y37.0931
G1 X100.8543 Y37.09
G3X99.8551Y36.0892I0.0008J-1.0
G1 X99.8602 Y29.4999
G1 X99.8614 Y27.9999 Z-1.7
G1 X99.863 Y25.9999
G1 X99.8641 Y24.4999 Z-4.0
G1 X99.8707 Y16.0892
G3X100.8714Y15.09I1.0J0.0008
G1 X112.5007 Y15.099
G1 X114.0007 Y15.1002 Z-1.7
G1 X116.0007 Y15.1018
G1 X117.5007 Y15.1029 Z-4.0
G1 X128.8714 Y15.1118
G3X129.8707Y16.1125I-0.0008J1.0
G1 X129.8579 Y32.4991
G1 X129.8568 Y33.9991 Z-1.7
G1 X129.8552 Y35.9991
G1 X129.854 Y37.4991 Z-4.0
G1 X129.8473 Y46.1843
G3X133.8419Y53.1157I-4.0054J6.9251
G1 F300.0 Z-4.7
F800.0
G3X129.8365Y60.0408I-8.0J-0.0062
G1 X129.8323 Y65.5014
G1 X129.8311 Y67.0014 Z-1.7
G1 X129.8295 Y69.0014
G1 X129.8284 Y70.5014 Z-4.7
G1 X129.8131 Y90.1125
G3X128.8124Y91.1118I-1.0J-0.0008
G1 X116.4999 Y91.1022
G1 X114.9999 Y91.101 Z-1.7
G1 X112.9999 Y91.0995
G1 X111.4999 Y91.0983 Z-4.7
G1 X100.8124 Y91.09
G3X99.8131Y90.0892I0.0008J-1.0
G1 X99.819 Y82.4991
G1 X99.8202 Y80.9991 Z-1.7
G1 X99.8218 Y78.9991
G1 X99.8229 Y77.4991 Z-4.7
G1 X99.8287 Y70.0892
G3X100.8295Y69.09I1.0J0.0008
G1 X104.8295 Y69.0931
G1 X104.8318 Y66.0931
G1 X100.8318 Y66.09
G3X99.8326Y65.0892I0.0008J-1.0
G1 X99.8512 Y41.0892
G3X100.852Y40.09I1.0J0.0008
G1 X104.852 Y40.0931
G1 X104.8543 Y37.0931
G1 X100.8543 Y37.09
G3X99.8551Y36.0892I0.0008J-1.0
G1 X99.8602 Y29.4999
G1 X99.8614 Y27.9999 Z-1.7
G1 X99.863 Y25.9999
G1 X99.8641 Y24.4999 Z-4.7
G1 X99.8707 Y16.0892
G3X100.8714Y15.09I1.0J0.0008
G1 X112.5007 Y15.099
G1 X114.0007 Y15.1002 Z-1.7
G1 X116.0007 Y15.1018
G1 X117.5007 Y15.1029 Z-4.7
G1 X128.8714 Y15.1118
G3X129.8707Y16.1125I-0.0008J1.0
G1 X129.8579 Y32.4991
G1 X129.8568 Y33.9991 Z-1.7
G1 X129.8552 Y35.9991
G1 X129.854 Y37.4991 Z-4.7
G1 X129.8473 Y46.1843
G3X133.8419Y53.1157I-4.0054J6.9251
G0 Z3.0
M5
M30
