( Made using CamBam - http://www.cambam.co.uk )
( PlatineRadioV2 4/23/2022 8:37:31 PM )
( Post processor: Default )
( T0 : 2.0 )
G21 G90 G64 G40
G0 Z3.0
( T0 : 2.0 )
T0 M6
( Contour1 )
G17
M3 S1000
G0 X20.4886 Y25.7025
G0 Z1.0
G1 F500.0 Z-1.0
G1 F1000.0 Y44.1453
G1 X59.9886
G1 Y25.7025
G1 X20.4886
G1 F500.0 Z-2.0
G1 F1000.0 Y44.1453
G1 X59.9886
G1 Y25.7025
G1 X20.4886
G1 F500.0 Z-3.0
G1 F1000.0 Y44.1453
G1 X37.5
G1 X39.0 Z-2.0
G1 X41.0
G1 X42.5 Z-3.0
G1 X59.9886
G1 Y25.7025
G1 X42.6361
G1 X41.1361 Z-2.0
G1 X39.1361
G1 X37.6361 Z-3.0
G1 X20.4886
G1 F500.0 Z-4.0
G1 F1000.0 Y44.1453
G1 X37.5
G1 X39.0 Z-2.0
G1 X41.0
G1 X42.5 Z-4.0
G1 X59.9886
G1 Y25.7025
G1 X42.6361
G1 X41.1361 Z-2.0
G1 X39.1361
G1 X37.6361 Z-4.0
G1 X20.4886
G1 F500.0 Z-5.0
G1 F1000.0 Y44.1453
G1 X37.5
G1 X39.0 Z-2.0
G1 X41.0
G1 X42.5 Z-5.0
G1 X59.9886
G1 Y25.7025
G1 X42.6361
G1 X41.1361 Z-2.0
G1 X39.1361
G1 X37.6361 Z-5.0
G1 X20.4886
( Contour2 )
S1000
G0 Z3.0
G0 Y65.6453
G0 Z1.0
G1 F500.0 Z-1.0
G1 F1000.0 Y104.6453
G1 X59.9886
G1 Y65.6453
G1 X20.4886
G1 F500.0 Z-2.0
G1 F1000.0 Y104.6453
G1 X59.9886
G1 Y65.6453
G1 X20.4886
G1 F500.0 Z-3.0
G1 F1000.0 Y83.5
G1 Y85.0 Z-2.0
G1 Y87.0
G1 Y88.5 Z-3.0
G1 Y104.6453
G1 X37.5
G1 X39.0 Z-2.0
G1 X41.0
G1 X42.5 Z-3.0
G1 X59.9886
G1 Y88.5
G1 Y87.0 Z-2.0
G1 Y85.0
G1 Y83.5 Z-3.0
G1 Y65.6453
G1 X42.5
G1 X41.0 Z-2.0
G1 X39.0
G1 X37.5 Z-3.0
G1 X20.4886
G1 F500.0 Z-4.0
G1 F1000.0 Y83.5
G1 Y85.0 Z-2.0
G1 Y87.0
G1 Y88.5 Z-4.0
G1 Y104.6453
G1 X37.5
G1 X39.0 Z-2.0
G1 X41.0
G1 X42.5 Z-4.0
G1 X59.9886
G1 Y88.5
G1 Y87.0 Z-2.0
G1 Y85.0
G1 Y83.5 Z-4.0
G1 Y65.6453
G1 X42.5
G1 X41.0 Z-2.0
G1 X39.0
G1 X37.5 Z-4.0
G1 X20.4886
G1 F500.0 Z-5.0
G1 F1000.0 Y83.5
G1 Y85.0 Z-2.0
G1 Y87.0
G1 Y88.5 Z-5.0
G1 Y104.6453
G1 X37.5
G1 X39.0 Z-2.0
G1 X41.0
G1 X42.5 Z-5.0
G1 X59.9886
G1 Y88.5
G1 Y87.0 Z-2.0
G1 Y85.0
G1 Y83.5 Z-5.0
G1 Y65.6453
G1 X42.5
G1 X41.0 Z-2.0
G1 X39.0
G1 X37.5 Z-5.0
G1 X20.4886
( Contour3 )
S1000
G0 Z3.0
G0 X86.0289 Y96.6453
G0 Z1.0
G1 F500.0 Z-1.0
G1 F1000.0 Y104.6453
G1 X109.0289
G1 Y96.6453
G1 X86.0289
G1 F500.0 Z-2.0
G1 F1000.0 Y104.6453
G1 X109.0289
G1 Y96.6453
G1 X86.0289
G1 F500.0 Z-3.0
G1 F1000.0 Y104.6453
G1 X95.5
G1 X97.0 Z-2.0
G1 X99.0
G1 X100.5 Z-3.0
G1 X109.0289
G1 Y96.6453
G1 X100.5
G1 X99.0 Z-2.0
G1 X97.0
G1 X95.5 Z-3.0
G1 X86.0289
G1 F500.0 Z-4.0
G1 F1000.0 Y104.6453
G1 X95.5
G1 X97.0 Z-2.0
G1 X99.0
G1 X100.5 Z-4.0
G1 X109.0289
G1 Y96.6453
G1 X100.5
G1 X99.0 Z-2.0
G1 X97.0
G1 X95.5 Z-4.0
G1 X86.0289
G1 F500.0 Z-5.0
G1 F1000.0 Y104.6453
G1 X95.5
G1 X97.0 Z-2.0
G1 X99.0
G1 X100.5 Z-5.0
G1 X109.0289
G1 Y96.6453
G1 X100.5
G1 X99.0 Z-2.0
G1 X97.0
G1 X95.5 Z-5.0
G1 X86.0289
( Contour4 )
S1000
G0 Z3.0
G0 Y25.6453
G0 Z1.0
G1 F500.0 Z-1.0
G1 F1000.0 Y33.6453
G1 X109.0289
G1 Y25.6453
G1 X86.0289
G1 F500.0 Z-2.0
G1 F1000.0 Y33.6453
G1 X109.0289
G1 Y25.6453
G1 X86.0289
G1 F500.0 Z-3.0
G1 F1000.0 Y33.6453
G1 X95.5
G1 X97.0 Z-2.0
G1 X99.0
G1 X100.5 Z-3.0
G1 X109.0289
G1 Y25.6453
G1 X100.5
G1 X99.0 Z-2.0
G1 X97.0
G1 X95.5 Z-3.0
G1 X86.0289
G1 F500.0 Z-4.0
G1 F1000.0 Y33.6453
G1 X95.5
G1 X97.0 Z-2.0
G1 X99.0
G1 X100.5 Z-4.0
G1 X109.0289
G1 Y25.6453
G1 X100.5
G1 X99.0 Z-2.0
G1 X97.0
G1 X95.5 Z-4.0
G1 X86.0289
G1 F500.0 Z-5.0
G1 F1000.0 Y33.6453
G1 X95.5
G1 X97.0 Z-2.0
G1 X99.0
G1 X100.5 Z-5.0
G1 X109.0289
G1 Y25.6453
G1 X100.5
G1 X99.0 Z-2.0
G1 X97.0
G1 X95.5 Z-5.0
G1 X86.0289
( Contour5 )
S1000
G0 Z3.0
G0 X133.0 Y40.1453
G0 Z1.0
G1 F500.0 Z-1.0
G1 F1000.0 X132.7588
G1 Y90.1453
G1 X151.7588
G1 Y40.1453
G1 X133.0
G1 F500.0 Z-2.0
G1 F1000.0 X132.7588
G1 Y90.1453
G1 X151.7588
G1 Y40.1453
G1 X133.0
G1 F500.0 Z-3.0
G1 F1000.0 X132.7588
G1 Y63.5
G1 Y65.0 Z-2.0
G1 Y67.0
G1 Y68.5 Z-3.0
G1 Y90.1453
G1 X151.7588
G1 Y85.5
G1 Y84.0 Z-2.0
G1 Y82.0
G1 Y80.5 Z-3.0
G1 Y51.5
G1 Y50.0 Z-2.0
G1 Y48.0
G1 Y46.5 Z-3.0
G1 Y40.1453
G1 X133.0
G1 F500.0 Z-4.0
G1 F1000.0 X132.7588
G1 Y63.5
G1 Y65.0 Z-2.0
G1 Y67.0
G1 Y68.5 Z-4.0
G1 Y90.1453
G1 X151.7588
G1 Y85.5
G1 Y84.0 Z-2.0
G1 Y82.0
G1 Y80.5 Z-4.0
G1 Y51.5
G1 Y50.0 Z-2.0
G1 Y48.0
G1 Y46.5 Z-4.0
G1 Y40.1453
G1 X133.0
G1 F500.0 Z-5.0
G1 F1000.0 X132.7588
G1 Y63.5
G1 Y65.0 Z-2.0
G1 Y67.0
G1 Y68.5 Z-5.0
G1 Y90.1453
G1 X151.7588
G1 Y85.5
G1 Y84.0 Z-2.0
G1 Y82.0
G1 Y80.5 Z-5.0
G1 Y51.5
G1 Y50.0 Z-2.0
G1 Y48.0
G1 Y46.5 Z-5.0
G1 Y40.1453
G1 X133.0
( Contour6 )
S1000
G0 Z3.0
G0 X167.5422 Y51.1453
G0 Z1.0
G1 F500.0 Z-1.0
G1 F1000.0 Y64.1453
G1 X175.5422
G1 Y51.1453
G1 X167.5422
G1 F500.0 Z-2.0
G1 F1000.0 Y64.1453
G1 X175.5422
G1 Y51.1453
G1 X167.5422
G1 F500.0 Z-3.0
G1 F1000.0 Y55.5
G1 Y57.0 Z-2.0
G1 Y59.0
G1 Y60.5 Z-3.0
G1 Y64.1453
G1 X175.5422
G1 Y60.5
G1 Y59.0 Z-2.0
G1 Y57.0
G1 Y55.5 Z-3.0
G1 Y51.1453
G1 X167.5422
G1 F500.0 Z-4.0
G1 F1000.0 Y55.5
G1 Y57.0 Z-2.0
G1 Y59.0
G1 Y60.5 Z-4.0
G1 Y64.1453
G1 X175.5422
G1 Y60.5
G1 Y59.0 Z-2.0
G1 Y57.0
G1 Y55.5 Z-4.0
G1 Y51.1453
G1 X167.5422
G1 F500.0 Z-5.0
G1 F1000.0 Y55.5
G1 Y57.0 Z-2.0
G1 Y59.0
G1 Y60.5 Z-5.0
G1 Y64.1453
G1 X175.5422
G1 Y60.5
G1 Y59.0 Z-2.0
G1 Y57.0
G1 Y55.5 Z-5.0
G1 Y51.1453
G1 X167.5422
( Contour7 )
S1000
G0 Z3.0
G0 X187.4886 Y70.0
G0 Z1.0
G1 F500.0 Z-1.0
G1 F1000.0 Y70.0938
G1 X278.4886
G1 Y42.0938
G1 X187.4886
G1 Y70.0
G1 F500.0 Z-2.0
G1 F1000.0 Y70.0938
G1 X278.4886
G1 Y42.0938
G1 X187.4886
G1 Y70.0
G1 F500.0 Z-3.0
G1 F1000.0 Y70.0938
G1 X204.5
G1 X206.0 Z-2.0
G1 X208.0
G1 X209.5 Z-3.0
G1 X256.4886
G1 X257.9886 Z-2.0
G1 X259.9886
G1 X261.4886 Z-3.0
G1 X278.4886
G1 Y57.5
G1 Y56.0 Z-2.0
G1 Y54.0
G1 Y52.5 Z-3.0
G1 Y42.0938
G1 X260.5
G1 X259.0 Z-2.0
G1 X257.0
G1 X255.5 Z-3.0
G1 X209.4886
G1 X207.9886 Z-2.0
G1 X205.9886
G1 X204.4886 Z-3.0
G1 X187.4886
G1 Y55.5
G1 Y57.0 Z-2.0
G1 Y59.0
G1 Y60.5 Z-3.0
G1 Y70.0
G1 F500.0 Z-4.0
G1 F1000.0 Y70.0938
G1 X204.5
G1 X206.0 Z-2.0
G1 X208.0
G1 X209.5 Z-4.0
G1 X256.4886
G1 X257.9886 Z-2.0
G1 X259.9886
G1 X261.4886 Z-4.0
G1 X278.4886
G1 Y57.5
G1 Y56.0 Z-2.0
G1 Y54.0
G1 Y52.5 Z-4.0
G1 Y42.0938
G1 X260.5
G1 X259.0 Z-2.0
G1 X257.0
G1 X255.5 Z-4.0
G1 X209.4886
G1 X207.9886 Z-2.0
G1 X205.9886
G1 X204.4886 Z-4.0
G1 X187.4886
G1 Y55.5
G1 Y57.0 Z-2.0
G1 Y59.0
G1 Y60.5 Z-4.0
G1 Y70.0
G1 F500.0 Z-5.0
G1 F1000.0 Y70.0938
G1 X204.5
G1 X206.0 Z-2.0
G1 X208.0
G1 X209.5 Z-5.0
G1 X256.4886
G1 X257.9886 Z-2.0
G1 X259.9886
G1 X261.4886 Z-5.0
G1 X278.4886
G1 Y57.5
G1 Y56.0 Z-2.0
G1 Y54.0
G1 Y52.5 Z-5.0
G1 Y42.0938
G1 X260.5
G1 X259.0 Z-2.0
G1 X257.0
G1 X255.5 Z-5.0
G1 X209.4886
G1 X207.9886 Z-2.0
G1 X205.9886
G1 X204.4886 Z-5.0
G1 X187.4886
G1 Y55.5
G1 Y57.0 Z-2.0
G1 Y59.0
G1 Y60.5 Z-5.0
G1 Y70.0
( Contour8 )
S1000
G0 Z3.0
G0 X172.4767 Y106.3495
G0 Z1.0
G1 F500.0 Z-1.0
G1 F1000.0 X211.4414 Y99.8687
G1 X208.4155 Y81.6758
G1 X169.4507 Y88.1566
G1 X172.4767 Y106.3495
G1 F500.0 Z-2.0
G1 F1000.0 X211.4414 Y99.8687
G1 X208.4155 Y81.6758
G1 X169.4507 Y88.1566
G1 X172.4767 Y106.3495
G1 F500.0 Z-3.0
G1 F1000.0 X189.3919 Y103.536
G1 X190.8715 Y103.2899 Z-2.0
G1 X192.8444 Y102.9618
G1 X194.3241 Y102.7157 Z-3.0
G1 X211.4414 Y99.8687
G1 X208.4155 Y81.6758
G1 X191.7745 Y84.4437
G1 X191.6126 Y84.4706 Z-2.8906
G1 X190.2948 Y84.6898 Z-2.0
G1 X190.1329 Y84.7167
G1 X188.3219 Y85.0179
G1 X188.16 Y85.0448
G1 X186.8422 Y85.264 Z-2.8906
G1 X186.6804 Y85.2909 Z-3.0
G1 X169.4507 Y88.1566
G1 X172.4767 Y106.3495
G1 F500.0 Z-4.0
G1 F1000.0 X189.3919 Y103.536
G1 X190.8715 Y103.2899 Z-2.0
G1 X192.8444 Y102.9618
G1 X194.3241 Y102.7157 Z-4.0
G1 X211.4414 Y99.8687
G1 X208.4155 Y81.6758
G1 X191.7745 Y84.4437
G1 X191.6126 Y84.4706 Z-3.7812
G1 X190.2948 Y84.6898 Z-2.0
G1 X190.1329 Y84.7167
G1 X188.3219 Y85.0179
G1 X188.16 Y85.0448
G1 X186.8422 Y85.264 Z-3.7812
G1 X186.6804 Y85.2909 Z-4.0
G1 X169.4507 Y88.1566
G1 X172.4767 Y106.3495
G1 F500.0 Z-5.0
G1 F1000.0 X189.3919 Y103.536
G1 X190.8715 Y103.2899 Z-2.0
G1 X192.8444 Y102.9618
G1 X194.3241 Y102.7157 Z-5.0
G1 X211.4414 Y99.8687
G1 X208.4155 Y81.6758
G1 X191.7745 Y84.4437
G1 X191.6126 Y84.4706 Z-4.6719
G1 X190.2948 Y84.6898 Z-2.0
G1 X190.1329 Y84.7167
G1 X188.3219 Y85.0179
G1 X188.16 Y85.0448
G1 X186.8422 Y85.264 Z-4.6719
G1 X186.6804 Y85.2909 Z-5.0
G1 X169.4507 Y88.1566
G1 X172.4767 Y106.3495
( Contour9 )
S1000
G0 Z3.0
G0 X173.9786 Y115.8272
G0 Z1.0
G1 F500.0 Z-1.0
G3 F1000.0 X166.263 Y116.7228 I-63.0279 J-509.3005
G3 X166.2624 I-0.1078 J-0.9942
G1 X165.6906 Y116.7845
G3 X165.6891 Y116.7847 I-0.1072 J-0.9942
G1 X164.5632 Y116.9044
G3 X164.5606 Y116.9046 I-0.1057 J-0.9944
G1 X162.3786 Y117.1307
G3 X162.3766 Y117.1309 I-0.1031 J-0.9947
G1 X161.8651 Y117.1829
G3 X161.8642 Y117.183 I-0.1011 J-0.9949
G3 X153.7947 Y117.9581 I-88.5536 J-879.4858
G3 X153.7938 Y117.9582 I-0.0911 J-0.9958
G1 X152.2817 Y118.0952
G3 X152.2805 Y118.0953 I-0.0902 J-0.9959
G3 X140.9237 Y119.0526 I-101.3297 J-1134.2986
G3 X140.9232 I-0.079 J-0.9969
G1 X140.2136 Y119.1085
G3 X140.2122 Y119.1086 I-0.0785 J-0.9969
G1 X137.5512 Y119.314
G3 X137.5496 Y119.3142 I-0.077 J-0.997
G1 X136.5516 Y119.3896
G3 X136.551 I-0.0754 J-0.9972
G1 X136.1143 Y119.4223
G3 X136.1139 Y119.4224 I-0.0747 J-0.9972
G1 X135.7045 Y119.4529
G3 X135.7036 Y119.453 I-0.0743 J-0.9972
G1 X134.1685 Y119.5661
G3 X134.1677 I-0.0735 J-0.9973
G1 X133.8798 Y119.5871
G3 X133.8787 Y119.5872 I-0.0727 J-0.9974
G1 X131.7195 Y119.7421
G3 X131.7176 Y119.7422 I-0.0716 J-0.9974
G1 X129.5581 Y119.8929
G3 X129.5565 Y119.893 I-0.0696 J-0.9976
G1 X128.2037 Y119.9851
G3 X128.2019 Y119.9852 I-0.068 J-0.9977
G1 X125.5805 Y120.1589
G3 X125.5791 I-0.0661 J-0.9978
G1 X125.2719 Y120.1789
G3 X125.2706 Y120.179 I-0.0647 J-0.9979
G1 X122.8318 Y120.3339
G3 X122.8301 Y120.334 I-0.0634 J-0.998
G1 X121.6869 Y120.4047
G3 X121.6853 Y120.4048 I-0.0617 J-0.9981
G1 X119.47 Y120.5383
G3 X119.4684 Y120.5384 I-0.0601 J-0.9982
G1 X118.4299 Y120.5993
G3 X118.4292 Y120.5994 I-0.0586 J-0.9983
G3 X102.3119 Y121.4244 I-68.6108 J-1182.5564
G3 X102.3115 I-0.0443 J-0.999
G1 X100.2978 Y121.5129
G3 X100.2965 Y121.513 I-0.0439 J-0.999
G1 X98.5345 Y121.5881
G3 X98.5329 Y121.5882 I-0.0426 J-0.9991
G1 X95.449 Y121.7148
G3 X95.4479 I-0.041 J-0.9992
G1 X94.8696 Y121.7379
G3 X94.8691 I-0.0399 J-0.9992
G1 X93.7848 Y121.7806
G3 X93.7842 Y121.7807 I-0.0394 J-0.9992
G1 X92.8354 Y121.8175
G3 X92.8342 I-0.0388 J-0.9992
G1 X89.5136 Y121.9423
G3 X89.5126 I-0.0375 J-0.9993
G1 X89.305 Y121.9499
G3 X89.3042 I-0.0366 J-0.9993
G1 X86.191 Y122.0613
G3 X86.1899 I-0.0357 J-0.9994
G1 X84.9924 Y122.1029
G3 X84.9918 I-0.0347 J-0.9994
G1 X83.813 Y122.1432
G3 X83.8124 I-0.0341 J-0.9994
G1 X82.652 Y122.1821
G3 X82.6514 I-0.0335 J-0.9994
G1 X81.5091 Y122.2197
G3 X81.5085 Y122.2198 I-0.0329 J-0.9995
G1 X80.384 Y122.2562
G3 X80.3836 I-0.0323 J-0.9995
G1 X79.8301 Y122.2738
G3 X79.8294 Y122.2739 I-0.0319 J-0.9995
G1 X77.6328 Y122.3424
G3 X77.6321 Y122.3425 I-0.0312 J-0.9995
G1 X77.1001 Y122.3587
G3 X77.0997 I-0.0305 J-0.9995
G1 X76.044 Y122.3905
G3 X76.0434 I-0.0301 J-0.9995
G1 X75.0042 Y122.4213
G3 X75.0038 I-0.0296 J-0.9996
G1 X74.4923 Y122.4362
G3 X74.492 I-0.0292 J-0.9996
G1 X73.9845 Y122.4509
G3 X73.9834 I-0.0289 J-0.9996
G1 X69.9553 Y122.563
G3 X68.064 Y122.613 I-13.9296 J-490.9892
G1 X67.6073 Y122.6249
G3 X67.6064 I-0.0259 J-0.9997
G1 X63.9762 Y122.7158
G3 X63.9747 I-0.025 J-0.9997
G1 X60.5713 Y122.7962
G3 X60.5703 I-0.0236 J-0.9997
G1 X58.9749 Y122.8323
G3 X58.9741 Y122.8324 I-0.0227 J-0.9997
G1 X55.8829 Y122.8999
G3 X55.8822 I-0.0218 J-0.9998
G1 X54.4331 Y122.9304
G3 X54.4328 I-0.0211 J-0.9998
G1 X53.7308 Y122.945
G3 X53.7306 I-0.0207 J-0.9998
G1 X53.041 Y122.9591
G3 X52.3578 Y122.973 I-2.8133 J-121.658
G1 X51.02 Y122.9998
G3 X51.0191 I-0.02 J-0.9998
G1 X45.8305 Y123.099
G3 X45.8293 I-0.0191 J-0.9998
G1 X41.2891 Y123.1802
G3 X41.2886 I-0.0179 J-0.9998
G1 X41.1644 Y123.1824
G3 X41.164 I-0.0173 J-0.9998
G1 X37.2068 Y123.2493
G3 X37.2061 I-0.0169 J-0.9999
G1 X33.7434 Y123.3053
G3 X33.743 I-0.0162 J-0.9999
G1 X32.9856 Y123.3173
G3 X32.985 I-0.0158 J-0.9999
G1 X27.1148 Y123.4066
G3 X27.114 I-0.0152 J-0.9999
G1 X22.7112 Y123.4701
G3 X22.7109 I-0.0144 J-0.9999
G1 X21.8853 Y123.4817
G1 X21.8852
G1 X21.1112 Y123.4924
G3 X21.1108 I-0.0139 J-0.9999
G1 X15.3065 Y123.5708
G3 X15.3059 I-0.0135 J-0.9999
G1 X12.4037 Y123.6085
G3 X12.4034 I-0.013 J-0.9999
G1 X9.5012 Y123.6452
G3 X8.4886 Y122.6453 I-0.0127 J-0.9999
G1 Y7.6453
G3 X9.5013 Y6.6454 I1.0 J0.0
G1 X14.2937 Y6.7065
G3 X14.2942 I-0.0128 J0.9999
G1 X18.787 Y6.7662
G3 X18.7874 I-0.0133 J0.9999
G1 X20.8935 Y6.7951
G3 X20.8939 I-0.0137 J0.9999
G1 X24.9743 Y6.8527
G3 X24.9748 Y6.8528 I-0.0141 J0.9999
G1 X28.8001 Y6.909
G3 X28.8007 I-0.0147 J0.9999
G1 X32.3869 Y6.9639
G3 X32.3875 I-0.0153 J0.9999
G1 X35.7495 Y7.0174
G3 X35.75 I-0.0159 J0.9999
G1 X37.3259 Y7.0432
G3 X37.3262 I-0.0164 J0.9999
G1 X38.8529 Y7.0687
G3 X44.7704 Y7.1722 I-58.1927 J3496.6412
G3 X44.7709 I-0.0183 J0.9998
G1 X49.947 Y7.2696
G3 X49.9479 Y7.2697 I-0.0188 J0.9998
G1 X51.0802 Y7.2919
G3 X51.0807 Y7.292 I-0.0197 J0.9998
G1 X53.2745 Y7.3362
G3 X53.2749 I-0.0202 J0.9998
G1 X54.3033 Y7.3574
G3 X54.3041 I-0.0206 J0.9998
G1 X58.2865 Y7.4429
G3 X58.7281 Y7.4527 I-0.7265 J42.6634
G1 X60.4418 Y7.4914
G3 X60.4427 I-0.0226 J0.9997
G1 X63.6602 Y7.5671
G3 X63.6611 I-0.0235 J0.9997
G1 X65.0495 Y7.6011
G3 X65.1516 Y7.6031 I0.0147 J1.8654
G3 X65.2534 Y7.6061 I-0.0051 J1.8638
G1 X67.853 Y7.672
G3 X67.8533 I-0.0253 J0.9997
G3 X86.1903 Y8.2292 I-49.9975 J1947.4558
G1 X86.1904
G1 X86.8679 Y8.253
G3 X86.8684 Y8.2531 I-0.0351 J0.9994
G1 X88.2023 Y8.3006
G3 X88.203 Y8.3007 I-0.0356 J0.9994
G1 X89.4952 Y8.3476
G3 X89.4962 I-0.0363 J0.9993
G1 X91.9858 Y8.4406
G3 X92.0738 Y8.4436 I-0.0283 J2.0923
G3 X92.1615 Y8.4473 I-0.043 J2.0913
G1 X94.4854 Y8.5374
G3 X94.4864 Y8.5375 I-0.0388 J0.9992
G1 X95.5822 Y8.5811
G3 X95.5832 I-0.0398 J0.9992
G1 X97.7062 Y8.6678
G3 X97.7075 Y8.6679 I-0.0408 J0.9992
G1 X99.6977 Y8.7518
G3 X99.6987 I-0.0421 J0.9991
G1 X100.6316 Y8.7921
G3 X100.6321 I-0.0431 J0.9991
G1 X101.084 Y8.8118
G3 X101.0843 Y8.8119 I-0.0436 J0.999
G1 X101.5291 Y8.8314
G3 X101.5299 I-0.0439 J0.999
G1 X103.2657 Y8.9091
G3 X103.3847 Y8.9141 I-0.0416 J2.4058
G3 X103.487 Y8.9188 I-0.0582 J2.4043
G3 X103.589 Y8.9235 I-0.0586 J2.4032
G3 X103.7064 Y8.9292 I-0.0589 J2.4021
G1 X105.3072 Y9.0034
G3 X105.309 I-0.0463 J0.9989
G1 X108.339 Y9.1493
G3 X108.3408 Y9.1494 I-0.0481 J0.9988
G1 X109.6663 Y9.2155
G3 X109.6674 Y9.2156 I-0.0498 J0.9988
G1 X110.91 Y9.2789
G3 X110.911 Y9.279 I-0.0509 J0.9987
G1 X112.0759 Y9.3396
G3 X112.0774 I-0.0519 J0.9987
G1 X114.2613 Y9.4564
G3 X114.2621 Y9.4565 I-0.0534 J0.9986
G3 X121.9114 Y9.8996 I-56.6163 J1043.4629
G3 X121.9122 Y9.8997 I-0.0615 J0.9981
G1 X123.8222 Y10.0189
G3 X123.8245 Y10.019 I-0.0623 J0.9981
G1 X126.689 Y10.2043
G3 X126.6911 Y10.2045 I-0.0645 J0.9979
G1 X128.1181 Y10.2997
G3 X128.3038 Y10.3122 I-0.5071 J8.9341
G3 X128.459 Y10.3226 I-0.5333 J9.0363
G3 X128.7358 Y10.3414 I-0.747 J13.0542
G3 X128.9409 Y10.3554 I-0.8265 J13.6363
G3 X129.5601 Y10.3978 I-3.0979 J49.7671
G3 X147.9217 Y11.8134 I-75.3013 J1096.5311
G3 X147.9227 Y11.8135 I-0.0852 J0.9964
G1 X150.2133 Y12.0118
G3 X151.2213 Y12.1007 I-10.8122 J128.3437
G1 X153.0995 Y12.2691
G3 X153.1009 Y12.2693 I-0.0893 J0.996
G1 X153.9231 Y12.3442
G3 X153.9244 Y12.3443 I-0.0907 J0.9959
G1 X155.4657 Y12.4866
G3 X155.4669 Y12.4867 I-0.092 J0.9958
G1 X156.1412 Y12.5498
G3 X156.1423 Y12.5499 I-0.0932 J0.9957
G1 X157.4065 Y12.6696
G3 X157.4075 Y12.6697 I-0.0943 J0.9955
G1 X157.9605 Y12.7227
G3 X157.9615 Y12.7228 I-0.0953 J0.9954
G1 X158.9983 Y12.8231
G3 X158.9995 Y12.8232 I-0.0963 J0.9954
G1 X159.9066 Y12.9121
G3 X159.9077 Y12.9122 I-0.0975 J0.9952
G1 X160.7013 Y12.9908
G3 X160.7023 Y12.9909 I-0.0986 J0.9951
G1 X161.3967 Y13.0604
G3 X161.3976 Y13.0605 I-0.0996 J0.995
G1 X162.0051 Y13.1218
G3 X162.0071 Y13.122 I-0.1005 J0.9949
G1 X164.1328 Y13.341
G3 X164.1362 Y13.3413 I-0.1025 J0.9947
G1 X166.2545 Y13.5669
G3 X166.4469 Y13.5876 I-0.6352 J6.7867
G3 X166.6341 Y13.6081 I-0.7139 J7.3964
G3 X169.5126 Y13.9299 I-41.5718 J384.8641
G1 X169.8271 Y13.9661
G3 X169.8287 Y13.9663 I-0.1142 J0.9935
G1 X171.0677 Y14.1107
G3 X171.0692 Y14.1109 I-0.1158 J0.9933
G3 X180.3683 Y15.3036 I-55.2371 J467.5351
G3 X180.3697 Y15.3037 I-0.1371 J0.9906
G1 X181.5279 Y15.4657
G3 X181.5308 Y15.4661 I-0.1385 J0.9904
G1 X183.5568 Y15.7555
G3 X183.5597 Y15.7559 I-0.1414 J0.9899
G1 X185.0785 Y15.9774
G3 X185.0807 Y15.9777 I-0.1443 J0.9895
G1 X187.3582 Y16.3151
G3 X187.3597 Y16.3154 I-0.1466 J0.9892
G1 X189.6366 Y16.6563
G3 X189.637 Y16.6564 I-0.1481 J0.989
G1 X192.1402 Y17.0322
G3 X192.1408 Y17.0323 I-0.1485 J0.9889
G1 X194.3309 Y17.3626
G3 X194.332 Y17.3628 I-0.1491 J0.9888
G1 X196.2479 Y17.654
G3 X196.2494 Y17.6542 I-0.1503 J0.9886
G1 X197.9254 Y17.9115
G3 X197.927 Y17.9117 I-0.1517 J0.9884
G1 X199.3932 Y18.1391
G3 X199.3948 Y18.1394 I-0.1533 J0.9882
G1 X200.6774 Y18.3404
G3 X200.6798 Y18.3408 I-0.1549 J0.9879
G1 X202.9236 Y18.6981
G3 X202.9259 Y18.6985 I-0.1573 J0.9876
G1 X203.767 Y18.8346
G3 X203.7684 Y18.8348 I-0.1597 J0.9872
G1 X204.5042 Y18.9548
G3 X204.5054 Y18.955 I-0.161 J0.987
G1 X205.1491 Y19.0608
G3 X205.1502 Y19.061 I-0.1622 J0.9868
G1 X205.7133 Y19.1542
G3 X205.7148 Y19.1545 I-0.1633 J0.9866
G1 X206.7 Y19.3191
G3 X206.7025 Y19.3196 I-0.1648 J0.9863
G1 X208.1797 Y19.5704
G3 X208.1829 Y19.5709 I-0.1674 J0.9859
G1 X209.6592 Y19.8266
G3 X209.6624 Y19.8272 I-0.1707 J0.9853
G1 X210.913 Y20.0479
G3 X210.9149 Y20.0482 I-0.1738 J0.9848
G1 X211.5009 Y20.1528
G3 X211.5012 Y20.1529 I-0.1757 J0.9844
G3 X216.046 Y20.9817 I-119.5236 J668.2948
G1 X217.7467 Y21.2961
G3 X217.7501 Y21.2967 I-0.1818 J0.9833
G2 X218.1157 Y21.3643 I10.4092 J-55.2475
G3 X218.1239 Y21.3658 I-0.1786 J0.9839
G2 X218.4745 Y21.4307 I6.6145 J-34.7861
G3 X218.4855 Y21.4327 I-0.1769 J0.9842
G2 X218.8225 Y21.495 I5.1964 J-27.1692
G3 X218.8277 Y21.496 I-0.1757 J0.9844
G1 X221.5348 Y21.9938
G3 X221.5438 Y21.9956 I-0.1809 J0.9835
G2 X221.7769 Y22.0381 I2.1271 J-10.995
G3 X221.7976 Y22.0419 I-0.1691 J0.9856
G2 X222.0224 Y22.0828 I2.0224 J-10.4633
G3 X222.0433 Y22.0866 I-0.1687 J0.9857
G2 X222.2603 Y22.1261 I1.9277 J-9.9841
G3 X222.2814 Y22.1299 I-0.1682 J0.9857
G2 X222.4907 Y22.1679 I1.8414 J-9.5489
G3 X222.512 Y22.1718 I-0.1678 J0.9858
G2 X222.714 Y22.2084 I1.7623 J-9.1513
G3 X222.7354 Y22.2122 I-0.1674 J0.9859
G2 X222.9303 Y22.2475 I1.6894 J-8.7859
G3 X222.9517 Y22.2514 I-0.167 J0.986
G2 X223.1398 Y22.2853 I1.6218 J-8.4482
G3 X223.1613 Y22.2892 I-0.1667 J0.986
G2 X223.3428 Y22.3219 I1.559 J-8.135
G3 X223.3644 Y22.3258 I-0.1663 J0.9861
G2 X223.5395 Y22.3572 I1.5003 J-7.8432
G3 X223.5611 Y22.3611 I-0.166 J0.9861
G2 X223.73 Y22.3914 I1.4454 J-7.5704
G3 X223.7516 Y22.3953 I-0.1656 J0.9862
G2 X223.9146 Y22.4245 I1.3938 J-7.3144
G3 X223.9362 Y22.4283 I-0.1653 J0.9862
G2 X224.0935 Y22.4565 I1.3452 J-7.0736
G3 X224.1149 Y22.4603 I-0.165 J0.9863
G2 X224.2667 Y22.4874 I1.2993 J-6.8463
G3 X224.2881 Y22.4912 I-0.1647 J0.9863
G2 X224.4346 Y22.5172 I1.2559 J-6.6315
G3 X224.4559 Y22.521 I-0.1644 J0.9864
G2 X224.5972 Y22.5461 I1.2147 J-6.4279
G3 X224.6184 Y22.5499 I-0.1641 J0.9864
G2 X224.7547 Y22.5741 I1.1756 J-6.2343
G3 X224.7758 Y22.5778 I-0.1638 J0.9865
G2 X224.9074 Y22.6011 I1.1384 J-6.05
G3 X224.9203 Y22.6033 I-0.1635 J0.9865
G2 X226.098 Y22.8098 I27.9956 J-156.1867
G3 X226.1139 Y22.8127 I-0.169 J0.9856
G2 X226.3084 Y22.8464 I1.2895 J-6.8525
G3 X226.3354 Y22.8511 I-0.1571 J0.9876
G2 X226.5165 Y22.8825 I1.2216 J-6.5226
G3 X226.5277 Y22.8843 I-0.1568 J0.9876
G1 X228.0915 Y23.1508
G3 X228.1031 Y23.1528 I-0.168 J0.9858
G2 X228.2701 Y23.1808 I1.0495 J-5.7475
G3 X228.2818 Y23.1827 I-0.151 J0.9885
G1 X229.6513 Y23.4086
G3 X229.6612 Y23.4103 I-0.1628 J0.9867
G2 X229.8053 Y23.4337 I0.9881 J-5.637
G3 X229.8164 Y23.4354 I-0.1475 J0.9891
G1 X230.4874 Y23.5432
G1 X230.8116 Y23.5947
G1 X231.1308 Y23.6452
G1 X231.7605 Y23.7438
G1 X232.0648 Y23.7911
G1 X233.267 Y23.9757
G1 X233.8301 Y24.0613
G1 X234.9228 Y24.226
G1 X236.9735 Y24.5326
G1 X236.9734
G1 X236.9735
G1 X237.8709 Y24.6667
G3 X237.8717 Y24.6668 I-0.1478 J0.989
G1 X239.5543 Y24.9196
G3 X239.5561 Y24.9199 I-0.1486 J0.9889
G1 X241.0279 Y25.1438
G3 X241.0297 Y25.1441 I-0.1504 J0.9886
G1 X241.6735 Y25.2432
G3 X241.6753 Y25.2435 I-0.1522 J0.9884
G1 X242.882 Y25.4316
G3 X242.8826 Y25.4317 I-0.154 J0.9881
G3 X247.114 Y26.122 I-50.6338 J323.6746
G3 X247.1155 Y26.1223 I-0.1675 J0.9859
G1 X248.1688 Y26.3029
G3 X248.1718 Y26.3035 I-0.169 J0.9856
G1 X248.9613 Y26.4414
G3 X248.9632 Y26.4417 I-0.1721 J0.9851
G1 X249.2592 Y26.494
G3 X249.2615 Y26.4944 I-0.174 J0.9847
G1 X250.2969 Y26.6799
G3 X250.3006 Y26.6806 I-0.1763 J0.9843
G1 X251.3353 Y26.8699
G3 X251.3377 Y26.8704 I-0.18 J0.9837
G1 X251.6382 Y26.9262
G3 X251.6408 Y26.9266 I-0.1825 J0.9832
G1 X252.8327 Y27.151
G3 X252.8364 Y27.1517 I-0.185 J0.9827
G1 X253.9903 Y27.3734
G3 X253.9926 Y27.3739 I-0.1887 J0.982
G1 X254.5513 Y27.4826
G3 X254.5533 Y27.483 I-0.191 J0.9816
G1 X255.6527 Y27.6992
G3 X255.654 Y27.6995 I-0.193 J0.9812
G1 X255.7206 Y27.7127
G1 X255.7208
G1 X255.7872 Y27.7259
G3 X255.7879 Y27.726 I-0.1944 J0.9809
G3 X260.0329 Y28.5835 I-143.6425 J722.0202
G3 X260.0335 Y28.5837 I-0.2009 J0.9796
G1 X261.8868 Y28.9648
G3 X261.8882 Y28.9651 I-0.2015 J0.9795
G1 X265.3622 Y29.6848
G3 X265.3626 Y29.6849 I-0.2028 J0.9792
G1 X271.441 Y30.9469
G1 X276.0002 Y31.8883
G1 X276.8549 Y32.0639
G1 X277.2554 Y32.1462
G1 X280.3622 Y32.7818
G2 X282.6913 Y33.2557 I287.6141 J-1407.63
G1 X286.1878 Y33.9627
G1 X289.6854 Y34.6648
G3 X290.4886 Y35.6453 I-0.1968 J0.9804
G1 Y94.6453
G3 X289.6852 Y95.6258 I-1.0 J0.0
G1 X287.2881 Y96.1064
G2 X278.3076 Y97.9287 I413.5976 J2061.2919
G1 X274.9405 Y98.6205
G1 X271.9953 Y99.2289
G1 X269.4184 Y99.7632
G1 X264.9084 Y100.7
G3 X264.908 Y100.7001 I-0.2034 J-0.9791
G1 X263.2165 Y101.0508
G3 X263.2159 Y101.051 I-0.203 J-0.9792
G1 X261.7357 Y101.3569
G3 X261.7342 Y101.3572 I-0.2024 J-0.9793
G1 X259.1431 Y101.8889
G3 X259.1406 Y101.8894 I-0.201 J-0.9796
G1 X257.1963 Y102.2832
G3 X257.1936 Y102.2838 I-0.1985 J-0.9801
G1 X255.7345 Y102.5751
G3 X255.7325 Y102.5755 I-0.1958 J-0.9806
G1 X255.1851 Y102.6836
G3 X255.184 Y102.6839 I-0.1938 J-0.981
G1 X254.7049 Y102.7779
G3 X254.7032 Y102.7783 I-0.1927 J-0.9813
G1 X253.8646 Y102.9415
G3 X251.3364 Y103.4204 I-49.0432 J-251.9847
G3 X251.3347 Y103.4207 I-0.1812 J-0.9834
G1 X249.9856 Y103.6668
G3 X249.9826 Y103.6674 I-0.1795 J-0.9838
G1 X249.6662 Y103.7241
G3 X249.6635 Y103.7246 I-0.1765 J-0.9843
G1 X248.4171 Y103.9445
G3 X248.415 Y103.9449 I-0.1737 J-0.9848
G3 X247.2417 Y104.1468 I-51.5935 J-296.2285
G3 X247.24 Y104.1471 I-0.1677 J-0.9858
G1 X246.1431 Y104.3317
G3 X246.1399 Y104.3322 I-0.166 J-0.9861
G1 X245.1109 Y104.5019
G3 X245.1087 Y104.5022 I-0.1627 J-0.9867
G1 X244.6262 Y104.5807
G3 X244.6243 Y104.581 I-0.1605 J-0.987
G1 X243.6892 Y104.7312
G3 X243.6877 Y104.7314 I-0.1586 J-0.9874
G1 X243.4685 Y104.7663
G3 X243.4679 Y104.7664 I-0.1571 J-0.9876
G1 X243.2521 Y104.8006
G3 X243.2508 Y104.8008 I-0.1565 J-0.9877
G1 X242.4009 Y104.9343
G3 X242.3991 Y104.9346 I-0.1552 J-0.9879
G1 X241.6021 Y105.0584
G3 X241.6006 Y105.0586 I-0.1534 J-0.9882
G1 X240.8654 Y105.1716
G3 X240.7955 Y105.1823 I-0.2891 J-1.6564
G1 X239.4113 Y105.3925
G3 X239.4094 Y105.3928 I-0.1502 J-0.9887
G1 X236.9652 Y105.7592
G3 X236.9646 I-0.1482 J-0.989
G1 X236.5063 Y105.8277
G3 X236.5059 I-0.1477 J-0.989
G2 X233.0735 Y106.3443 I161.2136 J1082.7608
G1 X231.3591 Y106.6095
G1 X230.5039 Y106.7447
G1 X229.6488 Y106.8824
G1 X229.0244 Y106.9845
G1 X228.42 Y107.0848
G1 X227.2479 Y107.2826
G1 X226.1495 Y107.4718
G1 X225.6352 Y107.5615
G1 X225.1374 Y107.6489
G1 X223.2043 Y107.9937
G1 X222.3597 Y108.1465
G1 X221.5675 Y108.2907
G1 X220.0815 Y108.5633
G1 X218.7811 Y108.8032
G1 X217.645 Y109.0133
G3 X217.1462 Y109.1056 I-12.1876 J-64.4817
G3 X216.6787 Y109.192 I-7.2797 J-38.0569
G3 X216.2406 Y109.273 I-5.6585 J-29.3958
G3 X215.8299 Y109.3488 I-4.7654 J-24.6651
G3 X215.4448 Y109.4198 I-4.1736 J-21.5577
G3 X215.0837 Y109.4863 I-3.7411 J-19.3066
G3 X214.7452 Y109.5485 I-3.4051 J-17.5722
G3 X214.4278 Y109.6068 I-3.1332 J-16.1791
G3 X214.1302 Y109.6613 I-2.9065 J-15.025
G3 X213.846 Y109.7132 I-2.7131 J-14.0466
G3 X209.6618 Y110.4635 I-115.6135 J-632.7156
G3 X209.6611 Y110.4636 I-0.1732 J-0.9849
G3 X207.1605 Y110.8937 I-71.167 J-406.2503
G3 X202.7818 Y111.6152 I-89.507 J-529.5808
G3 X202.7808 Y111.6154 I-0.1585 J-0.9874
G1 X201.1404 Y111.877
G3 X201.1383 Y111.8773 I-0.1575 J-0.9875
G1 X199.7024 Y112.1032
G3 X199.7001 Y112.1035 I-0.1554 J-0.9879
G1 X197.1866 Y112.4928
G3 X197.1845 Y112.4931 I-0.1531 J-0.9882
G1 X195.2987 Y112.7812
G3 X195.2972 Y112.7814 I-0.151 J-0.9885
G1 X192.4703 Y113.2087
G3 X192.113 Y113.2625 I-4.8627 J-31.0989
G3 X191.8042 Y113.3089 I-4.8364 J-31.1196
G3 X191.2612 Y113.3905 I-7.0558 J-45.1209
G3 X190.8556 Y113.4514 I-6.9894 J-45.1777
G3 X190.2453 Y113.5429 I-10.6069 J-68.6113
G3 X189.6354 Y113.6344 I-18.1939 J-119.2161
G1 X186.7266 Y114.0695
G3 X186.7255 Y114.0697 I-0.1479 J-0.989
G1 X186.0888 Y114.1641
G3 X186.0878 Y114.1643 I-0.1468 J-0.9892
G1 X184.8541 Y114.3461
G3 X184.8533 Y114.3462 I-0.1458 J-0.9893
G1 X184.7091 Y114.3673
G3 X175.4982 Y115.6359 I-72.2098 J-490.2319
G3 X175.4965 Y115.6361 I-0.1271 J-0.9919
G1 X174.3458 Y115.7816
G3 X174.3439 Y115.7818 I-0.1254 J-0.9921
G3 X173.9786 Y115.8272 I-63.3932 J-509.2552
G1 F500.0 Z-2.0
G3 F1000.0 X166.263 Y116.7228 I-63.0279 J-509.3005
G3 X166.2624 I-0.1078 J-0.9942
G1 X165.6906 Y116.7845
G3 X165.6891 Y116.7847 I-0.1072 J-0.9942
G1 X164.5632 Y116.9044
G3 X164.5606 Y116.9046 I-0.1057 J-0.9944
G1 X162.3786 Y117.1307
G3 X162.3766 Y117.1309 I-0.1031 J-0.9947
G1 X161.8651 Y117.1829
G3 X161.8642 Y117.183 I-0.1011 J-0.9949
G3 X153.7947 Y117.9581 I-88.5536 J-879.4858
G3 X153.7938 Y117.9582 I-0.0911 J-0.9958
G1 X152.2817 Y118.0952
G3 X152.2805 Y118.0953 I-0.0902 J-0.9959
G3 X140.9237 Y119.0526 I-101.3297 J-1134.2986
G3 X140.9232 I-0.079 J-0.9969
G1 X140.2136 Y119.1085
G3 X140.2122 Y119.1086 I-0.0785 J-0.9969
G1 X137.5512 Y119.314
G3 X137.5496 Y119.3142 I-0.077 J-0.997
G1 X136.5516 Y119.3896
G3 X136.551 I-0.0754 J-0.9972
G1 X136.1143 Y119.4223
G3 X136.1139 Y119.4224 I-0.0747 J-0.9972
G1 X135.7045 Y119.4529
G3 X135.7036 Y119.453 I-0.0743 J-0.9972
G1 X134.1685 Y119.5661
G3 X134.1677 I-0.0735 J-0.9973
G1 X133.8798 Y119.5871
G3 X133.8787 Y119.5872 I-0.0727 J-0.9974
G1 X131.7195 Y119.7421
G3 X131.7176 Y119.7422 I-0.0716 J-0.9974
G1 X129.5581 Y119.8929
G3 X129.5565 Y119.893 I-0.0696 J-0.9976
G1 X128.2037 Y119.9851
G3 X128.2019 Y119.9852 I-0.068 J-0.9977
G1 X125.5805 Y120.1589
G3 X125.5791 I-0.0661 J-0.9978
G1 X125.2719 Y120.1789
G3 X125.2706 Y120.179 I-0.0647 J-0.9979
G1 X122.8318 Y120.3339
G3 X122.8301 Y120.334 I-0.0634 J-0.998
G1 X121.6869 Y120.4047
G3 X121.6853 Y120.4048 I-0.0617 J-0.9981
G1 X119.47 Y120.5383
G3 X119.4684 Y120.5384 I-0.0601 J-0.9982
G1 X118.4299 Y120.5993
G3 X118.4292 Y120.5994 I-0.0586 J-0.9983
G3 X102.3119 Y121.4244 I-68.6108 J-1182.5564
G3 X102.3115 I-0.0443 J-0.999
G1 X100.2978 Y121.5129
G3 X100.2965 Y121.513 I-0.0439 J-0.999
G1 X98.5345 Y121.5881
G3 X98.5329 Y121.5882 I-0.0426 J-0.9991
G1 X95.449 Y121.7148
G3 X95.4479 I-0.041 J-0.9992
G1 X94.8696 Y121.7379
G3 X94.8691 I-0.0399 J-0.9992
G1 X93.7848 Y121.7806
G3 X93.7842 Y121.7807 I-0.0394 J-0.9992
G1 X92.8354 Y121.8175
G3 X92.8342 I-0.0388 J-0.9992
G1 X89.5136 Y121.9423
G3 X89.5126 I-0.0375 J-0.9993
G1 X89.305 Y121.9499
G3 X89.3042 I-0.0366 J-0.9993
G1 X86.191 Y122.0613
G3 X86.1899 I-0.0357 J-0.9994
G1 X84.9924 Y122.1029
G3 X84.9918 I-0.0347 J-0.9994
G1 X83.813 Y122.1432
G3 X83.8124 I-0.0341 J-0.9994
G1 X82.652 Y122.1821
G3 X82.6514 I-0.0335 J-0.9994
G1 X81.5091 Y122.2197
G3 X81.5085 Y122.2198 I-0.0329 J-0.9995
G1 X80.384 Y122.2562
G3 X80.3836 I-0.0323 J-0.9995
G1 X79.8301 Y122.2738
G3 X79.8294 Y122.2739 I-0.0319 J-0.9995
G1 X77.6328 Y122.3424
G3 X77.6321 Y122.3425 I-0.0312 J-0.9995
G1 X77.1001 Y122.3587
G3 X77.0997 I-0.0305 J-0.9995
G1 X76.044 Y122.3905
G3 X76.0434 I-0.0301 J-0.9995
G1 X75.0042 Y122.4213
G3 X75.0038 I-0.0296 J-0.9996
G1 X74.4923 Y122.4362
G3 X74.492 I-0.0292 J-0.9996
G1 X73.9845 Y122.4509
G3 X73.9834 I-0.0289 J-0.9996
G1 X69.9553 Y122.563
G3 X68.064 Y122.613 I-13.9296 J-490.9892
G1 X67.6073 Y122.6249
G3 X67.6064 I-0.0259 J-0.9997
G1 X63.9762 Y122.7158
G3 X63.9747 I-0.025 J-0.9997
G1 X60.5713 Y122.7962
G3 X60.5703 I-0.0236 J-0.9997
G1 X58.9749 Y122.8323
G3 X58.9741 Y122.8324 I-0.0227 J-0.9997
G1 X55.8829 Y122.8999
G3 X55.8822 I-0.0218 J-0.9998
G1 X54.4331 Y122.9304
G3 X54.4328 I-0.0211 J-0.9998
G1 X53.7308 Y122.945
G3 X53.7306 I-0.0207 J-0.9998
G1 X53.041 Y122.9591
G3 X52.3578 Y122.973 I-2.8133 J-121.658
G1 X51.02 Y122.9998
G3 X51.0191 I-0.02 J-0.9998
G1 X45.8305 Y123.099
G3 X45.8293 I-0.0191 J-0.9998
G1 X41.2891 Y123.1802
G3 X41.2886 I-0.0179 J-0.9998
G1 X41.1644 Y123.1824
G3 X41.164 I-0.0173 J-0.9998
G1 X37.2068 Y123.2493
G3 X37.2061 I-0.0169 J-0.9999
G1 X33.7434 Y123.3053
G3 X33.743 I-0.0162 J-0.9999
G1 X32.9856 Y123.3173
G3 X32.985 I-0.0158 J-0.9999
G1 X27.1148 Y123.4066
G3 X27.114 I-0.0152 J-0.9999
G1 X22.7112 Y123.4701
G3 X22.7109 I-0.0144 J-0.9999
G1 X21.8853 Y123.4817
G1 X21.8852
G1 X21.1112 Y123.4924
G3 X21.1108 I-0.0139 J-0.9999
G1 X15.3065 Y123.5708
G3 X15.3059 I-0.0135 J-0.9999
G1 X12.4037 Y123.6085
G3 X12.4034 I-0.013 J-0.9999
G1 X9.5012 Y123.6452
G3 X8.4886 Y122.6453 I-0.0127 J-0.9999
G1 Y7.6453
G3 X9.5013 Y6.6454 I1.0 J0.0
G1 X14.2937 Y6.7065
G3 X14.2942 I-0.0128 J0.9999
G1 X18.787 Y6.7662
G3 X18.7874 I-0.0133 J0.9999
G1 X20.8935 Y6.7951
G3 X20.8939 I-0.0137 J0.9999
G1 X24.9743 Y6.8527
G3 X24.9748 Y6.8528 I-0.0141 J0.9999
G1 X28.8001 Y6.909
G3 X28.8007 I-0.0147 J0.9999
G1 X32.3869 Y6.9639
G3 X32.3875 I-0.0153 J0.9999
G1 X35.7495 Y7.0174
G3 X35.75 I-0.0159 J0.9999
G1 X37.3259 Y7.0432
G3 X37.3262 I-0.0164 J0.9999
G1 X38.8529 Y7.0687
G3 X44.7704 Y7.1722 I-58.1927 J3496.6412
G3 X44.7709 I-0.0183 J0.9998
G1 X49.947 Y7.2696
G3 X49.9479 Y7.2697 I-0.0188 J0.9998
G1 X51.0802 Y7.2919
G3 X51.0807 Y7.292 I-0.0197 J0.9998
G1 X53.2745 Y7.3362
G3 X53.2749 I-0.0202 J0.9998
G1 X54.3033 Y7.3574
G3 X54.3041 I-0.0206 J0.9998
G1 X58.2865 Y7.4429
G3 X58.7281 Y7.4527 I-0.7265 J42.6634
G1 X60.4418 Y7.4914
G3 X60.4427 I-0.0226 J0.9997
G1 X63.6602 Y7.5671
G3 X63.6611 I-0.0235 J0.9997
G1 X65.0495 Y7.6011
G3 X65.1516 Y7.6031 I0.0147 J1.8654
G3 X65.2534 Y7.6061 I-0.0051 J1.8638
G1 X67.853 Y7.672
G3 X67.8533 I-0.0253 J0.9997
G3 X86.1903 Y8.2292 I-49.9975 J1947.4558
G1 X86.1904
G1 X86.8679 Y8.253
G3 X86.8684 Y8.2531 I-0.0351 J0.9994
G1 X88.2023 Y8.3006
G3 X88.203 Y8.3007 I-0.0356 J0.9994
G1 X89.4952 Y8.3476
G3 X89.4962 I-0.0363 J0.9993
G1 X91.9858 Y8.4406
G3 X92.0738 Y8.4436 I-0.0283 J2.0923
G3 X92.1615 Y8.4473 I-0.043 J2.0913
G1 X94.4854 Y8.5374
G3 X94.4864 Y8.5375 I-0.0388 J0.9992
G1 X95.5822 Y8.5811
G3 X95.5832 I-0.0398 J0.9992
G1 X97.7062 Y8.6678
G3 X97.7075 Y8.6679 I-0.0408 J0.9992
G1 X99.6977 Y8.7518
G3 X99.6987 I-0.0421 J0.9991
G1 X100.6316 Y8.7921
G3 X100.6321 I-0.0431 J0.9991
G1 X101.084 Y8.8118
G3 X101.0843 Y8.8119 I-0.0436 J0.999
G1 X101.5291 Y8.8314
G3 X101.5299 I-0.0439 J0.999
G1 X103.2657 Y8.9091
G3 X103.3847 Y8.9141 I-0.0416 J2.4058
G3 X103.487 Y8.9188 I-0.0582 J2.4043
G3 X103.589 Y8.9235 I-0.0586 J2.4032
G3 X103.7064 Y8.9292 I-0.0589 J2.4021
G1 X105.3072 Y9.0034
G3 X105.309 I-0.0463 J0.9989
G1 X108.339 Y9.1493
G3 X108.3408 Y9.1494 I-0.0481 J0.9988
G1 X109.6663 Y9.2155
G3 X109.6674 Y9.2156 I-0.0498 J0.9988
G1 X110.91 Y9.2789
G3 X110.911 Y9.279 I-0.0509 J0.9987
G1 X112.0759 Y9.3396
G3 X112.0774 I-0.0519 J0.9987
G1 X114.2613 Y9.4564
G3 X114.2621 Y9.4565 I-0.0534 J0.9986
G3 X121.9114 Y9.8996 I-56.6163 J1043.4629
G3 X121.9122 Y9.8997 I-0.0615 J0.9981
G1 X123.8222 Y10.0189
G3 X123.8245 Y10.019 I-0.0623 J0.9981
G1 X126.689 Y10.2043
G3 X126.6911 Y10.2045 I-0.0645 J0.9979
G1 X128.1181 Y10.2997
G3 X128.3038 Y10.3122 I-0.5071 J8.9341
G3 X128.459 Y10.3226 I-0.5333 J9.0363
G3 X128.7358 Y10.3414 I-0.747 J13.0542
G3 X128.9409 Y10.3554 I-0.8265 J13.6363
G3 X129.5601 Y10.3978 I-3.0979 J49.7671
G3 X147.9217 Y11.8134 I-75.3013 J1096.5311
G3 X147.9227 Y11.8135 I-0.0852 J0.9964
G1 X150.2133 Y12.0118
G3 X151.2213 Y12.1007 I-10.8122 J128.3437
G1 X153.0995 Y12.2691
G3 X153.1009 Y12.2693 I-0.0893 J0.996
G1 X153.9231 Y12.3442
G3 X153.9244 Y12.3443 I-0.0907 J0.9959
G1 X155.4657 Y12.4866
G3 X155.4669 Y12.4867 I-0.092 J0.9958
G1 X156.1412 Y12.5498
G3 X156.1423 Y12.5499 I-0.0932 J0.9957
G1 X157.4065 Y12.6696
G3 X157.4075 Y12.6697 I-0.0943 J0.9955
G1 X157.9605 Y12.7227
G3 X157.9615 Y12.7228 I-0.0953 J0.9954
G1 X158.9983 Y12.8231
G3 X158.9995 Y12.8232 I-0.0963 J0.9954
G1 X159.9066 Y12.9121
G3 X159.9077 Y12.9122 I-0.0975 J0.9952
G1 X160.7013 Y12.9908
G3 X160.7023 Y12.9909 I-0.0986 J0.9951
G1 X161.3967 Y13.0604
G3 X161.3976 Y13.0605 I-0.0996 J0.995
G1 X162.0051 Y13.1218
G3 X162.0071 Y13.122 I-0.1005 J0.9949
G1 X164.1328 Y13.341
G3 X164.1362 Y13.3413 I-0.1025 J0.9947
G1 X166.2545 Y13.5669
G3 X166.4469 Y13.5876 I-0.6352 J6.7867
G3 X166.6341 Y13.6081 I-0.7139 J7.3964
G3 X169.5126 Y13.9299 I-41.5718 J384.8641
G1 X169.8271 Y13.9661
G3 X169.8287 Y13.9663 I-0.1142 J0.9935
G1 X171.0677 Y14.1107
G3 X171.0692 Y14.1109 I-0.1158 J0.9933
G3 X180.3683 Y15.3036 I-55.2371 J467.5351
G3 X180.3697 Y15.3037 I-0.1371 J0.9906
G1 X181.5279 Y15.4657
G3 X181.5308 Y15.4661 I-0.1385 J0.9904
G1 X183.5568 Y15.7555
G3 X183.5597 Y15.7559 I-0.1414 J0.9899
G1 X185.0785 Y15.9774
G3 X185.0807 Y15.9777 I-0.1443 J0.9895
G1 X187.3582 Y16.3151
G3 X187.3597 Y16.3154 I-0.1466 J0.9892
G1 X189.6366 Y16.6563
G3 X189.637 Y16.6564 I-0.1481 J0.989
G1 X192.1402 Y17.0322
G3 X192.1408 Y17.0323 I-0.1485 J0.9889
G1 X194.3309 Y17.3626
G3 X194.332 Y17.3628 I-0.1491 J0.9888
G1 X196.2479 Y17.654
G3 X196.2494 Y17.6542 I-0.1503 J0.9886
G1 X197.9254 Y17.9115
G3 X197.927 Y17.9117 I-0.1517 J0.9884
G1 X199.3932 Y18.1391
G3 X199.3948 Y18.1394 I-0.1533 J0.9882
G1 X200.6774 Y18.3404
G3 X200.6798 Y18.3408 I-0.1549 J0.9879
G1 X202.9236 Y18.6981
G3 X202.9259 Y18.6985 I-0.1573 J0.9876
G1 X203.767 Y18.8346
G3 X203.7684 Y18.8348 I-0.1597 J0.9872
G1 X204.5042 Y18.9548
G3 X204.5054 Y18.955 I-0.161 J0.987
G1 X205.1491 Y19.0608
G3 X205.1502 Y19.061 I-0.1622 J0.9868
G1 X205.7133 Y19.1542
G3 X205.7148 Y19.1545 I-0.1633 J0.9866
G1 X206.7 Y19.3191
G3 X206.7025 Y19.3196 I-0.1648 J0.9863
G1 X208.1797 Y19.5704
G3 X208.1829 Y19.5709 I-0.1674 J0.9859
G1 X209.6592 Y19.8266
G3 X209.6624 Y19.8272 I-0.1707 J0.9853
G1 X210.913 Y20.0479
G3 X210.9149 Y20.0482 I-0.1738 J0.9848
G1 X211.5009 Y20.1528
G3 X211.5012 Y20.1529 I-0.1757 J0.9844
G3 X216.046 Y20.9817 I-119.5236 J668.2948
G1 X217.7467 Y21.2961
G3 X217.7501 Y21.2967 I-0.1818 J0.9833
G2 X218.1157 Y21.3643 I10.4092 J-55.2475
G3 X218.1239 Y21.3658 I-0.1786 J0.9839
G2 X218.4745 Y21.4307 I6.6145 J-34.7861
G3 X218.4855 Y21.4327 I-0.1769 J0.9842
G2 X218.8225 Y21.495 I5.1964 J-27.1692
G3 X218.8277 Y21.496 I-0.1757 J0.9844
G1 X221.5348 Y21.9938
G3 X221.5438 Y21.9956 I-0.1809 J0.9835
G2 X221.7769 Y22.0381 I2.1271 J-10.995
G3 X221.7976 Y22.0419 I-0.1691 J0.9856
G2 X222.0224 Y22.0828 I2.0224 J-10.4633
G3 X222.0433 Y22.0866 I-0.1687 J0.9857
G2 X222.2603 Y22.1261 I1.9277 J-9.9841
G3 X222.2814 Y22.1299 I-0.1682 J0.9857
G2 X222.4907 Y22.1679 I1.8414 J-9.5489
G3 X222.512 Y22.1718 I-0.1678 J0.9858
G2 X222.714 Y22.2084 I1.7623 J-9.1513
G3 X222.7354 Y22.2122 I-0.1674 J0.9859
G2 X222.9303 Y22.2475 I1.6894 J-8.7859
G3 X222.9517 Y22.2514 I-0.167 J0.986
G2 X223.1398 Y22.2853 I1.6218 J-8.4482
G3 X223.1613 Y22.2892 I-0.1667 J0.986
G2 X223.3428 Y22.3219 I1.559 J-8.135
G3 X223.3644 Y22.3258 I-0.1663 J0.9861
G2 X223.5395 Y22.3572 I1.5003 J-7.8432
G3 X223.5611 Y22.3611 I-0.166 J0.9861
G2 X223.73 Y22.3914 I1.4454 J-7.5704
G3 X223.7516 Y22.3953 I-0.1656 J0.9862
G2 X223.9146 Y22.4245 I1.3938 J-7.3144
G3 X223.9362 Y22.4283 I-0.1653 J0.9862
G2 X224.0935 Y22.4565 I1.3452 J-7.0736
G3 X224.1149 Y22.4603 I-0.165 J0.9863
G2 X224.2667 Y22.4874 I1.2993 J-6.8463
G3 X224.2881 Y22.4912 I-0.1647 J0.9863
G2 X224.4346 Y22.5172 I1.2559 J-6.6315
G3 X224.4559 Y22.521 I-0.1644 J0.9864
G2 X224.5972 Y22.5461 I1.2147 J-6.4279
G3 X224.6184 Y22.5499 I-0.1641 J0.9864
G2 X224.7547 Y22.5741 I1.1756 J-6.2343
G3 X224.7758 Y22.5778 I-0.1638 J0.9865
G2 X224.9074 Y22.6011 I1.1384 J-6.05
G3 X224.9203 Y22.6033 I-0.1635 J0.9865
G2 X226.098 Y22.8098 I27.9956 J-156.1867
G3 X226.1139 Y22.8127 I-0.169 J0.9856
G2 X226.3084 Y22.8464 I1.2895 J-6.8525
G3 X226.3354 Y22.8511 I-0.1571 J0.9876
G2 X226.5165 Y22.8825 I1.2216 J-6.5226
G3 X226.5277 Y22.8843 I-0.1568 J0.9876
G1 X228.0915 Y23.1508
G3 X228.1031 Y23.1528 I-0.168 J0.9858
G2 X228.2701 Y23.1808 I1.0495 J-5.7475
G3 X228.2818 Y23.1827 I-0.151 J0.9885
G1 X229.6513 Y23.4086
G3 X229.6612 Y23.4103 I-0.1628 J0.9867
G2 X229.8053 Y23.4337 I0.9881 J-5.637
G3 X229.8164 Y23.4354 I-0.1475 J0.9891
G1 X230.4874 Y23.5432
G1 X230.8116 Y23.5947
G1 X231.1308 Y23.6452
G1 X231.7605 Y23.7438
G1 X232.0648 Y23.7911
G1 X233.267 Y23.9757
G1 X233.8301 Y24.0613
G1 X234.9228 Y24.226
G1 X236.9735 Y24.5326
G1 X236.9734
G1 X236.9735
G1 X237.8709 Y24.6667
G3 X237.8717 Y24.6668 I-0.1478 J0.989
G1 X239.5543 Y24.9196
G3 X239.5561 Y24.9199 I-0.1486 J0.9889
G1 X241.0279 Y25.1438
G3 X241.0297 Y25.1441 I-0.1504 J0.9886
G1 X241.6735 Y25.2432
G3 X241.6753 Y25.2435 I-0.1522 J0.9884
G1 X242.882 Y25.4316
G3 X242.8826 Y25.4317 I-0.154 J0.9881
G3 X247.114 Y26.122 I-50.6338 J323.6746
G3 X247.1155 Y26.1223 I-0.1675 J0.9859
G1 X248.1688 Y26.3029
G3 X248.1718 Y26.3035 I-0.169 J0.9856
G1 X248.9613 Y26.4414
G3 X248.9632 Y26.4417 I-0.1721 J0.9851
G1 X249.2592 Y26.494
G3 X249.2615 Y26.4944 I-0.174 J0.9847
G1 X250.2969 Y26.6799
G3 X250.3006 Y26.6806 I-0.1763 J0.9843
G1 X251.3353 Y26.8699
G3 X251.3377 Y26.8704 I-0.18 J0.9837
G1 X251.6382 Y26.9262
G3 X251.6408 Y26.9266 I-0.1825 J0.9832
G1 X252.8327 Y27.151
G3 X252.8364 Y27.1517 I-0.185 J0.9827
G1 X253.9903 Y27.3734
G3 X253.9926 Y27.3739 I-0.1887 J0.982
G1 X254.5513 Y27.4826
G3 X254.5533 Y27.483 I-0.191 J0.9816
G1 X255.6527 Y27.6992
G3 X255.654 Y27.6995 I-0.193 J0.9812
G1 X255.7206 Y27.7127
G1 X255.7208
G1 X255.7872 Y27.7259
G3 X255.7879 Y27.726 I-0.1944 J0.9809
G3 X260.0329 Y28.5835 I-143.6425 J722.0202
G3 X260.0335 Y28.5837 I-0.2009 J0.9796
G1 X261.8868 Y28.9648
G3 X261.8882 Y28.9651 I-0.2015 J0.9795
G1 X265.3622 Y29.6848
G3 X265.3626 Y29.6849 I-0.2028 J0.9792
G1 X271.441 Y30.9469
G1 X276.0002 Y31.8883
G1 X276.8549 Y32.0639
G1 X277.2554 Y32.1462
G1 X280.3622 Y32.7818
G2 X282.6913 Y33.2557 I287.6141 J-1407.63
G1 X286.1878 Y33.9627
G1 X289.6854 Y34.6648
G3 X290.4886 Y35.6453 I-0.1968 J0.9804
G1 Y94.6453
G3 X289.6852 Y95.6258 I-1.0 J0.0
G1 X287.2881 Y96.1064
G2 X278.3076 Y97.9287 I413.5976 J2061.2919
G1 X274.9405 Y98.6205
G1 X271.9953 Y99.2289
G1 X269.4184 Y99.7632
G1 X264.9084 Y100.7
G3 X264.908 Y100.7001 I-0.2034 J-0.9791
G1 X263.2165 Y101.0508
G3 X263.2159 Y101.051 I-0.203 J-0.9792
G1 X261.7357 Y101.3569
G3 X261.7342 Y101.3572 I-0.2024 J-0.9793
G1 X259.1431 Y101.8889
G3 X259.1406 Y101.8894 I-0.201 J-0.9796
G1 X257.1963 Y102.2832
G3 X257.1936 Y102.2838 I-0.1985 J-0.9801
G1 X255.7345 Y102.5751
G3 X255.7325 Y102.5755 I-0.1958 J-0.9806
G1 X255.1851 Y102.6836
G3 X255.184 Y102.6839 I-0.1938 J-0.981
G1 X254.7049 Y102.7779
G3 X254.7032 Y102.7783 I-0.1927 J-0.9813
G1 X253.8646 Y102.9415
G3 X251.3364 Y103.4204 I-49.0432 J-251.9847
G3 X251.3347 Y103.4207 I-0.1812 J-0.9834
G1 X249.9856 Y103.6668
G3 X249.9826 Y103.6674 I-0.1795 J-0.9838
G1 X249.6662 Y103.7241
G3 X249.6635 Y103.7246 I-0.1765 J-0.9843
G1 X248.4171 Y103.9445
G3 X248.415 Y103.9449 I-0.1737 J-0.9848
G3 X247.2417 Y104.1468 I-51.5935 J-296.2285
G3 X247.24 Y104.1471 I-0.1677 J-0.9858
G1 X246.1431 Y104.3317
G3 X246.1399 Y104.3322 I-0.166 J-0.9861
G1 X245.1109 Y104.5019
G3 X245.1087 Y104.5022 I-0.1627 J-0.9867
G1 X244.6262 Y104.5807
G3 X244.6243 Y104.581 I-0.1605 J-0.987
G1 X243.6892 Y104.7312
G3 X243.6877 Y104.7314 I-0.1586 J-0.9874
G1 X243.4685 Y104.7663
G3 X243.4679 Y104.7664 I-0.1571 J-0.9876
G1 X243.2521 Y104.8006
G3 X243.2508 Y104.8008 I-0.1565 J-0.9877
G1 X242.4009 Y104.9343
G3 X242.3991 Y104.9346 I-0.1552 J-0.9879
G1 X241.6021 Y105.0584
G3 X241.6006 Y105.0586 I-0.1534 J-0.9882
G1 X240.8654 Y105.1716
G3 X240.7955 Y105.1823 I-0.2891 J-1.6564
G1 X239.4113 Y105.3925
G3 X239.4094 Y105.3928 I-0.1502 J-0.9887
G1 X236.9652 Y105.7592
G3 X236.9646 I-0.1482 J-0.989
G1 X236.5063 Y105.8277
G3 X236.5059 I-0.1477 J-0.989
G2 X233.0735 Y106.3443 I161.2136 J1082.7608
G1 X231.3591 Y106.6095
G1 X230.5039 Y106.7447
G1 X229.6488 Y106.8824
G1 X229.0244 Y106.9845
G1 X228.42 Y107.0848
G1 X227.2479 Y107.2826
G1 X226.1495 Y107.4718
G1 X225.6352 Y107.5615
G1 X225.1374 Y107.6489
G1 X223.2043 Y107.9937
G1 X222.3597 Y108.1465
G1 X221.5675 Y108.2907
G1 X220.0815 Y108.5633
G1 X218.7811 Y108.8032
G1 X217.645 Y109.0133
G3 X217.1462 Y109.1056 I-12.1876 J-64.4817
G3 X216.6787 Y109.192 I-7.2797 J-38.0569
G3 X216.2406 Y109.273 I-5.6585 J-29.3958
G3 X215.8299 Y109.3488 I-4.7654 J-24.6651
G3 X215.4448 Y109.4198 I-4.1736 J-21.5577
G3 X215.0837 Y109.4863 I-3.7411 J-19.3066
G3 X214.7452 Y109.5485 I-3.4051 J-17.5722
G3 X214.4278 Y109.6068 I-3.1332 J-16.1791
G3 X214.1302 Y109.6613 I-2.9065 J-15.025
G3 X213.846 Y109.7132 I-2.7131 J-14.0466
G3 X209.6618 Y110.4635 I-115.6135 J-632.7156
G3 X209.6611 Y110.4636 I-0.1732 J-0.9849
G3 X207.1605 Y110.8937 I-71.167 J-406.2503
G3 X202.7818 Y111.6152 I-89.507 J-529.5808
G3 X202.7808 Y111.6154 I-0.1585 J-0.9874
G1 X201.1404 Y111.877
G3 X201.1383 Y111.8773 I-0.1575 J-0.9875
G1 X199.7024 Y112.1032
G3 X199.7001 Y112.1035 I-0.1554 J-0.9879
G1 X197.1866 Y112.4928
G3 X197.1845 Y112.4931 I-0.1531 J-0.9882
G1 X195.2987 Y112.7812
G3 X195.2972 Y112.7814 I-0.151 J-0.9885
G1 X192.4703 Y113.2087
G3 X192.113 Y113.2625 I-4.8627 J-31.0989
G3 X191.8042 Y113.3089 I-4.8364 J-31.1196
G3 X191.2612 Y113.3905 I-7.0558 J-45.1209
G3 X190.8556 Y113.4514 I-6.9894 J-45.1777
G3 X190.2453 Y113.5429 I-10.6069 J-68.6113
G3 X189.6354 Y113.6344 I-18.1939 J-119.2161
G1 X186.7266 Y114.0695
G3 X186.7255 Y114.0697 I-0.1479 J-0.989
G1 X186.0888 Y114.1641
G3 X186.0878 Y114.1643 I-0.1468 J-0.9892
G1 X184.8541 Y114.3461
G3 X184.8533 Y114.3462 I-0.1458 J-0.9893
G1 X184.7091 Y114.3673
G3 X175.4982 Y115.6359 I-72.2098 J-490.2319
G3 X175.4965 Y115.6361 I-0.1271 J-0.9919
G1 X174.3458 Y115.7816
G3 X174.3439 Y115.7818 I-0.1254 J-0.9921
G3 X173.9786 Y115.8272 I-63.3932 J-509.2552
G1 F500.0 Z-3.0
G3 F1000.0 X166.263 Y116.7228 I-63.0279 J-509.3005
G3 X166.2624 I-0.1078 J-0.9942
G1 X165.6906 Y116.7845
G3 X165.6891 Y116.7847 I-0.1072 J-0.9942
G1 X164.5632 Y116.9044
G3 X164.5606 Y116.9046 I-0.1057 J-0.9944
G1 X162.3786 Y117.1307
G3 X162.3766 Y117.1309 I-0.1031 J-0.9947
G1 X161.8651 Y117.1829
G3 X161.8642 Y117.183 I-0.1011 J-0.9949
G3 X153.7947 Y117.9581 I-88.5536 J-879.4858
G3 X153.7938 Y117.9582 I-0.0911 J-0.9958
G1 X152.2817 Y118.0952
G3 X152.2805 Y118.0953 I-0.0902 J-0.9959
G3 X151.0931 Y118.2007 I-101.3297 J-1134.2986
G3 X149.5989 Y118.3317 Z-2.0 I-100.1424 J-1134.4041
G3 X147.6062 Y118.5032 I-98.6481 J-1134.535
G3 X146.1116 Y118.6295 Z-3.0 I-96.6555 J-1134.7065
G3 X140.9237 Y119.0526 I-95.1608 J-1134.8328
G3 X140.9232 I-0.079 J-0.9969
G1 X140.2136 Y119.1085
G3 X140.2122 Y119.1086 I-0.0785 J-0.9969
G1 X137.5512 Y119.314
G3 X137.5496 Y119.3142 I-0.077 J-0.997
G1 X136.5516 Y119.3896
G3 X136.551 I-0.0754 J-0.9972
G1 X136.1143 Y119.4223
G3 X136.1139 Y119.4224 I-0.0747 J-0.9972
G1 X135.7045 Y119.4529
G3 X135.7036 Y119.453 I-0.0743 J-0.9972
G1 X134.1685 Y119.5661
G3 X134.1677 I-0.0735 J-0.9973
G1 X133.8798 Y119.5871
G3 X133.8787 Y119.5872 I-0.0727 J-0.9974
G1 X131.7195 Y119.7421
G3 X131.7176 Y119.7422 I-0.0716 J-0.9974
G1 X129.5581 Y119.8929
G3 X129.5565 Y119.893 I-0.0696 J-0.9976
G1 X128.2037 Y119.9851
G3 X128.2019 Y119.9852 I-0.068 J-0.9977
G1 X125.5805 Y120.1589
G3 X125.5791 I-0.0661 J-0.9978
G1 X125.2719 Y120.1789
G3 X125.2706 Y120.179 I-0.0647 J-0.9979
G1 X122.8318 Y120.3339
G3 X122.8301 Y120.334 I-0.0634 J-0.998
G1 X121.6869 Y120.4047
G3 X121.6853 Y120.4048 I-0.0617 J-0.9981
G1 X119.47 Y120.5383
G3 X119.4684 Y120.5384 I-0.0601 J-0.9982
G1 X118.4299 Y120.5993
G3 X118.4292 Y120.5994 I-0.0586 J-0.9983
G3 X102.3119 Y121.4244 I-68.6108 J-1182.5564
G3 X102.3115 I-0.0443 J-0.999
G1 X100.2978 Y121.5129
G3 X100.2965 Y121.513 I-0.0439 J-0.999
G1 X98.5345 Y121.5881
G3 X98.5329 Y121.5882 I-0.0426 J-0.9991
G1 X95.449 Y121.7148
G3 X95.4479 I-0.041 J-0.9992
G1 X94.8696 Y121.7379
G3 X94.8691 I-0.0399 J-0.9992
G1 X93.7848 Y121.7806
G3 X93.7842 Y121.7807 I-0.0394 J-0.9992
G1 X92.8354 Y121.8175
G3 X92.8342 I-0.0388 J-0.9992
G1 X89.5136 Y121.9423
G3 X89.5126 I-0.0375 J-0.9993
G1 X89.305 Y121.9499
G3 X89.3042 I-0.0366 J-0.9993
G1 X86.191 Y122.0613
G3 X86.1899 I-0.0357 J-0.9994
G1 X84.9924 Y122.1029
G3 X84.9918 I-0.0347 J-0.9994
G1 X83.813 Y122.1432
G3 X83.8124 I-0.0341 J-0.9994
G1 X82.652 Y122.1821
G3 X82.6514 I-0.0335 J-0.9994
G1 X81.5091 Y122.2197
G3 X81.5085 Y122.2198 I-0.0329 J-0.9995
G1 X80.384 Y122.2562
G3 X80.3836 I-0.0323 J-0.9995
G1 X79.8301 Y122.2738
G3 X79.8294 Y122.2739 I-0.0319 J-0.9995
G1 X77.6328 Y122.3424
G3 X77.6321 Y122.3425 I-0.0312 J-0.9995
G1 X77.1001 Y122.3587
G3 X77.0997 I-0.0305 J-0.9995
G1 X76.044 Y122.3905
G3 X76.0434 I-0.0301 J-0.9995
G1 X75.0042 Y122.4213
G3 X75.0038 I-0.0296 J-0.9996
G1 X74.4923 Y122.4362
G3 X74.492 I-0.0292 J-0.9996
G1 X73.9845 Y122.4509
G3 X73.9834 I-0.0289 J-0.9996
G1 X69.9553 Y122.563
G3 X68.064 Y122.613 I-13.9296 J-490.9892
G1 X67.6073 Y122.6249
G3 X67.6064 I-0.0259 J-0.9997
G1 X63.9762 Y122.7158
G3 X63.9747 I-0.025 J-0.9997
G1 X60.5713 Y122.7962
G3 X60.5703 I-0.0236 J-0.9997
G1 X58.9749 Y122.8323
G3 X58.9741 Y122.8324 I-0.0227 J-0.9997
G1 X55.8829 Y122.8999
G3 X55.8822 I-0.0218 J-0.9998
G1 X54.4331 Y122.9304
G3 X54.4328 I-0.0211 J-0.9998
G1 X53.7308 Y122.945
G3 X53.7306 I-0.0207 J-0.9998
G1 X53.041 Y122.9591
G3 X52.3578 Y122.973 I-2.8133 J-121.658
G1 X51.02 Y122.9998
G3 X51.0191 I-0.02 J-0.9998
G1 X45.8305 Y123.099
G3 X45.8293 I-0.0191 J-0.9998
G1 X41.2891 Y123.1802
G3 X41.2886 I-0.0179 J-0.9998
G1 X41.1644 Y123.1824
G3 X41.164 I-0.0173 J-0.9998
G1 X37.2068 Y123.2493
G3 X37.2061 I-0.0169 J-0.9999
G1 X33.7434 Y123.3053
G3 X33.743 I-0.0162 J-0.9999
G1 X32.9856 Y123.3173
G3 X32.985 I-0.0158 J-0.9999
G1 X28.1456 Y123.3909
G1 X27.1148 Y123.4066 Z-2.3127
G3 X27.114 Z-2.3122 I-0.0152 J-0.9999
G1 X26.6458 Y123.4134 Z-2.0
G1 X24.646 Y123.4422
G1 X23.1462 Y123.4638 Z-3.0
G1 X22.7112 Y123.4701
G3 X22.7109 I-0.0144 J-0.9999
G1 X21.8853 Y123.4817
G1 X21.8852
G1 X21.1112 Y123.4924
G3 X21.1108 I-0.0139 J-0.9999
G1 X15.3065 Y123.5708
G3 X15.3059 I-0.0135 J-0.9999
G1 X12.4037 Y123.6085
G3 X12.4034 I-0.013 J-0.9999
G1 X9.5012 Y123.6452
G3 X8.4886 Y122.6453 I-0.0127 J-0.9999
G1 Y7.6453
G3 X9.5013 Y6.6454 I1.0 J0.0
G1 X14.2937 Y6.7065
G3 X14.2942 I-0.0128 J0.9999
G1 X18.787 Y6.7662
G3 X18.7874 I-0.0133 J0.9999
G1 X20.4745 Y6.7894
G1 X20.8935 Y6.7951 Z-2.7206
G3 X20.8939 Z-2.7204 I-0.0137 J0.9999
G1 X21.9743 Y6.8104 Z-2.0
G1 X23.9741 Y6.8386
G1 X24.9743 Y6.8527 Z-2.6668
G3 X24.9748 Y6.8528 Z-2.6672 I-0.0141 J0.9999
G1 X25.474 Y6.8601 Z-3.0
G1 X28.8001 Y6.909
G3 X28.8007 I-0.0147 J0.9999
G1 X32.3869 Y6.9639
G3 X32.3875 I-0.0153 J0.9999
G1 X35.7495 Y7.0174
G3 X35.75 I-0.0159 J0.9999
G1 X37.3259 Y7.0432
G3 X37.3262 I-0.0164 J0.9999
G1 X38.8529 Y7.0687
G3 X44.7704 Y7.1722 I-58.1927 J3496.6412
G3 X44.7709 I-0.0183 J0.9998
G1 X49.947 Y7.2696
G3 X49.9479 Y7.2697 I-0.0188 J0.9998
G1 X51.0802 Y7.2919
G3 X51.0807 Y7.292 I-0.0197 J0.9998
G1 X53.2745 Y7.3362
G3 X53.2749 I-0.0202 J0.9998
G1 X54.3033 Y7.3574
G3 X54.3041 I-0.0206 J0.9998
G1 X58.2865 Y7.4429
G3 X58.7281 Y7.4527 I-0.7265 J42.6634
G1 X60.4418 Y7.4914
G3 X60.4427 I-0.0226 J0.9997
G1 X63.6602 Y7.5671
G3 X63.6611 I-0.0235 J0.9997
G1 X65.0495 Y7.6011
G3 X65.1516 Y7.6031 I0.0147 J1.8654
G3 X65.2534 Y7.6061 I-0.0051 J1.8638
G1 X67.853 Y7.672
G3 X67.8533 I-0.0253 J0.9997
G3 X86.1903 Y8.2292 I-49.9975 J1947.4558
G1 X86.1904
G1 X86.8679 Y8.253
G3 X86.8684 Y8.2531 I-0.0351 J0.9994
G1 X88.2023 Y8.3006
G3 X88.203 Y8.3007 I-0.0356 J0.9994
G1 X89.4952 Y8.3476
G3 X89.4962 I-0.0363 J0.9993
G1 X91.9858 Y8.4406
G3 X92.0738 Y8.4436 I-0.0283 J2.0923
G3 X92.1615 Y8.4473 I-0.043 J2.0913
G1 X94.4854 Y8.5374
G3 X94.4864 Y8.5375 I-0.0388 J0.9992
G1 X95.5822 Y8.5811
G3 X95.5832 I-0.0398 J0.9992
G1 X97.7062 Y8.6678
G3 X97.7075 Y8.6679 I-0.0408 J0.9992
G1 X99.6977 Y8.7518
G3 X99.6987 I-0.0421 J0.9991
G1 X100.6316 Y8.7921
G3 X100.6321 I-0.0431 J0.9991
G1 X101.084 Y8.8118
G3 X101.0843 Y8.8119 I-0.0436 J0.999
G1 X101.5291 Y8.8314
G3 X101.5299 I-0.0439 J0.999
G1 X103.2657 Y8.9091
G3 X103.3847 Y8.9141 I-0.0416 J2.4058
G3 X103.487 Y8.9188 I-0.0582 J2.4043
G3 X103.589 Y8.9235 I-0.0586 J2.4032
G3 X103.7064 Y8.9292 I-0.0589 J2.4021
G1 X105.3072 Y9.0034
G3 X105.309 I-0.0463 J0.9989
G1 X108.339 Y9.1493
G3 X108.3408 Y9.1494 I-0.0481 J0.9988
G1 X109.6663 Y9.2155
G3 X109.6674 Y9.2156 I-0.0498 J0.9988
G1 X110.91 Y9.2789
G3 X110.911 Y9.279 I-0.0509 J0.9987
G1 X112.0759 Y9.3396
G3 X112.0774 I-0.0519 J0.9987
G1 X114.2613 Y9.4564
G3 X114.2621 Y9.4565 I-0.0534 J0.9986
G3 X121.9114 Y9.8996 I-56.6163 J1043.4629
G3 X121.9122 Y9.8997 I-0.0615 J0.9981
G1 X123.8222 Y10.0189
G3 X123.8245 Y10.019 I-0.0623 J0.9981
G1 X126.689 Y10.2043
G3 X126.6911 Y10.2045 I-0.0645 J0.9979
G1 X128.1181 Y10.2997
G3 X128.3038 Y10.3122 I-0.5071 J8.9341
G3 X128.459 Y10.3226 I-0.5333 J9.0363
G3 X128.7358 Y10.3414 I-0.747 J13.0542
G3 X128.9409 Y10.3554 I-0.8265 J13.6363
G3 X129.5601 Y10.3978 I-3.0979 J49.7671
G3 X141.3874 Y11.2742 I-75.3013 J1096.5311
G3 X142.8826 Y11.3941 Z-2.0 I-87.1286 J1095.6547
G3 X144.8759 Y11.5572 I-88.6238 J1095.5348
G3 X146.3708 Y11.6819 Z-3.0 I-90.6172 J1095.3717
G3 X147.9217 Y11.8134 I-92.112 J1095.247
G3 X147.9227 Y11.8135 I-0.0852 J0.9964
G1 X150.2133 Y12.0118
G3 X151.2213 Y12.1007 I-10.8122 J128.3437
G1 X153.0995 Y12.2691
G3 X153.1009 Y12.2693 I-0.0893 J0.996
G1 X153.9231 Y12.3442
G3 X153.9244 Y12.3443 I-0.0907 J0.9959
G1 X155.4657 Y12.4866
G3 X155.4669 Y12.4867 I-0.092 J0.9958
G1 X156.1412 Y12.5498
G3 X156.1423 Y12.5499 I-0.0932 J0.9957
G1 X157.4065 Y12.6696
G3 X157.4075 Y12.6697 I-0.0943 J0.9955
G1 X157.9605 Y12.7227
G3 X157.9615 Y12.7228 I-0.0953 J0.9954
G1 X158.9983 Y12.8231
G3 X158.9995 Y12.8232 I-0.0963 J0.9954
G1 X159.9066 Y12.9121
G3 X159.9077 Y12.9122 I-0.0975 J0.9952
G1 X160.7013 Y12.9908
G3 X160.7023 Y12.9909 I-0.0986 J0.9951
G1 X161.3967 Y13.0604
G3 X161.3976 Y13.0605 I-0.0996 J0.995
G1 X162.0051 Y13.1218
G3 X162.0071 Y13.122 I-0.1005 J0.9949
G1 X164.1328 Y13.341
G3 X164.1362 Y13.3413 I-0.1025 J0.9947
G1 X166.2545 Y13.5669
G3 X166.4469 Y13.5876 I-0.6352 J6.7867
G3 X166.6341 Y13.6081 I-0.7139 J7.3964
G3 X169.5126 Y13.9299 I-41.5718 J384.8641
G1 X169.8271 Y13.9661
G3 X169.8287 Y13.9663 I-0.1142 J0.9935
G1 X171.0677 Y14.1107
G3 X171.0692 Y14.1109 I-0.1158 J0.9933
G3 X180.3683 Y15.3036 I-55.2371 J467.5351
G3 X180.3697 Y15.3037 I-0.1371 J0.9906
G1 X181.5279 Y15.4657
G3 X181.5308 Y15.4661 I-0.1385 J0.9904
G1 X183.5568 Y15.7555
G3 X183.5597 Y15.7559 I-0.1414 J0.9899
G1 X185.0785 Y15.9774
G3 X185.0807 Y15.9777 I-0.1443 J0.9895
G1 X187.3582 Y16.3151
G3 X187.3597 Y16.3154 I-0.1466 J0.9892
G1 X189.6366 Y16.6563
G3 X189.637 Y16.6564 I-0.1481 J0.989
G1 X192.1402 Y17.0322
G3 X192.1408 Y17.0323 I-0.1485 J0.9889
G1 X194.3309 Y17.3626
G3 X194.332 Y17.3628 I-0.1491 J0.9888
G1 X196.2479 Y17.654
G3 X196.2494 Y17.6542 I-0.1503 J0.9886
G1 X197.9254 Y17.9115
G3 X197.927 Y17.9117 I-0.1517 J0.9884
G1 X199.3932 Y18.1391
G3 X199.3948 Y18.1394 I-0.1533 J0.9882
G1 X200.6774 Y18.3404
G3 X200.6798 Y18.3408 I-0.1549 J0.9879
G1 X202.9236 Y18.6981
G3 X202.9259 Y18.6985 I-0.1573 J0.9876
G1 X203.767 Y18.8346
G3 X203.7684 Y18.8348 I-0.1597 J0.9872
G1 X204.5042 Y18.9548
G3 X204.5054 Y18.955 I-0.161 J0.987
G1 X205.1491 Y19.0608
G3 X205.1502 Y19.061 I-0.1622 J0.9868
G1 X205.7133 Y19.1542
G3 X205.7148 Y19.1545 I-0.1633 J0.9866
G1 X206.7 Y19.3191
G3 X206.7025 Y19.3196 I-0.1648 J0.9863
G1 X208.1797 Y19.5704
G3 X208.1829 Y19.5709 I-0.1674 J0.9859
G1 X209.6592 Y19.8266
G3 X209.6624 Y19.8272 I-0.1707 J0.9853
G1 X210.913 Y20.0479
G3 X210.9149 Y20.0482 I-0.1738 J0.9848
G1 X211.5009 Y20.1528
G3 X211.5012 Y20.1529 I-0.1757 J0.9844
G3 X216.046 Y20.9817 I-119.5236 J668.2948
G1 X217.7467 Y21.2961
G3 X217.7501 Y21.2967 I-0.1818 J0.9833
G2 X218.1157 Y21.3643 I10.4092 J-55.2475
G3 X218.1239 Y21.3658 I-0.1786 J0.9839
G2 X218.4745 Y21.4307 I6.6145 J-34.7861
G3 X218.4855 Y21.4327 I-0.1769 J0.9842
G2 X218.8225 Y21.495 I5.1964 J-27.1692
G3 X218.8277 Y21.496 I-0.1757 J0.9844
G1 X221.5348 Y21.9938
G3 X221.5438 Y21.9956 I-0.1809 J0.9835
G2 X221.7769 Y22.0381 I2.1271 J-10.995
G3 X221.7976 Y22.0419 I-0.1691 J0.9856
G2 X222.0224 Y22.0828 I2.0224 J-10.4633
G3 X222.0433 Y22.0866 I-0.1687 J0.9857
G2 X222.2603 Y22.1261 I1.9277 J-9.9841
G3 X222.2814 Y22.1299 I-0.1682 J0.9857
G2 X222.4907 Y22.1679 I1.8414 J-9.5489
G3 X222.512 Y22.1718 I-0.1678 J0.9858
G2 X222.714 Y22.2084 I1.7623 J-9.1513
G3 X222.7354 Y22.2122 I-0.1674 J0.9859
G2 X222.9303 Y22.2475 I1.6894 J-8.7859
G3 X222.9517 Y22.2514 I-0.167 J0.986
G2 X223.1398 Y22.2853 I1.6218 J-8.4482
G3 X223.1613 Y22.2892 I-0.1667 J0.986
G2 X223.3428 Y22.3219 I1.559 J-8.135
G3 X223.3644 Y22.3258 I-0.1663 J0.9861
G2 X223.5395 Y22.3572 I1.5003 J-7.8432
G3 X223.5611 Y22.3611 I-0.166 J0.9861
G2 X223.73 Y22.3914 I1.4454 J-7.5704
G3 X223.7516 Y22.3953 I-0.1656 J0.9862
G2 X223.9146 Y22.4245 I1.3938 J-7.3144
G3 X223.9362 Y22.4283 I-0.1653 J0.9862
G2 X224.0935 Y22.4565 I1.3452 J-7.0736
G3 X224.1149 Y22.4603 I-0.165 J0.9863
G2 X224.2667 Y22.4874 I1.2993 J-6.8463
G3 X224.2881 Y22.4912 I-0.1647 J0.9863
G2 X224.4346 Y22.5172 I1.2559 J-6.6315
G3 X224.4559 Y22.521 I-0.1644 J0.9864
G2 X224.5972 Y22.5461 I1.2147 J-6.4279
G3 X224.6184 Y22.5499 I-0.1641 J0.9864
G2 X224.7547 Y22.5741 I1.1756 J-6.2343
G3 X224.7758 Y22.5778 I-0.1638 J0.9865
G2 X224.9074 Y22.6011 I1.1384 J-6.05
G3 X224.9203 Y22.6033 I-0.1635 J0.9865
G2 X226.098 Y22.8098 I27.9956 J-156.1867
G3 X226.1139 Y22.8127 I-0.169 J0.9856
G2 X226.3084 Y22.8464 I1.2895 J-6.8525
G3 X226.3354 Y22.8511 I-0.1571 J0.9876
G2 X226.5165 Y22.8825 I1.2216 J-6.5226
G3 X226.5277 Y22.8843 I-0.1568 J0.9876
G1 X228.0915 Y23.1508
G3 X228.1031 Y23.1528 I-0.168 J0.9858
G2 X228.2701 Y23.1808 I1.0495 J-5.7475
G3 X228.2818 Y23.1827 I-0.151 J0.9885
G1 X229.6513 Y23.4086
G3 X229.6612 Y23.4103 I-0.1628 J0.9867
G2 X229.8053 Y23.4337 I0.9881 J-5.637
G3 X229.8164 Y23.4354 I-0.1475 J0.9891
G1 X230.4874 Y23.5432
G1 X230.8116 Y23.5947
G1 X231.1308 Y23.6452
G1 X231.7605 Y23.7438
G1 X232.0648 Y23.7911
G1 X233.267 Y23.9757
G1 X233.8301 Y24.0613
G1 X234.9228 Y24.226
G1 X236.9735 Y24.5326
G1 X236.9734
G1 X236.9735
G1 X237.8709 Y24.6667
G3 X237.8717 Y24.6668 I-0.1478 J0.989
G1 X239.5543 Y24.9196
G3 X239.5561 Y24.9199 I-0.1486 J0.9889
G1 X241.0279 Y25.1438
G3 X241.0297 Y25.1441 I-0.1504 J0.9886
G1 X241.6735 Y25.2432
G3 X241.6753 Y25.2435 I-0.1522 J0.9884
G1 X242.882 Y25.4316
G3 X242.8826 Y25.4317 I-0.154 J0.9881
G3 X243.9023 Y25.5929 I-50.6338 J323.6746
G3 X245.3831 Y25.8328 Z-2.0 I-51.6536 J323.5134
G3 X247.114 Y26.122 I-53.1343 J323.2735
G3 X247.1155 Y26.1223 I-0.1675 J0.9859
G1 X247.3555 Y26.1635
G1 X248.1688 Y26.3029 Z-2.5501
G3 X248.1718 Y26.3035 Z-2.5522 I-0.169 J0.9856
G1 X248.8336 Y26.4191 Z-3.0
G1 X248.9613 Y26.4414
G3 X248.9632 Y26.4417 I-0.1721 J0.9851
G1 X249.2592 Y26.494
G3 X249.2615 Y26.4944 I-0.174 J0.9847
G1 X250.2969 Y26.6799
G3 X250.3006 Y26.6806 I-0.1763 J0.9843
G1 X251.3353 Y26.8699
G3 X251.3377 Y26.8704 I-0.18 J0.9837
G1 X251.6382 Y26.9262
G3 X251.6408 Y26.9266 I-0.1825 J0.9832
G1 X252.8327 Y27.151
G3 X252.8364 Y27.1517 I-0.185 J0.9827
G1 X253.9903 Y27.3734
G3 X253.9926 Y27.3739 I-0.1887 J0.982
G1 X254.5513 Y27.4826
G3 X254.5533 Y27.483 I-0.191 J0.9816
G1 X255.6527 Y27.6992
G3 X255.654 Y27.6995 I-0.193 J0.9812
G1 X255.7206 Y27.7127
G1 X255.7208
G1 X255.7872 Y27.7259
G3 X255.7879 Y27.726 I-0.1944 J0.9809
G3 X260.0329 Y28.5835 I-143.6425 J722.0202
G3 X260.0335 Y28.5837 I-0.2009 J0.9796
G1 X261.8868 Y28.9648
G3 X261.8882 Y28.9651 I-0.2015 J0.9795
G1 X265.3622 Y29.6848
G3 X265.3626 Y29.6849 I-0.2028 J0.9792
G1 X271.441 Y30.9469
G1 X276.0002 Y31.8883
G1 X276.8549 Y32.0639
G1 X277.2554 Y32.1462
G1 X280.3622 Y32.7818
G2 X282.6913 Y33.2557 I287.6141 J-1407.63
G1 X286.1878 Y33.9627
G1 X289.6854 Y34.6648
G3 X290.4886 Y35.6453 I-0.1968 J0.9804
G1 Y94.6453
G3 X289.6852 Y95.6258 I-1.0 J0.0
G1 X287.2881 Y96.1064
G2 X278.3076 Y97.9287 I413.5976 J2061.2919
G1 X274.9405 Y98.6205
G1 X271.9953 Y99.2289
G1 X269.4184 Y99.7632
G1 X264.9084 Y100.7
G3 X264.908 Y100.7001 I-0.2034 J-0.9791
G1 X263.2165 Y101.0508
G3 X263.2159 Y101.051 I-0.203 J-0.9792
G1 X261.7357 Y101.3569
G3 X261.7342 Y101.3572 I-0.2024 J-0.9793
G1 X259.1431 Y101.8889
G3 X259.1406 Y101.8894 I-0.201 J-0.9796
G1 X258.1846 Y102.083
G1 X257.1963 Y102.2832 Z-2.3278
G3 X257.1936 Y102.2838 Z-2.3259 I-0.1985 J-0.9801
G1 X256.7142 Y102.3795 Z-2.0
G1 X255.7345 Y102.5751
G3 X255.7325 Y102.5755 I-0.1958 J-0.9806
G1 X255.1851 Y102.6836
G3 X255.184 Y102.6839 I-0.1938 J-0.981
G1 X254.7524 Y102.7686
G1 X254.7049 Y102.7779 Z-2.0323
G3 X254.7032 Y102.7783 Z-2.0334 I-0.1927 J-0.9813
G1 X253.8646 Y102.9415 Z-2.603
G3 X253.2799 Y103.0546 Z-3.0 I-49.0432 J-251.9847
G3 X251.3364 Y103.4204 I-48.4585 J-252.0978
G3 X251.3347 Y103.4207 I-0.1812 J-0.9834
G1 X249.9856 Y103.6668
G3 X249.9826 Y103.6674 I-0.1795 J-0.9838
G1 X249.6662 Y103.7241
G3 X249.6635 Y103.7246 I-0.1765 J-0.9843
G1 X248.4171 Y103.9445
G3 X248.415 Y103.9449 I-0.1737 J-0.9848
G3 X247.2417 Y104.1468 I-51.5935 J-296.2285
G3 X247.24 Y104.1471 I-0.1677 J-0.9858
G1 X246.1431 Y104.3317
G3 X246.1399 Y104.3322 I-0.166 J-0.9861
G1 X245.1109 Y104.5019
G3 X245.1087 Y104.5022 I-0.1627 J-0.9867
G1 X244.6262 Y104.5807
G3 X244.6243 Y104.581 I-0.1605 J-0.987
G1 X243.6892 Y104.7312
G3 X243.6877 Y104.7314 I-0.1586 J-0.9874
G1 X243.4685 Y104.7663
G3 X243.4679 Y104.7664 I-0.1571 J-0.9876
G1 X243.2521 Y104.8006
G3 X243.2508 Y104.8008 I-0.1565 J-0.9877
G1 X242.4009 Y104.9343
G3 X242.3991 Y104.9346 I-0.1552 J-0.9879
G1 X241.6021 Y105.0584
G3 X241.6006 Y105.0586 I-0.1534 J-0.9882
G1 X240.8654 Y105.1716
G3 X240.7955 Y105.1823 I-0.2891 J-1.6564
G1 X239.4113 Y105.3925
G3 X239.4094 Y105.3928 I-0.1502 J-0.9887
G1 X236.9652 Y105.7592
G3 X236.9646 I-0.1482 J-0.989
G1 X236.5063 Y105.8277
G3 X236.5059 I-0.1477 J-0.989
G2 X233.0735 Y106.3443 I161.2136 J1082.7608
G1 X231.3591 Y106.6095
G1 X230.5039 Y106.7447
G1 X229.6488 Y106.8824
G1 X229.0244 Y106.9845
G1 X228.42 Y107.0848
G1 X227.2479 Y107.2826
G1 X226.1495 Y107.4718
G1 X225.6352 Y107.5615
G1 X225.1374 Y107.6489
G1 X223.2043 Y107.9937
G1 X222.3597 Y108.1465
G1 X221.5675 Y108.2907
G1 X220.0815 Y108.5633
G1 X218.7811 Y108.8032
G1 X217.645 Y109.0133
G3 X217.1462 Y109.1056 I-12.1876 J-64.4817
G3 X216.6787 Y109.192 I-7.2797 J-38.0569
G3 X216.2406 Y109.273 I-5.6585 J-29.3958
G3 X215.8299 Y109.3488 I-4.7654 J-24.6651
G3 X215.4448 Y109.4198 I-4.1736 J-21.5577
G3 X215.0837 Y109.4863 I-3.7411 J-19.3066
G3 X214.7452 Y109.5485 I-3.4051 J-17.5722
G3 X214.4278 Y109.6068 I-3.1332 J-16.1791
G3 X214.1302 Y109.6613 I-2.9065 J-15.025
G3 X213.846 Y109.7132 I-2.7131 J-14.0466
G3 X209.6618 Y110.4635 I-115.6135 J-632.7156
G3 X209.6611 Y110.4636 I-0.1732 J-0.9849
G3 X207.1605 Y110.8937 I-71.167 J-406.2503
G3 X202.7818 Y111.6152 I-89.507 J-529.5808
G3 X202.7808 Y111.6154 I-0.1585 J-0.9874
G1 X201.1404 Y111.877
G3 X201.1383 Y111.8773 I-0.1575 J-0.9875
G1 X199.7024 Y112.1032
G3 X199.7001 Y112.1035 I-0.1554 J-0.9879
G1 X197.1866 Y112.4928
G3 X197.1845 Y112.4931 I-0.1531 J-0.9882
G1 X195.2987 Y112.7812
G3 X195.2972 Y112.7814 I-0.151 J-0.9885
G1 X192.4703 Y113.2087
G3 X192.113 Y113.2625 I-4.8627 J-31.0989
G3 X191.8042 Y113.3089 I-4.8364 J-31.1196
G3 X191.2612 Y113.3905 I-7.0558 J-45.1209
G3 X190.8556 Y113.4514 I-6.9894 J-45.1777
G3 X190.2453 Y113.5429 I-10.6069 J-68.6113
G3 X189.6354 Y113.6344 I-18.1939 J-119.2161
G1 X186.7266 Y114.0695
G3 X186.7255 Y114.0697 I-0.1479 J-0.989
G1 X186.0888 Y114.1641
G3 X186.0878 Y114.1643 I-0.1468 J-0.9892
G1 X184.8541 Y114.3461
G3 X184.8533 Y114.3462 I-0.1458 J-0.9893
G1 X184.7091 Y114.3673
G3 X175.4982 Y115.6359 I-72.2098 J-490.2319
G3 X175.4965 Y115.6361 I-0.1271 J-0.9919
G1 X174.3458 Y115.7816
G3 X174.3439 Y115.7818 I-0.1254 J-0.9921
G3 X173.9786 Y115.8272 I-63.3932 J-509.2552
G1 F500.0 Z-4.0
G3 F1000.0 X166.263 Y116.7228 I-63.0279 J-509.3005
G3 X166.2624 I-0.1078 J-0.9942
G1 X165.6906 Y116.7845
G3 X165.6891 Y116.7847 I-0.1072 J-0.9942
G1 X164.5632 Y116.9044
G3 X164.5606 Y116.9046 I-0.1057 J-0.9944
G1 X162.3786 Y117.1307
G3 X162.3766 Y117.1309 I-0.1031 J-0.9947
G1 X161.8651 Y117.1829
G3 X161.8642 Y117.183 I-0.1011 J-0.9949
G3 X153.7947 Y117.9581 I-88.5536 J-879.4858
G3 X153.7938 Y117.9582 I-0.0911 J-0.9958
G1 X152.2817 Y118.0952
G3 X152.2805 Y118.0953 I-0.0902 J-0.9959
G3 X151.0931 Y118.2007 I-101.3297 J-1134.2986
G3 X149.5989 Y118.3317 Z-2.0 I-100.1424 J-1134.4041
G3 X147.6062 Y118.5032 I-98.6481 J-1134.535
G3 X146.1116 Y118.6295 Z-4.0 I-96.6555 J-1134.7065
G3 X140.9237 Y119.0526 I-95.1608 J-1134.8328
G3 X140.9232 I-0.079 J-0.9969
G1 X140.2136 Y119.1085
G3 X140.2122 Y119.1086 I-0.0785 J-0.9969
G1 X137.5512 Y119.314
G3 X137.5496 Y119.3142 I-0.077 J-0.997
G1 X136.5516 Y119.3896
G3 X136.551 I-0.0754 J-0.9972
G1 X136.1143 Y119.4223
G3 X136.1139 Y119.4224 I-0.0747 J-0.9972
G1 X135.7045 Y119.4529
G3 X135.7036 Y119.453 I-0.0743 J-0.9972
G1 X134.1685 Y119.5661
G3 X134.1677 I-0.0735 J-0.9973
G1 X133.8798 Y119.5871
G3 X133.8787 Y119.5872 I-0.0727 J-0.9974
G1 X131.7195 Y119.7421
G3 X131.7176 Y119.7422 I-0.0716 J-0.9974
G1 X129.5581 Y119.8929
G3 X129.5565 Y119.893 I-0.0696 J-0.9976
G1 X128.2037 Y119.9851
G3 X128.2019 Y119.9852 I-0.068 J-0.9977
G1 X125.5805 Y120.1589
G3 X125.5791 I-0.0661 J-0.9978
G1 X125.2719 Y120.1789
G3 X125.2706 Y120.179 I-0.0647 J-0.9979
G1 X122.8318 Y120.3339
G3 X122.8301 Y120.334 I-0.0634 J-0.998
G1 X121.6869 Y120.4047
G3 X121.6853 Y120.4048 I-0.0617 J-0.9981
G1 X119.47 Y120.5383
G3 X119.4684 Y120.5384 I-0.0601 J-0.9982
G1 X118.4299 Y120.5993
G3 X118.4292 Y120.5994 I-0.0586 J-0.9983
G3 X102.3119 Y121.4244 I-68.6108 J-1182.5564
G3 X102.3115 I-0.0443 J-0.999
G1 X100.2978 Y121.5129
G3 X100.2965 Y121.513 I-0.0439 J-0.999
G1 X98.5345 Y121.5881
G3 X98.5329 Y121.5882 I-0.0426 J-0.9991
G1 X95.449 Y121.7148
G3 X95.4479 I-0.041 J-0.9992
G1 X94.8696 Y121.7379
G3 X94.8691 I-0.0399 J-0.9992
G1 X93.7848 Y121.7806
G3 X93.7842 Y121.7807 I-0.0394 J-0.9992
G1 X92.8354 Y121.8175
G3 X92.8342 I-0.0388 J-0.9992
G1 X89.5136 Y121.9423
G3 X89.5126 I-0.0375 J-0.9993
G1 X89.305 Y121.9499
G3 X89.3042 I-0.0366 J-0.9993
G1 X86.191 Y122.0613
G3 X86.1899 I-0.0357 J-0.9994
G1 X84.9924 Y122.1029
G3 X84.9918 I-0.0347 J-0.9994
G1 X83.813 Y122.1432
G3 X83.8124 I-0.0341 J-0.9994
G1 X82.652 Y122.1821
G3 X82.6514 I-0.0335 J-0.9994
G1 X81.5091 Y122.2197
G3 X81.5085 Y122.2198 I-0.0329 J-0.9995
G1 X80.384 Y122.2562
G3 X80.3836 I-0.0323 J-0.9995
G1 X79.8301 Y122.2738
G3 X79.8294 Y122.2739 I-0.0319 J-0.9995
G1 X77.6328 Y122.3424
G3 X77.6321 Y122.3425 I-0.0312 J-0.9995
G1 X77.1001 Y122.3587
G3 X77.0997 I-0.0305 J-0.9995
G1 X76.044 Y122.3905
G3 X76.0434 I-0.0301 J-0.9995
G1 X75.0042 Y122.4213
G3 X75.0038 I-0.0296 J-0.9996
G1 X74.4923 Y122.4362
G3 X74.492 I-0.0292 J-0.9996
G1 X73.9845 Y122.4509
G3 X73.9834 I-0.0289 J-0.9996
G1 X69.9553 Y122.563
G3 X68.064 Y122.613 I-13.9296 J-490.9892
G1 X67.6073 Y122.6249
G3 X67.6064 I-0.0259 J-0.9997
G1 X63.9762 Y122.7158
G3 X63.9747 I-0.025 J-0.9997
G1 X60.5713 Y122.7962
G3 X60.5703 I-0.0236 J-0.9997
G1 X58.9749 Y122.8323
G3 X58.9741 Y122.8324 I-0.0227 J-0.9997
G1 X55.8829 Y122.8999
G3 X55.8822 I-0.0218 J-0.9998
G1 X54.4331 Y122.9304
G3 X54.4328 I-0.0211 J-0.9998
G1 X53.7308 Y122.945
G3 X53.7306 I-0.0207 J-0.9998
G1 X53.041 Y122.9591
G3 X52.3578 Y122.973 I-2.8133 J-121.658
G1 X51.02 Y122.9998
G3 X51.0191 I-0.02 J-0.9998
G1 X45.8305 Y123.099
G3 X45.8293 I-0.0191 J-0.9998
G1 X41.2891 Y123.1802
G3 X41.2886 I-0.0179 J-0.9998
G1 X41.1644 Y123.1824
G3 X41.164 I-0.0173 J-0.9998
G1 X37.2068 Y123.2493
G3 X37.2061 I-0.0169 J-0.9999
G1 X33.7434 Y123.3053
G3 X33.743 I-0.0162 J-0.9999
G1 X32.9856 Y123.3173
G3 X32.985 I-0.0158 J-0.9999
G1 X28.1456 Y123.3909
G1 X27.1148 Y123.4066 Z-2.6254
G3 X27.114 Z-2.6243 I-0.0152 J-0.9999
G1 X26.6458 Y123.4134 Z-2.0
G1 X24.646 Y123.4422
G1 X23.1462 Y123.4638 Z-4.0
G1 X22.7112 Y123.4701
G3 X22.7109 I-0.0144 J-0.9999
G1 X21.8853 Y123.4817
G1 X21.8852
G1 X21.1112 Y123.4924
G3 X21.1108 I-0.0139 J-0.9999
G1 X15.3065 Y123.5708
G3 X15.3059 I-0.0135 J-0.9999
G1 X12.4037 Y123.6085
G3 X12.4034 I-0.013 J-0.9999
G1 X9.5012 Y123.6452
G3 X8.4886 Y122.6453 I-0.0127 J-0.9999
G1 Y7.6453
G3 X9.5013 Y6.6454 I1.0 J0.0
G1 X14.2937 Y6.7065
G3 X14.2942 I-0.0128 J0.9999
G1 X18.787 Y6.7662
G3 X18.7874 I-0.0133 J0.9999
G1 X20.4745 Y6.7894
G1 X20.8935 Y6.7951 Z-3.4413
G3 X20.8939 Z-3.4407 I-0.0137 J0.9999
G1 X21.9743 Y6.8104 Z-2.0
G1 X23.9741 Y6.8386
G1 X24.9743 Y6.8527 Z-3.3336
G3 X24.9748 Y6.8528 Z-3.3344 I-0.0141 J0.9999
G1 X25.474 Y6.8601 Z-4.0
G1 X28.8001 Y6.909
G3 X28.8007 I-0.0147 J0.9999
G1 X32.3869 Y6.9639
G3 X32.3875 I-0.0153 J0.9999
G1 X35.7495 Y7.0174
G3 X35.75 I-0.0159 J0.9999
G1 X37.3259 Y7.0432
G3 X37.3262 I-0.0164 J0.9999
G1 X38.8529 Y7.0687
G3 X44.7704 Y7.1722 I-58.1927 J3496.6412
G3 X44.7709 I-0.0183 J0.9998
G1 X49.947 Y7.2696
G3 X49.9479 Y7.2697 I-0.0188 J0.9998
G1 X51.0802 Y7.2919
G3 X51.0807 Y7.292 I-0.0197 J0.9998
G1 X53.2745 Y7.3362
G3 X53.2749 I-0.0202 J0.9998
G1 X54.3033 Y7.3574
G3 X54.3041 I-0.0206 J0.9998
G1 X58.2865 Y7.4429
G3 X58.7281 Y7.4527 I-0.7265 J42.6634
G1 X60.4418 Y7.4914
G3 X60.4427 I-0.0226 J0.9997
G1 X63.6602 Y7.5671
G3 X63.6611 I-0.0235 J0.9997
G1 X65.0495 Y7.6011
G3 X65.1516 Y7.6031 I0.0147 J1.8654
G3 X65.2534 Y7.6061 I-0.0051 J1.8638
G1 X67.853 Y7.672
G3 X67.8533 I-0.0253 J0.9997
G3 X86.1903 Y8.2292 I-49.9975 J1947.4558
G1 X86.1904
G1 X86.8679 Y8.253
G3 X86.8684 Y8.2531 I-0.0351 J0.9994
G1 X88.2023 Y8.3006
G3 X88.203 Y8.3007 I-0.0356 J0.9994
G1 X89.4952 Y8.3476
G3 X89.4962 I-0.0363 J0.9993
G1 X91.9858 Y8.4406
G3 X92.0738 Y8.4436 I-0.0283 J2.0923
G3 X92.1615 Y8.4473 I-0.043 J2.0913
G1 X94.4854 Y8.5374
G3 X94.4864 Y8.5375 I-0.0388 J0.9992
G1 X95.5822 Y8.5811
G3 X95.5832 I-0.0398 J0.9992
G1 X97.7062 Y8.6678
G3 X97.7075 Y8.6679 I-0.0408 J0.9992
G1 X99.6977 Y8.7518
G3 X99.6987 I-0.0421 J0.9991
G1 X100.6316 Y8.7921
G3 X100.6321 I-0.0431 J0.9991
G1 X101.084 Y8.8118
G3 X101.0843 Y8.8119 I-0.0436 J0.999
G1 X101.5291 Y8.8314
G3 X101.5299 I-0.0439 J0.999
G1 X103.2657 Y8.9091
G3 X103.3847 Y8.9141 I-0.0416 J2.4058
G3 X103.487 Y8.9188 I-0.0582 J2.4043
G3 X103.589 Y8.9235 I-0.0586 J2.4032
G3 X103.7064 Y8.9292 I-0.0589 J2.4021
G1 X105.3072 Y9.0034
G3 X105.309 I-0.0463 J0.9989
G1 X108.339 Y9.1493
G3 X108.3408 Y9.1494 I-0.0481 J0.9988
G1 X109.6663 Y9.2155
G3 X109.6674 Y9.2156 I-0.0498 J0.9988
G1 X110.91 Y9.2789
G3 X110.911 Y9.279 I-0.0509 J0.9987
G1 X112.0759 Y9.3396
G3 X112.0774 I-0.0519 J0.9987
G1 X114.2613 Y9.4564
G3 X114.2621 Y9.4565 I-0.0534 J0.9986
G3 X121.9114 Y9.8996 I-56.6163 J1043.4629
G3 X121.9122 Y9.8997 I-0.0615 J0.9981
G1 X123.8222 Y10.0189
G3 X123.8245 Y10.019 I-0.0623 J0.9981
G1 X126.689 Y10.2043
G3 X126.6911 Y10.2045 I-0.0645 J0.9979
G1 X128.1181 Y10.2997
G3 X128.3038 Y10.3122 I-0.5071 J8.9341
G3 X128.459 Y10.3226 I-0.5333 J9.0363
G3 X128.7358 Y10.3414 I-0.747 J13.0542
G3 X128.9409 Y10.3554 I-0.8265 J13.6363
G3 X129.5601 Y10.3978 I-3.0979 J49.7671
G3 X141.3874 Y11.2742 I-75.3013 J1096.5311
G3 X142.8826 Y11.3941 Z-2.0 I-87.1286 J1095.6547
G3 X144.8759 Y11.5572 I-88.6238 J1095.5348
G3 X146.3708 Y11.6819 Z-4.0 I-90.6172 J1095.3717
G3 X147.9217 Y11.8134 I-92.112 J1095.247
G3 X147.9227 Y11.8135 I-0.0852 J0.9964
G1 X150.2133 Y12.0118
G3 X151.2213 Y12.1007 I-10.8122 J128.3437
G1 X153.0995 Y12.2691
G3 X153.1009 Y12.2693 I-0.0893 J0.996
G1 X153.9231 Y12.3442
G3 X153.9244 Y12.3443 I-0.0907 J0.9959
G1 X155.4657 Y12.4866
G3 X155.4669 Y12.4867 I-0.092 J0.9958
G1 X156.1412 Y12.5498
G3 X156.1423 Y12.5499 I-0.0932 J0.9957
G1 X157.4065 Y12.6696
G3 X157.4075 Y12.6697 I-0.0943 J0.9955
G1 X157.9605 Y12.7227
G3 X157.9615 Y12.7228 I-0.0953 J0.9954
G1 X158.9983 Y12.8231
G3 X158.9995 Y12.8232 I-0.0963 J0.9954
G1 X159.9066 Y12.9121
G3 X159.9077 Y12.9122 I-0.0975 J0.9952
G1 X160.7013 Y12.9908
G3 X160.7023 Y12.9909 I-0.0986 J0.9951
G1 X161.3967 Y13.0604
G3 X161.3976 Y13.0605 I-0.0996 J0.995
G1 X162.0051 Y13.1218
G3 X162.0071 Y13.122 I-0.1005 J0.9949
G1 X164.1328 Y13.341
G3 X164.1362 Y13.3413 I-0.1025 J0.9947
G1 X166.2545 Y13.5669
G3 X166.4469 Y13.5876 I-0.6352 J6.7867
G3 X166.6341 Y13.6081 I-0.7139 J7.3964
G3 X169.5126 Y13.9299 I-41.5718 J384.8641
G1 X169.8271 Y13.9661
G3 X169.8287 Y13.9663 I-0.1142 J0.9935
G1 X171.0677 Y14.1107
G3 X171.0692 Y14.1109 I-0.1158 J0.9933
G3 X180.3683 Y15.3036 I-55.2371 J467.5351
G3 X180.3697 Y15.3037 I-0.1371 J0.9906
G1 X181.5279 Y15.4657
G3 X181.5308 Y15.4661 I-0.1385 J0.9904
G1 X183.5568 Y15.7555
G3 X183.5597 Y15.7559 I-0.1414 J0.9899
G1 X185.0785 Y15.9774
G3 X185.0807 Y15.9777 I-0.1443 J0.9895
G1 X187.3582 Y16.3151
G3 X187.3597 Y16.3154 I-0.1466 J0.9892
G1 X189.6366 Y16.6563
G3 X189.637 Y16.6564 I-0.1481 J0.989
G1 X192.1402 Y17.0322
G3 X192.1408 Y17.0323 I-0.1485 J0.9889
G1 X194.3309 Y17.3626
G3 X194.332 Y17.3628 I-0.1491 J0.9888
G1 X196.2479 Y17.654
G3 X196.2494 Y17.6542 I-0.1503 J0.9886
G1 X197.9254 Y17.9115
G3 X197.927 Y17.9117 I-0.1517 J0.9884
G1 X199.3932 Y18.1391
G3 X199.3948 Y18.1394 I-0.1533 J0.9882
G1 X200.6774 Y18.3404
G3 X200.6798 Y18.3408 I-0.1549 J0.9879
G1 X202.9236 Y18.6981
G3 X202.9259 Y18.6985 I-0.1573 J0.9876
G1 X203.767 Y18.8346
G3 X203.7684 Y18.8348 I-0.1597 J0.9872
G1 X204.5042 Y18.9548
G3 X204.5054 Y18.955 I-0.161 J0.987
G1 X205.1491 Y19.0608
G3 X205.1502 Y19.061 I-0.1622 J0.9868
G1 X205.7133 Y19.1542
G3 X205.7148 Y19.1545 I-0.1633 J0.9866
G1 X206.7 Y19.3191
G3 X206.7025 Y19.3196 I-0.1648 J0.9863
G1 X208.1797 Y19.5704
G3 X208.1829 Y19.5709 I-0.1674 J0.9859
G1 X209.6592 Y19.8266
G3 X209.6624 Y19.8272 I-0.1707 J0.9853
G1 X210.913 Y20.0479
G3 X210.9149 Y20.0482 I-0.1738 J0.9848
G1 X211.5009 Y20.1528
G3 X211.5012 Y20.1529 I-0.1757 J0.9844
G3 X216.046 Y20.9817 I-119.5236 J668.2948
G1 X217.7467 Y21.2961
G3 X217.7501 Y21.2967 I-0.1818 J0.9833
G2 X218.1157 Y21.3643 I10.4092 J-55.2475
G3 X218.1239 Y21.3658 I-0.1786 J0.9839
G2 X218.4745 Y21.4307 I6.6145 J-34.7861
G3 X218.4855 Y21.4327 I-0.1769 J0.9842
G2 X218.8225 Y21.495 I5.1964 J-27.1692
G3 X218.8277 Y21.496 I-0.1757 J0.9844
G1 X221.5348 Y21.9938
G3 X221.5438 Y21.9956 I-0.1809 J0.9835
G2 X221.7769 Y22.0381 I2.1271 J-10.995
G3 X221.7976 Y22.0419 I-0.1691 J0.9856
G2 X222.0224 Y22.0828 I2.0224 J-10.4633
G3 X222.0433 Y22.0866 I-0.1687 J0.9857
G2 X222.2603 Y22.1261 I1.9277 J-9.9841
G3 X222.2814 Y22.1299 I-0.1682 J0.9857
G2 X222.4907 Y22.1679 I1.8414 J-9.5489
G3 X222.512 Y22.1718 I-0.1678 J0.9858
G2 X222.714 Y22.2084 I1.7623 J-9.1513
G3 X222.7354 Y22.2122 I-0.1674 J0.9859
G2 X222.9303 Y22.2475 I1.6894 J-8.7859
G3 X222.9517 Y22.2514 I-0.167 J0.986
G2 X223.1398 Y22.2853 I1.6218 J-8.4482
G3 X223.1613 Y22.2892 I-0.1667 J0.986
G2 X223.3428 Y22.3219 I1.559 J-8.135
G3 X223.3644 Y22.3258 I-0.1663 J0.9861
G2 X223.5395 Y22.3572 I1.5003 J-7.8432
G3 X223.5611 Y22.3611 I-0.166 J0.9861
G2 X223.73 Y22.3914 I1.4454 J-7.5704
G3 X223.7516 Y22.3953 I-0.1656 J0.9862
G2 X223.9146 Y22.4245 I1.3938 J-7.3144
G3 X223.9362 Y22.4283 I-0.1653 J0.9862
G2 X224.0935 Y22.4565 I1.3452 J-7.0736
G3 X224.1149 Y22.4603 I-0.165 J0.9863
G2 X224.2667 Y22.4874 I1.2993 J-6.8463
G3 X224.2881 Y22.4912 I-0.1647 J0.9863
G2 X224.4346 Y22.5172 I1.2559 J-6.6315
G3 X224.4559 Y22.521 I-0.1644 J0.9864
G2 X224.5972 Y22.5461 I1.2147 J-6.4279
G3 X224.6184 Y22.5499 I-0.1641 J0.9864
G2 X224.7547 Y22.5741 I1.1756 J-6.2343
G3 X224.7758 Y22.5778 I-0.1638 J0.9865
G2 X224.9074 Y22.6011 I1.1384 J-6.05
G3 X224.9203 Y22.6033 I-0.1635 J0.9865
G2 X226.098 Y22.8098 I27.9956 J-156.1867
G3 X226.1139 Y22.8127 I-0.169 J0.9856
G2 X226.3084 Y22.8464 I1.2895 J-6.8525
G3 X226.3354 Y22.8511 I-0.1571 J0.9876
G2 X226.5165 Y22.8825 I1.2216 J-6.5226
G3 X226.5277 Y22.8843 I-0.1568 J0.9876
G1 X228.0915 Y23.1508
G3 X228.1031 Y23.1528 I-0.168 J0.9858
G2 X228.2701 Y23.1808 I1.0495 J-5.7475
G3 X228.2818 Y23.1827 I-0.151 J0.9885
G1 X229.6513 Y23.4086
G3 X229.6612 Y23.4103 I-0.1628 J0.9867
G2 X229.8053 Y23.4337 I0.9881 J-5.637
G3 X229.8164 Y23.4354 I-0.1475 J0.9891
G1 X230.4874 Y23.5432
G1 X230.8116 Y23.5947
G1 X231.1308 Y23.6452
G1 X231.7605 Y23.7438
G1 X232.0648 Y23.7911
G1 X233.267 Y23.9757
G1 X233.8301 Y24.0613
G1 X234.9228 Y24.226
G1 X236.9735 Y24.5326
G1 X236.9734
G1 X236.9735
G1 X237.8709 Y24.6667
G3 X237.8717 Y24.6668 I-0.1478 J0.989
G1 X239.5543 Y24.9196
G3 X239.5561 Y24.9199 I-0.1486 J0.9889
G1 X241.0279 Y25.1438
G3 X241.0297 Y25.1441 I-0.1504 J0.9886
G1 X241.6735 Y25.2432
G3 X241.6753 Y25.2435 I-0.1522 J0.9884
G1 X242.882 Y25.4316
G3 X242.8826 Y25.4317 I-0.154 J0.9881
G3 X243.9023 Y25.5929 I-50.6338 J323.6746
G3 X245.3831 Y25.8328 Z-2.0 I-51.6536 J323.5134
G3 X247.114 Y26.122 I-53.1343 J323.2735
G3 X247.1155 Y26.1223 I-0.1675 J0.9859
G1 X247.3555 Y26.1635
G1 X248.1688 Y26.3029 Z-3.1001
G3 X248.1718 Y26.3035 Z-3.1043 I-0.169 J0.9856
G1 X248.8336 Y26.4191 Z-4.0
G1 X248.9613 Y26.4414
G3 X248.9632 Y26.4417 I-0.1721 J0.9851
G1 X249.2592 Y26.494
G3 X249.2615 Y26.4944 I-0.174 J0.9847
G1 X250.2969 Y26.6799
G3 X250.3006 Y26.6806 I-0.1763 J0.9843
G1 X251.3353 Y26.8699
G3 X251.3377 Y26.8704 I-0.18 J0.9837
G1 X251.6382 Y26.9262
G3 X251.6408 Y26.9266 I-0.1825 J0.9832
G1 X252.8327 Y27.151
G3 X252.8364 Y27.1517 I-0.185 J0.9827
G1 X253.9903 Y27.3734
G3 X253.9926 Y27.3739 I-0.1887 J0.982
G1 X254.5513 Y27.4826
G3 X254.5533 Y27.483 I-0.191 J0.9816
G1 X255.6527 Y27.6992
G3 X255.654 Y27.6995 I-0.193 J0.9812
G1 X255.7206 Y27.7127
G1 X255.7208
G1 X255.7872 Y27.7259
G3 X255.7879 Y27.726 I-0.1944 J0.9809
G3 X260.0329 Y28.5835 I-143.6425 J722.0202
G3 X260.0335 Y28.5837 I-0.2009 J0.9796
G1 X261.8868 Y28.9648
G3 X261.8882 Y28.9651 I-0.2015 J0.9795
G1 X265.3622 Y29.6848
G3 X265.3626 Y29.6849 I-0.2028 J0.9792
G1 X271.441 Y30.9469
G1 X276.0002 Y31.8883
G1 X276.8549 Y32.0639
G1 X277.2554 Y32.1462
G1 X280.3622 Y32.7818
G2 X282.6913 Y33.2557 I287.6141 J-1407.63
G1 X286.1878 Y33.9627
G1 X289.6854 Y34.6648
G3 X290.4886 Y35.6453 I-0.1968 J0.9804
G1 Y94.6453
G3 X289.6852 Y95.6258 I-1.0 J0.0
G1 X287.2881 Y96.1064
G2 X278.3076 Y97.9287 I413.5976 J2061.2919
G1 X274.9405 Y98.6205
G1 X271.9953 Y99.2289
G1 X269.4184 Y99.7632
G1 X264.9084 Y100.7
G3 X264.908 Y100.7001 I-0.2034 J-0.9791
G1 X263.2165 Y101.0508
G3 X263.2159 Y101.051 I-0.203 J-0.9792
G1 X261.7357 Y101.3569
G3 X261.7342 Y101.3572 I-0.2024 J-0.9793
G1 X259.1431 Y101.8889
G3 X259.1406 Y101.8894 I-0.201 J-0.9796
G1 X258.1846 Y102.083
G1 X257.1963 Y102.2832 Z-2.6555
G3 X257.1936 Y102.2838 Z-2.6519 I-0.1985 J-0.9801
G1 X256.7142 Y102.3795 Z-2.0
G1 X255.7345 Y102.5751
G3 X255.7325 Y102.5755 I-0.1958 J-0.9806
G1 X255.1851 Y102.6836
G3 X255.184 Y102.6839 I-0.1938 J-0.981
G1 X254.7524 Y102.7686
G1 X254.7049 Y102.7779 Z-2.0646
G3 X254.7032 Y102.7783 Z-2.0668 I-0.1927 J-0.9813
G1 X253.8646 Y102.9415 Z-3.206
G3 X253.2799 Y103.0546 Z-4.0 I-49.0432 J-251.9847
G3 X251.3364 Y103.4204 I-48.4585 J-252.0978
G3 X251.3347 Y103.4207 I-0.1812 J-0.9834
G1 X249.9856 Y103.6668
G3 X249.9826 Y103.6674 I-0.1795 J-0.9838
G1 X249.6662 Y103.7241
G3 X249.6635 Y103.7246 I-0.1765 J-0.9843
G1 X248.4171 Y103.9445
G3 X248.415 Y103.9449 I-0.1737 J-0.9848
G3 X247.2417 Y104.1468 I-51.5935 J-296.2285
G3 X247.24 Y104.1471 I-0.1677 J-0.9858
G1 X246.1431 Y104.3317
G3 X246.1399 Y104.3322 I-0.166 J-0.9861
G1 X245.1109 Y104.5019
G3 X245.1087 Y104.5022 I-0.1627 J-0.9867
G1 X244.6262 Y104.5807
G3 X244.6243 Y104.581 I-0.1605 J-0.987
G1 X243.6892 Y104.7312
G3 X243.6877 Y104.7314 I-0.1586 J-0.9874
G1 X243.4685 Y104.7663
G3 X243.4679 Y104.7664 I-0.1571 J-0.9876
G1 X243.2521 Y104.8006
G3 X243.2508 Y104.8008 I-0.1565 J-0.9877
G1 X242.4009 Y104.9343
G3 X242.3991 Y104.9346 I-0.1552 J-0.9879
G1 X241.6021 Y105.0584
G3 X241.6006 Y105.0586 I-0.1534 J-0.9882
G1 X240.8654 Y105.1716
G3 X240.7955 Y105.1823 I-0.2891 J-1.6564
G1 X239.4113 Y105.3925
G3 X239.4094 Y105.3928 I-0.1502 J-0.9887
G1 X236.9652 Y105.7592
G3 X236.9646 I-0.1482 J-0.989
G1 X236.5063 Y105.8277
G3 X236.5059 I-0.1477 J-0.989
G2 X233.0735 Y106.3443 I161.2136 J1082.7608
G1 X231.3591 Y106.6095
G1 X230.5039 Y106.7447
G1 X229.6488 Y106.8824
G1 X229.0244 Y106.9845
G1 X228.42 Y107.0848
G1 X227.2479 Y107.2826
G1 X226.1495 Y107.4718
G1 X225.6352 Y107.5615
G1 X225.1374 Y107.6489
G1 X223.2043 Y107.9937
G1 X222.3597 Y108.1465
G1 X221.5675 Y108.2907
G1 X220.0815 Y108.5633
G1 X218.7811 Y108.8032
G1 X217.645 Y109.0133
G3 X217.1462 Y109.1056 I-12.1876 J-64.4817
G3 X216.6787 Y109.192 I-7.2797 J-38.0569
G3 X216.2406 Y109.273 I-5.6585 J-29.3958
G3 X215.8299 Y109.3488 I-4.7654 J-24.6651
G3 X215.4448 Y109.4198 I-4.1736 J-21.5577
G3 X215.0837 Y109.4863 I-3.7411 J-19.3066
G3 X214.7452 Y109.5485 I-3.4051 J-17.5722
G3 X214.4278 Y109.6068 I-3.1332 J-16.1791
G3 X214.1302 Y109.6613 I-2.9065 J-15.025
G3 X213.846 Y109.7132 I-2.7131 J-14.0466
G3 X209.6618 Y110.4635 I-115.6135 J-632.7156
G3 X209.6611 Y110.4636 I-0.1732 J-0.9849
G3 X207.1605 Y110.8937 I-71.167 J-406.2503
G3 X202.7818 Y111.6152 I-89.507 J-529.5808
G3 X202.7808 Y111.6154 I-0.1585 J-0.9874
G1 X201.1404 Y111.877
G3 X201.1383 Y111.8773 I-0.1575 J-0.9875
G1 X199.7024 Y112.1032
G3 X199.7001 Y112.1035 I-0.1554 J-0.9879
G1 X197.1866 Y112.4928
G3 X197.1845 Y112.4931 I-0.1531 J-0.9882
G1 X195.2987 Y112.7812
G3 X195.2972 Y112.7814 I-0.151 J-0.9885
G1 X192.4703 Y113.2087
G3 X192.113 Y113.2625 I-4.8627 J-31.0989
G3 X191.8042 Y113.3089 I-4.8364 J-31.1196
G3 X191.2612 Y113.3905 I-7.0558 J-45.1209
G3 X190.8556 Y113.4514 I-6.9894 J-45.1777
G3 X190.2453 Y113.5429 I-10.6069 J-68.6113
G3 X189.6354 Y113.6344 I-18.1939 J-119.2161
G1 X186.7266 Y114.0695
G3 X186.7255 Y114.0697 I-0.1479 J-0.989
G1 X186.0888 Y114.1641
G3 X186.0878 Y114.1643 I-0.1468 J-0.9892
G1 X184.8541 Y114.3461
G3 X184.8533 Y114.3462 I-0.1458 J-0.9893
G1 X184.7091 Y114.3673
G3 X175.4982 Y115.6359 I-72.2098 J-490.2319
G3 X175.4965 Y115.6361 I-0.1271 J-0.9919
G1 X174.3458 Y115.7816
G3 X174.3439 Y115.7818 I-0.1254 J-0.9921
G3 X173.9786 Y115.8272 I-63.3932 J-509.2552
G1 F500.0 Z-5.0
G3 F1000.0 X166.263 Y116.7228 I-63.0279 J-509.3005
G3 X166.2624 I-0.1078 J-0.9942
G1 X165.6906 Y116.7845
G3 X165.6891 Y116.7847 I-0.1072 J-0.9942
G1 X164.5632 Y116.9044
G3 X164.5606 Y116.9046 I-0.1057 J-0.9944
G1 X162.3786 Y117.1307
G3 X162.3766 Y117.1309 I-0.1031 J-0.9947
G1 X161.8651 Y117.1829
G3 X161.8642 Y117.183 I-0.1011 J-0.9949
G3 X153.7947 Y117.9581 I-88.5536 J-879.4858
G3 X153.7938 Y117.9582 I-0.0911 J-0.9958
G1 X152.2817 Y118.0952
G3 X152.2805 Y118.0953 I-0.0902 J-0.9959
G3 X151.0931 Y118.2007 I-101.3297 J-1134.2986
G3 X149.5989 Y118.3317 Z-2.0 I-100.1424 J-1134.4041
G3 X147.6062 Y118.5032 I-98.6481 J-1134.535
G3 X146.1116 Y118.6295 Z-5.0 I-96.6555 J-1134.7065
G3 X140.9237 Y119.0526 I-95.1608 J-1134.8328
G3 X140.9232 I-0.079 J-0.9969
G1 X140.2136 Y119.1085
G3 X140.2122 Y119.1086 I-0.0785 J-0.9969
G1 X137.5512 Y119.314
G3 X137.5496 Y119.3142 I-0.077 J-0.997
G1 X136.5516 Y119.3896
G3 X136.551 I-0.0754 J-0.9972
G1 X136.1143 Y119.4223
G3 X136.1139 Y119.4224 I-0.0747 J-0.9972
G1 X135.7045 Y119.4529
G3 X135.7036 Y119.453 I-0.0743 J-0.9972
G1 X134.1685 Y119.5661
G3 X134.1677 I-0.0735 J-0.9973
G1 X133.8798 Y119.5871
G3 X133.8787 Y119.5872 I-0.0727 J-0.9974
G1 X131.7195 Y119.7421
G3 X131.7176 Y119.7422 I-0.0716 J-0.9974
G1 X129.5581 Y119.8929
G3 X129.5565 Y119.893 I-0.0696 J-0.9976
G1 X128.2037 Y119.9851
G3 X128.2019 Y119.9852 I-0.068 J-0.9977
G1 X125.5805 Y120.1589
G3 X125.5791 I-0.0661 J-0.9978
G1 X125.2719 Y120.1789
G3 X125.2706 Y120.179 I-0.0647 J-0.9979
G1 X122.8318 Y120.3339
G3 X122.8301 Y120.334 I-0.0634 J-0.998
G1 X121.6869 Y120.4047
G3 X121.6853 Y120.4048 I-0.0617 J-0.9981
G1 X119.47 Y120.5383
G3 X119.4684 Y120.5384 I-0.0601 J-0.9982
G1 X118.4299 Y120.5993
G3 X118.4292 Y120.5994 I-0.0586 J-0.9983
G3 X102.3119 Y121.4244 I-68.6108 J-1182.5564
G3 X102.3115 I-0.0443 J-0.999
G1 X100.2978 Y121.5129
G3 X100.2965 Y121.513 I-0.0439 J-0.999
G1 X98.5345 Y121.5881
G3 X98.5329 Y121.5882 I-0.0426 J-0.9991
G1 X95.449 Y121.7148
G3 X95.4479 I-0.041 J-0.9992
G1 X94.8696 Y121.7379
G3 X94.8691 I-0.0399 J-0.9992
G1 X93.7848 Y121.7806
G3 X93.7842 Y121.7807 I-0.0394 J-0.9992
G1 X92.8354 Y121.8175
G3 X92.8342 I-0.0388 J-0.9992
G1 X89.5136 Y121.9423
G3 X89.5126 I-0.0375 J-0.9993
G1 X89.305 Y121.9499
G3 X89.3042 I-0.0366 J-0.9993
G1 X86.191 Y122.0613
G3 X86.1899 I-0.0357 J-0.9994
G1 X84.9924 Y122.1029
G3 X84.9918 I-0.0347 J-0.9994
G1 X83.813 Y122.1432
G3 X83.8124 I-0.0341 J-0.9994
G1 X82.652 Y122.1821
G3 X82.6514 I-0.0335 J-0.9994
G1 X81.5091 Y122.2197
G3 X81.5085 Y122.2198 I-0.0329 J-0.9995
G1 X80.384 Y122.2562
G3 X80.3836 I-0.0323 J-0.9995
G1 X79.8301 Y122.2738
G3 X79.8294 Y122.2739 I-0.0319 J-0.9995
G1 X77.6328 Y122.3424
G3 X77.6321 Y122.3425 I-0.0312 J-0.9995
G1 X77.1001 Y122.3587
G3 X77.0997 I-0.0305 J-0.9995
G1 X76.044 Y122.3905
G3 X76.0434 I-0.0301 J-0.9995
G1 X75.0042 Y122.4213
G3 X75.0038 I-0.0296 J-0.9996
G1 X74.4923 Y122.4362
G3 X74.492 I-0.0292 J-0.9996
G1 X73.9845 Y122.4509
G3 X73.9834 I-0.0289 J-0.9996
G1 X69.9553 Y122.563
G3 X68.064 Y122.613 I-13.9296 J-490.9892
G1 X67.6073 Y122.6249
G3 X67.6064 I-0.0259 J-0.9997
G1 X63.9762 Y122.7158
G3 X63.9747 I-0.025 J-0.9997
G1 X60.5713 Y122.7962
G3 X60.5703 I-0.0236 J-0.9997
G1 X58.9749 Y122.8323
G3 X58.9741 Y122.8324 I-0.0227 J-0.9997
G1 X55.8829 Y122.8999
G3 X55.8822 I-0.0218 J-0.9998
G1 X54.4331 Y122.9304
G3 X54.4328 I-0.0211 J-0.9998
G1 X53.7308 Y122.945
G3 X53.7306 I-0.0207 J-0.9998
G1 X53.041 Y122.9591
G3 X52.3578 Y122.973 I-2.8133 J-121.658
G1 X51.02 Y122.9998
G3 X51.0191 I-0.02 J-0.9998
G1 X45.8305 Y123.099
G3 X45.8293 I-0.0191 J-0.9998
G1 X41.2891 Y123.1802
G3 X41.2886 I-0.0179 J-0.9998
G1 X41.1644 Y123.1824
G3 X41.164 I-0.0173 J-0.9998
G1 X37.2068 Y123.2493
G3 X37.2061 I-0.0169 J-0.9999
G1 X33.7434 Y123.3053
G3 X33.743 I-0.0162 J-0.9999
G1 X32.9856 Y123.3173
G3 X32.985 I-0.0158 J-0.9999
G1 X28.1456 Y123.3909
G1 X27.1148 Y123.4066 Z-2.9381
G3 X27.114 Z-2.9365 I-0.0152 J-0.9999
G1 X26.6458 Y123.4134 Z-2.0
G1 X24.646 Y123.4422
G1 X23.1462 Y123.4638 Z-5.0
G1 X22.7112 Y123.4701
G3 X22.7109 I-0.0144 J-0.9999
G1 X21.8853 Y123.4817
G1 X21.8852
G1 X21.1112 Y123.4924
G3 X21.1108 I-0.0139 J-0.9999
G1 X15.3065 Y123.5708
G3 X15.3059 I-0.0135 J-0.9999
G1 X12.4037 Y123.6085
G3 X12.4034 I-0.013 J-0.9999
G1 X9.5012 Y123.6452
G3 X8.4886 Y122.6453 I-0.0127 J-0.9999
G1 Y7.6453
G3 X9.5013 Y6.6454 I1.0 J0.0
G1 X14.2937 Y6.7065
G3 X14.2942 I-0.0128 J0.9999
G1 X18.787 Y6.7662
G3 X18.7874 I-0.0133 J0.9999
G1 X20.4745 Y6.7894
G1 X20.8935 Y6.7951 Z-4.1619
G3 X20.8939 Z-4.1611 I-0.0137 J0.9999
G1 X21.9743 Y6.8104 Z-2.0
G1 X23.9741 Y6.8386
G1 X24.9743 Y6.8527 Z-4.0005
G3 X24.9748 Y6.8528 Z-4.0016 I-0.0141 J0.9999
G1 X25.474 Y6.8601 Z-5.0
G1 X28.8001 Y6.909
G3 X28.8007 I-0.0147 J0.9999
G1 X32.3869 Y6.9639
G3 X32.3875 I-0.0153 J0.9999
G1 X35.7495 Y7.0174
G3 X35.75 I-0.0159 J0.9999
G1 X37.3259 Y7.0432
G3 X37.3262 I-0.0164 J0.9999
G1 X38.8529 Y7.0687
G3 X44.7704 Y7.1722 I-58.1927 J3496.6412
G3 X44.7709 I-0.0183 J0.9998
G1 X49.947 Y7.2696
G3 X49.9479 Y7.2697 I-0.0188 J0.9998
G1 X51.0802 Y7.2919
G3 X51.0807 Y7.292 I-0.0197 J0.9998
G1 X53.2745 Y7.3362
G3 X53.2749 I-0.0202 J0.9998
G1 X54.3033 Y7.3574
G3 X54.3041 I-0.0206 J0.9998
G1 X58.2865 Y7.4429
G3 X58.7281 Y7.4527 I-0.7265 J42.6634
G1 X60.4418 Y7.4914
G3 X60.4427 I-0.0226 J0.9997
G1 X63.6602 Y7.5671
G3 X63.6611 I-0.0235 J0.9997
G1 X65.0495 Y7.6011
G3 X65.1516 Y7.6031 I0.0147 J1.8654
G3 X65.2534 Y7.6061 I-0.0051 J1.8638
G1 X67.853 Y7.672
G3 X67.8533 I-0.0253 J0.9997
G3 X86.1903 Y8.2292 I-49.9975 J1947.4558
G1 X86.1904
G1 X86.8679 Y8.253
G3 X86.8684 Y8.2531 I-0.0351 J0.9994
G1 X88.2023 Y8.3006
G3 X88.203 Y8.3007 I-0.0356 J0.9994
G1 X89.4952 Y8.3476
G3 X89.4962 I-0.0363 J0.9993
G1 X91.9858 Y8.4406
G3 X92.0738 Y8.4436 I-0.0283 J2.0923
G3 X92.1615 Y8.4473 I-0.043 J2.0913
G1 X94.4854 Y8.5374
G3 X94.4864 Y8.5375 I-0.0388 J0.9992
G1 X95.5822 Y8.5811
G3 X95.5832 I-0.0398 J0.9992
G1 X97.7062 Y8.6678
G3 X97.7075 Y8.6679 I-0.0408 J0.9992
G1 X99.6977 Y8.7518
G3 X99.6987 I-0.0421 J0.9991
G1 X100.6316 Y8.7921
G3 X100.6321 I-0.0431 J0.9991
G1 X101.084 Y8.8118
G3 X101.0843 Y8.8119 I-0.0436 J0.999
G1 X101.5291 Y8.8314
G3 X101.5299 I-0.0439 J0.999
G1 X103.2657 Y8.9091
G3 X103.3847 Y8.9141 I-0.0416 J2.4058
G3 X103.487 Y8.9188 I-0.0582 J2.4043
G3 X103.589 Y8.9235 I-0.0586 J2.4032
G3 X103.7064 Y8.9292 I-0.0589 J2.4021
G1 X105.3072 Y9.0034
G3 X105.309 I-0.0463 J0.9989
G1 X108.339 Y9.1493
G3 X108.3408 Y9.1494 I-0.0481 J0.9988
G1 X109.6663 Y9.2155
G3 X109.6674 Y9.2156 I-0.0498 J0.9988
G1 X110.91 Y9.2789
G3 X110.911 Y9.279 I-0.0509 J0.9987
G1 X112.0759 Y9.3396
G3 X112.0774 I-0.0519 J0.9987
G1 X114.2613 Y9.4564
G3 X114.2621 Y9.4565 I-0.0534 J0.9986
G3 X121.9114 Y9.8996 I-56.6163 J1043.4629
G3 X121.9122 Y9.8997 I-0.0615 J0.9981
G1 X123.8222 Y10.0189
G3 X123.8245 Y10.019 I-0.0623 J0.9981
G1 X126.689 Y10.2043
G3 X126.6911 Y10.2045 I-0.0645 J0.9979
G1 X128.1181 Y10.2997
G3 X128.3038 Y10.3122 I-0.5071 J8.9341
G3 X128.459 Y10.3226 I-0.5333 J9.0363
G3 X128.7358 Y10.3414 I-0.747 J13.0542
G3 X128.9409 Y10.3554 I-0.8265 J13.6363
G3 X129.5601 Y10.3978 I-3.0979 J49.7671
G3 X141.3874 Y11.2742 I-75.3013 J1096.5311
G3 X142.8826 Y11.3941 Z-2.0 I-87.1286 J1095.6547
G3 X144.8759 Y11.5572 I-88.6238 J1095.5348
G3 X146.3708 Y11.6819 Z-5.0 I-90.6172 J1095.3717
G3 X147.9217 Y11.8134 I-92.112 J1095.247
G3 X147.9227 Y11.8135 I-0.0852 J0.9964
G1 X150.2133 Y12.0118
G3 X151.2213 Y12.1007 I-10.8122 J128.3437
G1 X153.0995 Y12.2691
G3 X153.1009 Y12.2693 I-0.0893 J0.996
G1 X153.9231 Y12.3442
G3 X153.9244 Y12.3443 I-0.0907 J0.9959
G1 X155.4657 Y12.4866
G3 X155.4669 Y12.4867 I-0.092 J0.9958
G1 X156.1412 Y12.5498
G3 X156.1423 Y12.5499 I-0.0932 J0.9957
G1 X157.4065 Y12.6696
G3 X157.4075 Y12.6697 I-0.0943 J0.9955
G1 X157.9605 Y12.7227
G3 X157.9615 Y12.7228 I-0.0953 J0.9954
G1 X158.9983 Y12.8231
G3 X158.9995 Y12.8232 I-0.0963 J0.9954
G1 X159.9066 Y12.9121
G3 X159.9077 Y12.9122 I-0.0975 J0.9952
G1 X160.7013 Y12.9908
G3 X160.7023 Y12.9909 I-0.0986 J0.9951
G1 X161.3967 Y13.0604
G3 X161.3976 Y13.0605 I-0.0996 J0.995
G1 X162.0051 Y13.1218
G3 X162.0071 Y13.122 I-0.1005 J0.9949
G1 X164.1328 Y13.341
G3 X164.1362 Y13.3413 I-0.1025 J0.9947
G1 X166.2545 Y13.5669
G3 X166.4469 Y13.5876 I-0.6352 J6.7867
G3 X166.6341 Y13.6081 I-0.7139 J7.3964
G3 X169.5126 Y13.9299 I-41.5718 J384.8641
G1 X169.8271 Y13.9661
G3 X169.8287 Y13.9663 I-0.1142 J0.9935
G1 X171.0677 Y14.1107
G3 X171.0692 Y14.1109 I-0.1158 J0.9933
G3 X180.3683 Y15.3036 I-55.2371 J467.5351
G3 X180.3697 Y15.3037 I-0.1371 J0.9906
G1 X181.5279 Y15.4657
G3 X181.5308 Y15.4661 I-0.1385 J0.9904
G1 X183.5568 Y15.7555
G3 X183.5597 Y15.7559 I-0.1414 J0.9899
G1 X185.0785 Y15.9774
G3 X185.0807 Y15.9777 I-0.1443 J0.9895
G1 X187.3582 Y16.3151
G3 X187.3597 Y16.3154 I-0.1466 J0.9892
G1 X189.6366 Y16.6563
G3 X189.637 Y16.6564 I-0.1481 J0.989
G1 X192.1402 Y17.0322
G3 X192.1408 Y17.0323 I-0.1485 J0.9889
G1 X194.3309 Y17.3626
G3 X194.332 Y17.3628 I-0.1491 J0.9888
G1 X196.2479 Y17.654
G3 X196.2494 Y17.6542 I-0.1503 J0.9886
G1 X197.9254 Y17.9115
G3 X197.927 Y17.9117 I-0.1517 J0.9884
G1 X199.3932 Y18.1391
G3 X199.3948 Y18.1394 I-0.1533 J0.9882
G1 X200.6774 Y18.3404
G3 X200.6798 Y18.3408 I-0.1549 J0.9879
G1 X202.9236 Y18.6981
G3 X202.9259 Y18.6985 I-0.1573 J0.9876
G1 X203.767 Y18.8346
G3 X203.7684 Y18.8348 I-0.1597 J0.9872
G1 X204.5042 Y18.9548
G3 X204.5054 Y18.955 I-0.161 J0.987
G1 X205.1491 Y19.0608
G3 X205.1502 Y19.061 I-0.1622 J0.9868
G1 X205.7133 Y19.1542
G3 X205.7148 Y19.1545 I-0.1633 J0.9866
G1 X206.7 Y19.3191
G3 X206.7025 Y19.3196 I-0.1648 J0.9863
G1 X208.1797 Y19.5704
G3 X208.1829 Y19.5709 I-0.1674 J0.9859
G1 X209.6592 Y19.8266
G3 X209.6624 Y19.8272 I-0.1707 J0.9853
G1 X210.913 Y20.0479
G3 X210.9149 Y20.0482 I-0.1738 J0.9848
G1 X211.5009 Y20.1528
G3 X211.5012 Y20.1529 I-0.1757 J0.9844
G3 X216.046 Y20.9817 I-119.5236 J668.2948
G1 X217.7467 Y21.2961
G3 X217.7501 Y21.2967 I-0.1818 J0.9833
G2 X218.1157 Y21.3643 I10.4092 J-55.2475
G3 X218.1239 Y21.3658 I-0.1786 J0.9839
G2 X218.4745 Y21.4307 I6.6145 J-34.7861
G3 X218.4855 Y21.4327 I-0.1769 J0.9842
G2 X218.8225 Y21.495 I5.1964 J-27.1692
G3 X218.8277 Y21.496 I-0.1757 J0.9844
G1 X221.5348 Y21.9938
G3 X221.5438 Y21.9956 I-0.1809 J0.9835
G2 X221.7769 Y22.0381 I2.1271 J-10.995
G3 X221.7976 Y22.0419 I-0.1691 J0.9856
G2 X222.0224 Y22.0828 I2.0224 J-10.4633
G3 X222.0433 Y22.0866 I-0.1687 J0.9857
G2 X222.2603 Y22.1261 I1.9277 J-9.9841
G3 X222.2814 Y22.1299 I-0.1682 J0.9857
G2 X222.4907 Y22.1679 I1.8414 J-9.5489
G3 X222.512 Y22.1718 I-0.1678 J0.9858
G2 X222.714 Y22.2084 I1.7623 J-9.1513
G3 X222.7354 Y22.2122 I-0.1674 J0.9859
G2 X222.9303 Y22.2475 I1.6894 J-8.7859
G3 X222.9517 Y22.2514 I-0.167 J0.986
G2 X223.1398 Y22.2853 I1.6218 J-8.4482
G3 X223.1613 Y22.2892 I-0.1667 J0.986
G2 X223.3428 Y22.3219 I1.559 J-8.135
G3 X223.3644 Y22.3258 I-0.1663 J0.9861
G2 X223.5395 Y22.3572 I1.5003 J-7.8432
G3 X223.5611 Y22.3611 I-0.166 J0.9861
G2 X223.73 Y22.3914 I1.4454 J-7.5704
G3 X223.7516 Y22.3953 I-0.1656 J0.9862
G2 X223.9146 Y22.4245 I1.3938 J-7.3144
G3 X223.9362 Y22.4283 I-0.1653 J0.9862
G2 X224.0935 Y22.4565 I1.3452 J-7.0736
G3 X224.1149 Y22.4603 I-0.165 J0.9863
G2 X224.2667 Y22.4874 I1.2993 J-6.8463
G3 X224.2881 Y22.4912 I-0.1647 J0.9863
G2 X224.4346 Y22.5172 I1.2559 J-6.6315
G3 X224.4559 Y22.521 I-0.1644 J0.9864
G2 X224.5972 Y22.5461 I1.2147 J-6.4279
G3 X224.6184 Y22.5499 I-0.1641 J0.9864
G2 X224.7547 Y22.5741 I1.1756 J-6.2343
G3 X224.7758 Y22.5778 I-0.1638 J0.9865
G2 X224.9074 Y22.6011 I1.1384 J-6.05
G3 X224.9203 Y22.6033 I-0.1635 J0.9865
G2 X226.098 Y22.8098 I27.9956 J-156.1867
G3 X226.1139 Y22.8127 I-0.169 J0.9856
G2 X226.3084 Y22.8464 I1.2895 J-6.8525
G3 X226.3354 Y22.8511 I-0.1571 J0.9876
G2 X226.5165 Y22.8825 I1.2216 J-6.5226
G3 X226.5277 Y22.8843 I-0.1568 J0.9876
G1 X228.0915 Y23.1508
G3 X228.1031 Y23.1528 I-0.168 J0.9858
G2 X228.2701 Y23.1808 I1.0495 J-5.7475
G3 X228.2818 Y23.1827 I-0.151 J0.9885
G1 X229.6513 Y23.4086
G3 X229.6612 Y23.4103 I-0.1628 J0.9867
G2 X229.8053 Y23.4337 I0.9881 J-5.637
G3 X229.8164 Y23.4354 I-0.1475 J0.9891
G1 X230.4874 Y23.5432
G1 X230.8116 Y23.5947
G1 X231.1308 Y23.6452
G1 X231.7605 Y23.7438
G1 X232.0648 Y23.7911
G1 X233.267 Y23.9757
G1 X233.8301 Y24.0613
G1 X234.9228 Y24.226
G1 X236.9735 Y24.5326
G1 X236.9734
G1 X236.9735
G1 X237.8709 Y24.6667
G3 X237.8717 Y24.6668 I-0.1478 J0.989
G1 X239.5543 Y24.9196
G3 X239.5561 Y24.9199 I-0.1486 J0.9889
G1 X241.0279 Y25.1438
G3 X241.0297 Y25.1441 I-0.1504 J0.9886
G1 X241.6735 Y25.2432
G3 X241.6753 Y25.2435 I-0.1522 J0.9884
G1 X242.882 Y25.4316
G3 X242.8826 Y25.4317 I-0.154 J0.9881
G3 X243.9023 Y25.5929 I-50.6338 J323.6746
G3 X245.3831 Y25.8328 Z-2.0 I-51.6536 J323.5134
G3 X247.114 Y26.122 I-53.1343 J323.2735
G3 X247.1155 Y26.1223 I-0.1675 J0.9859
G1 X247.3555 Y26.1635
G1 X248.1688 Y26.3029 Z-3.6502
G3 X248.1718 Y26.3035 Z-3.6565 I-0.169 J0.9856
G1 X248.8336 Y26.4191 Z-5.0
G1 X248.9613 Y26.4414
G3 X248.9632 Y26.4417 I-0.1721 J0.9851
G1 X249.2592 Y26.494
G3 X249.2615 Y26.4944 I-0.174 J0.9847
G1 X250.2969 Y26.6799
G3 X250.3006 Y26.6806 I-0.1763 J0.9843
G1 X251.3353 Y26.8699
G3 X251.3377 Y26.8704 I-0.18 J0.9837
G1 X251.6382 Y26.9262
G3 X251.6408 Y26.9266 I-0.1825 J0.9832
G1 X252.8327 Y27.151
G3 X252.8364 Y27.1517 I-0.185 J0.9827
G1 X253.9903 Y27.3734
G3 X253.9926 Y27.3739 I-0.1887 J0.982
G1 X254.5513 Y27.4826
G3 X254.5533 Y27.483 I-0.191 J0.9816
G1 X255.6527 Y27.6992
G3 X255.654 Y27.6995 I-0.193 J0.9812
G1 X255.7206 Y27.7127
G1 X255.7208
G1 X255.7872 Y27.7259
G3 X255.7879 Y27.726 I-0.1944 J0.9809
G3 X260.0329 Y28.5835 I-143.6425 J722.0202
G3 X260.0335 Y28.5837 I-0.2009 J0.9796
G1 X261.8868 Y28.9648
G3 X261.8882 Y28.9651 I-0.2015 J0.9795
G1 X265.3622 Y29.6848
G3 X265.3626 Y29.6849 I-0.2028 J0.9792
G1 X271.441 Y30.9469
G1 X276.0002 Y31.8883
G1 X276.8549 Y32.0639
G1 X277.2554 Y32.1462
G1 X280.3622 Y32.7818
G2 X282.6913 Y33.2557 I287.6141 J-1407.63
G1 X286.1878 Y33.9627
G1 X289.6854 Y34.6648
G3 X290.4886 Y35.6453 I-0.1968 J0.9804
G1 Y94.6453
G3 X289.6852 Y95.6258 I-1.0 J0.0
G1 X287.2881 Y96.1064
G2 X278.3076 Y97.9287 I413.5976 J2061.2919
G1 X274.9405 Y98.6205
G1 X271.9953 Y99.2289
G1 X269.4184 Y99.7632
G1 X264.9084 Y100.7
G3 X264.908 Y100.7001 I-0.2034 J-0.9791
G1 X263.2165 Y101.0508
G3 X263.2159 Y101.051 I-0.203 J-0.9792
G1 X261.7357 Y101.3569
G3 X261.7342 Y101.3572 I-0.2024 J-0.9793
G1 X259.1431 Y101.8889
G3 X259.1406 Y101.8894 I-0.201 J-0.9796
G1 X258.1846 Y102.083
G1 X257.1963 Y102.2832 Z-2.9833
G3 X257.1936 Y102.2838 Z-2.9778 I-0.1985 J-0.9801
G1 X256.7142 Y102.3795 Z-2.0
G1 X255.7345 Y102.5751
G3 X255.7325 Y102.5755 I-0.1958 J-0.9806
G1 X255.1851 Y102.6836
G3 X255.184 Y102.6839 I-0.1938 J-0.981
G1 X254.7524 Y102.7686
G1 X254.7049 Y102.7779 Z-2.0969
G3 X254.7032 Y102.7783 Z-2.1002 I-0.1927 J-0.9813
G1 X253.8646 Y102.9415 Z-3.809
G3 X253.2799 Y103.0546 Z-5.0 I-49.0432 J-251.9847
G3 X251.3364 Y103.4204 I-48.4585 J-252.0978
G3 X251.3347 Y103.4207 I-0.1812 J-0.9834
G1 X249.9856 Y103.6668
G3 X249.9826 Y103.6674 I-0.1795 J-0.9838
G1 X249.6662 Y103.7241
G3 X249.6635 Y103.7246 I-0.1765 J-0.9843
G1 X248.4171 Y103.9445
G3 X248.415 Y103.9449 I-0.1737 J-0.9848
G3 X247.2417 Y104.1468 I-51.5935 J-296.2285
G3 X247.24 Y104.1471 I-0.1677 J-0.9858
G1 X246.1431 Y104.3317
G3 X246.1399 Y104.3322 I-0.166 J-0.9861
G1 X245.1109 Y104.5019
G3 X245.1087 Y104.5022 I-0.1627 J-0.9867
G1 X244.6262 Y104.5807
G3 X244.6243 Y104.581 I-0.1605 J-0.987
G1 X243.6892 Y104.7312
G3 X243.6877 Y104.7314 I-0.1586 J-0.9874
G1 X243.4685 Y104.7663
G3 X243.4679 Y104.7664 I-0.1571 J-0.9876
G1 X243.2521 Y104.8006
G3 X243.2508 Y104.8008 I-0.1565 J-0.9877
G1 X242.4009 Y104.9343
G3 X242.3991 Y104.9346 I-0.1552 J-0.9879
G1 X241.6021 Y105.0584
G3 X241.6006 Y105.0586 I-0.1534 J-0.9882
G1 X240.8654 Y105.1716
G3 X240.7955 Y105.1823 I-0.2891 J-1.6564
G1 X239.4113 Y105.3925
G3 X239.4094 Y105.3928 I-0.1502 J-0.9887
G1 X236.9652 Y105.7592
G3 X236.9646 I-0.1482 J-0.989
G1 X236.5063 Y105.8277
G3 X236.5059 I-0.1477 J-0.989
G2 X233.0735 Y106.3443 I161.2136 J1082.7608
G1 X231.3591 Y106.6095
G1 X230.5039 Y106.7447
G1 X229.6488 Y106.8824
G1 X229.0244 Y106.9845
G1 X228.42 Y107.0848
G1 X227.2479 Y107.2826
G1 X226.1495 Y107.4718
G1 X225.6352 Y107.5615
G1 X225.1374 Y107.6489
G1 X223.2043 Y107.9937
G1 X222.3597 Y108.1465
G1 X221.5675 Y108.2907
G1 X220.0815 Y108.5633
G1 X218.7811 Y108.8032
G1 X217.645 Y109.0133
G3 X217.1462 Y109.1056 I-12.1876 J-64.4817
G3 X216.6787 Y109.192 I-7.2797 J-38.0569
G3 X216.2406 Y109.273 I-5.6585 J-29.3958
G3 X215.8299 Y109.3488 I-4.7654 J-24.6651
G3 X215.4448 Y109.4198 I-4.1736 J-21.5577
G3 X215.0837 Y109.4863 I-3.7411 J-19.3066
G3 X214.7452 Y109.5485 I-3.4051 J-17.5722
G3 X214.4278 Y109.6068 I-3.1332 J-16.1791
G3 X214.1302 Y109.6613 I-2.9065 J-15.025
G3 X213.846 Y109.7132 I-2.7131 J-14.0466
G3 X209.6618 Y110.4635 I-115.6135 J-632.7156
G3 X209.6611 Y110.4636 I-0.1732 J-0.9849
G3 X207.1605 Y110.8937 I-71.167 J-406.2503
G3 X202.7818 Y111.6152 I-89.507 J-529.5808
G3 X202.7808 Y111.6154 I-0.1585 J-0.9874
G1 X201.1404 Y111.877
G3 X201.1383 Y111.8773 I-0.1575 J-0.9875
G1 X199.7024 Y112.1032
G3 X199.7001 Y112.1035 I-0.1554 J-0.9879
G1 X197.1866 Y112.4928
G3 X197.1845 Y112.4931 I-0.1531 J-0.9882
G1 X195.2987 Y112.7812
G3 X195.2972 Y112.7814 I-0.151 J-0.9885
G1 X192.4703 Y113.2087
G3 X192.113 Y113.2625 I-4.8627 J-31.0989
G3 X191.8042 Y113.3089 I-4.8364 J-31.1196
G3 X191.2612 Y113.3905 I-7.0558 J-45.1209
G3 X190.8556 Y113.4514 I-6.9894 J-45.1777
G3 X190.2453 Y113.5429 I-10.6069 J-68.6113
G3 X189.6354 Y113.6344 I-18.1939 J-119.2161
G1 X186.7266 Y114.0695
G3 X186.7255 Y114.0697 I-0.1479 J-0.989
G1 X186.0888 Y114.1641
G3 X186.0878 Y114.1643 I-0.1468 J-0.9892
G1 X184.8541 Y114.3461
G3 X184.8533 Y114.3462 I-0.1458 J-0.9893
G1 X184.7091 Y114.3673
G3 X175.4982 Y115.6359 I-72.2098 J-490.2319
G3 X175.4965 Y115.6361 I-0.1271 J-0.9919
G1 X174.3458 Y115.7816
G3 X174.3439 Y115.7818 I-0.1254 J-0.9921
G3 X173.9786 Y115.8272 I-63.3932 J-509.2552
G0 Z3.0
M5
M30
