( Made using CamBam - http://www.cambam.co.uk )
( PlatineRadioV2 6/10/2019 10:37:33 PM )
( T0 : 2.0 )
G21 G90 G64 G40
G0 Z3.0
( T0 : 2.0 )
T0 M6
( Contour1 )
G17
M3 S1000
G0 X20.6786 Y29.3489
G0 Z1.0
G1 F20.0 Z-1.0
G1 F150.0 Y47.7917
G1 X60.1786
G1 Y29.3489
G1 X20.6786
G1 F20.0 Z-2.0
G1 F150.0 Y47.7917
G1 X60.1786
G1 Y29.3489
G1 X20.6786
G1 F20.0 Z-3.0
G1 F150.0 Y47.7917
G1 X37.5
G1 X39.0 Z-2.0
G1 X41.0
G1 X42.5 Z-3.0
G1 X60.1786
G1 Y29.3489
G1 X42.8262
G1 X41.3262 Z-2.0
G1 X39.3262
G1 X37.8262 Z-3.0
G1 X20.6786
G1 F20.0 Z-4.0
G1 F150.0 Y47.7917
G1 X37.5
G1 X39.0 Z-2.0
G1 X41.0
G1 X42.5 Z-4.0
G1 X60.1786
G1 Y29.3489
G1 X42.8262
G1 X41.3262 Z-2.0
G1 X39.3262
G1 X37.8262 Z-4.0
G1 X20.6786
G1 F20.0 Z-5.0
G1 F150.0 Y47.7917
G1 X37.5
G1 X39.0 Z-2.0
G1 X41.0
G1 X42.5 Z-5.0
G1 X60.1786
G1 Y29.3489
G1 X42.8262
G1 X41.3262 Z-2.0
G1 X39.3262
G1 X37.8262 Z-5.0
G1 X20.6786
G0 Z3.0
G0 Y69.2917
G0 Z1.0
G1 F20.0 Z-1.0
G1 F150.0 Y108.2917
G1 X60.1786
G1 Y69.2917
G1 X20.6786
G1 F20.0 Z-2.0
G1 F150.0 Y108.2917
G1 X60.1786
G1 Y69.2917
G1 X20.6786
G1 F20.0 Z-3.0
G1 F150.0 Y90.7917
G1 Y92.2917 Z-2.0
G1 Y94.2917
G1 Y95.7917 Z-3.0
G1 Y108.2917
G1 X41.1786
G1 X42.6786 Z-2.0
G1 X44.6786
G1 X46.1786 Z-3.0
G1 X60.1786
G1 Y89.2917
G1 Y87.7917 Z-2.0
G1 Y85.7917
G1 Y84.2917 Z-3.0
G1 Y69.2917
G1 X42.1786
G1 X40.6786 Z-2.0
G1 X38.6786
G1 X37.1786 Z-3.0
G1 X20.6786
G1 F20.0 Z-4.0
G1 F150.0 Y90.7917
G1 Y92.2917 Z-2.0
G1 Y94.2917
G1 Y95.7917 Z-4.0
G1 Y108.2917
G1 X41.1786
G1 X42.6786 Z-2.0
G1 X44.6786
G1 X46.1786 Z-4.0
G1 X60.1786
G1 Y89.2917
G1 Y87.7917 Z-2.0
G1 Y85.7917
G1 Y84.2917 Z-4.0
G1 Y69.2917
G1 X42.1786
G1 X40.6786 Z-2.0
G1 X38.6786
G1 X37.1786 Z-4.0
G1 X20.6786
G1 F20.0 Z-5.0
G1 F150.0 Y90.7917
G1 Y92.2917 Z-2.0
G1 Y94.2917
G1 Y95.7917 Z-5.0
G1 Y108.2917
G1 X41.1786
G1 X42.6786 Z-2.0
G1 X44.6786
G1 X46.1786 Z-5.0
G1 X60.1786
G1 Y89.2917
G1 Y87.7917 Z-2.0
G1 Y85.7917
G1 Y84.2917 Z-5.0
G1 Y69.2917
G1 X42.1786
G1 X40.6786 Z-2.0
G1 X38.6786
G1 X37.1786 Z-5.0
G1 X20.6786
G0 Z3.0
G0 X86.2189 Y100.2917
G0 Z1.0
G1 F20.0 Z-1.0
G1 F150.0 Y108.2917
G1 X109.2189
G1 Y100.2917
G1 X86.2189
G1 F20.0 Z-2.0
G1 F150.0 Y108.2917
G1 X109.2189
G1 Y100.2917
G1 X86.2189
G1 F20.0 Z-3.0
G1 F150.0 Y108.2917
G1 X94.5
G1 X96.0 Z-2.0
G1 X98.0
G1 X99.5 Z-3.0
G1 X109.2189
G1 Y100.2917
G1 X99.3856
G1 X97.8856 Z-2.0
G1 X95.8856
G1 X94.3856 Z-3.0
G1 X86.2189
G1 F20.0 Z-4.0
G1 F150.0 Y108.2917
G1 X94.5
G1 X96.0 Z-2.0
G1 X98.0
G1 X99.5 Z-4.0
G1 X109.2189
G1 Y100.2917
G1 X99.3856
G1 X97.8856 Z-2.0
G1 X95.8856
G1 X94.3856 Z-4.0
G1 X86.2189
G1 F20.0 Z-5.0
G1 F150.0 Y108.2917
G1 X94.5
G1 X96.0 Z-2.0
G1 X98.0
G1 X99.5 Z-5.0
G1 X109.2189
G1 Y100.2917
G1 X99.3856
G1 X97.8856 Z-2.0
G1 X95.8856
G1 X94.3856 Z-5.0
G1 X86.2189
G0 Z3.0
G0 X132.9488 Y93.7917
G0 Z1.0
G1 F20.0 Z-1.0
G1 F150.0 X151.9488
G1 Y43.7917
G1 X132.9488
G1 Y93.7917
G1 F20.0 Z-2.0
G1 F150.0 X151.9488
G1 Y43.7917
G1 X132.9488
G1 Y93.7917
G1 F20.0 Z-3.0
G1 F150.0 X151.9488
G1 Y89.5
G1 Y88.0 Z-2.0
G1 Y86.0
G1 Y84.5 Z-3.0
G1 Y52.5
G1 Y51.0 Z-2.0
G1 Y49.0
G1 Y47.5 Z-3.0
G1 Y43.7917
G1 X132.9488
G1 Y67.9583
G1 Y69.4583 Z-2.0
G1 Y71.4583
G1 Y72.9583 Z-3.0
G1 Y93.7917
G1 F20.0 Z-4.0
G1 F150.0 X151.9488
G1 Y89.5
G1 Y88.0 Z-2.0
G1 Y86.0
G1 Y84.5 Z-4.0
G1 Y52.5
G1 Y51.0 Z-2.0
G1 Y49.0
G1 Y47.5 Z-4.0
G1 Y43.7917
G1 X132.9488
G1 Y67.9583
G1 Y69.4583 Z-2.0
G1 Y71.4583
G1 Y72.9583 Z-4.0
G1 Y93.7917
G1 F20.0 Z-5.0
G1 F150.0 X151.9488
G1 Y89.5
G1 Y88.0 Z-2.0
G1 Y86.0
G1 Y84.5 Z-5.0
G1 Y52.5
G1 Y51.0 Z-2.0
G1 Y49.0
G1 Y47.5 Z-5.0
G1 Y43.7917
G1 X132.9488
G1 Y67.9583
G1 Y69.4583 Z-2.0
G1 Y71.4583
G1 Y72.9583 Z-5.0
G1 Y93.7917
G0 Z3.0
G0 X169.6407 Y91.803
G0 Z1.0
G1 F20.0 Z-1.0
G1 F150.0 X172.6667 Y109.9959
G1 X211.6314 Y103.5151
G1 X208.6055 Y85.3222
G1 X169.6407 Y91.803
G1 F20.0 Z-2.0
G1 F150.0 X172.6667 Y109.9959
G1 X211.6314 Y103.5151
G1 X208.6055 Y85.3222
G1 X169.6407 Y91.803
G1 F20.0 Z-3.0
G1 F150.0 X172.6667 Y109.9959
G1 X189.7839 Y107.1488
G1 X191.2636 Y106.9027 Z-2.0
G1 X193.2365 Y106.5746
G1 X194.7162 Y106.3285 Z-3.0
G1 X211.6314 Y103.5151
G1 X208.6055 Y85.3222
G1 X192.6954 Y87.9685
G1 X192.5336 Y87.9954 Z-2.8906
G1 X191.2158 Y88.2146 Z-2.0
G1 X191.0539 Y88.2415
G1 X189.2429 Y88.5427
G1 X189.081 Y88.5696
G1 X187.7632 Y88.7888 Z-2.8906
G1 X187.6013 Y88.8157 Z-3.0
G1 X169.6407 Y91.803
G1 F20.0 Z-4.0
G1 F150.0 X172.6667 Y109.9959
G1 X189.7839 Y107.1488
G1 X191.2636 Y106.9027 Z-2.0
G1 X193.2365 Y106.5746
G1 X194.7162 Y106.3285 Z-4.0
G1 X211.6314 Y103.5151
G1 X208.6055 Y85.3222
G1 X192.6954 Y87.9685
G1 X192.5336 Y87.9954 Z-3.7812
G1 X191.2158 Y88.2146 Z-2.0
G1 X191.0539 Y88.2415
G1 X189.2429 Y88.5427
G1 X189.081 Y88.5696
G1 X187.7632 Y88.7888 Z-3.7812
G1 X187.6013 Y88.8157 Z-4.0
G1 X169.6407 Y91.803
G1 F20.0 Z-5.0
G1 F150.0 X172.6667 Y109.9959
G1 X189.7839 Y107.1488
G1 X191.2636 Y106.9027 Z-2.0
G1 X193.2365 Y106.5746
G1 X194.7162 Y106.3285 Z-5.0
G1 X211.6314 Y103.5151
G1 X208.6055 Y85.3222
G1 X192.6954 Y87.9685
G1 X192.5336 Y87.9954 Z-4.6719
G1 X191.2158 Y88.2146 Z-2.0
G1 X191.0539 Y88.2415
G1 X189.2429 Y88.5427
G1 X189.081 Y88.5696
G1 X187.7632 Y88.7888 Z-4.6719
G1 X187.6013 Y88.8157 Z-5.0
G1 X169.6407 Y91.803
G0 Z3.0
G0 X188.6786 Y73.7401
G0 Z1.0
G1 F20.0 Z-1.0
G1 F150.0 X278.6786
G1 Y45.7402
G1 X188.6786
G1 Y73.7401
G1 F20.0 Z-2.0
G1 F150.0 X278.6786
G1 Y45.7402
G1 X188.6786
G1 Y73.7401
G1 F20.0 Z-3.0
G1 F150.0 X216.1786
G1 X217.6786 Z-2.0
G1 X219.6786
G1 X221.1786 Z-3.0
G1 X256.8452
G1 X258.3452 Z-2.0
G1 X260.3452
G1 X261.8452 Z-3.0
G1 X278.6786
G1 Y56.9068
G1 Y55.4068 Z-2.0
G1 Y53.4068
G1 Y51.9068 Z-3.0
G1 Y45.7402
G1 X251.1786
G1 X249.6786 Z-2.0
G1 X247.6786
G1 X246.1786 Z-3.0
G1 X210.5119
G1 X209.0119 Z-2.0
G1 X207.0119
G1 X205.5119 Z-3.0
G1 X188.6786
G1 Y62.5735
G1 Y64.0735 Z-2.0
G1 Y66.0735
G1 Y67.5735 Z-3.0
G1 Y73.7401
G1 F20.0 Z-4.0
G1 F150.0 X216.1786
G1 X217.6786 Z-2.0
G1 X219.6786
G1 X221.1786 Z-4.0
G1 X256.8452
G1 X258.3452 Z-2.0
G1 X260.3452
G1 X261.8452 Z-4.0
G1 X278.6786
G1 Y56.9068
G1 Y55.4068 Z-2.0
G1 Y53.4068
G1 Y51.9068 Z-4.0
G1 Y45.7402
G1 X251.1786
G1 X249.6786 Z-2.0
G1 X247.6786
G1 X246.1786 Z-4.0
G1 X210.5119
G1 X209.0119 Z-2.0
G1 X207.0119
G1 X205.5119 Z-4.0
G1 X188.6786
G1 Y62.5735
G1 Y64.0735 Z-2.0
G1 Y66.0735
G1 Y67.5735 Z-4.0
G1 Y73.7401
G1 F20.0 Z-5.0
G1 F150.0 X216.1786
G1 X217.6786 Z-2.0
G1 X219.6786
G1 X221.1786 Z-5.0
G1 X256.8452
G1 X258.3452 Z-2.0
G1 X260.3452
G1 X261.8452 Z-5.0
G1 X278.6786
G1 Y56.9068
G1 Y55.4068 Z-2.0
G1 Y53.4068
G1 Y51.9068 Z-5.0
G1 Y45.7402
G1 X251.1786
G1 X249.6786 Z-2.0
G1 X247.6786
G1 X246.1786 Z-5.0
G1 X210.5119
G1 X209.0119 Z-2.0
G1 X207.0119
G1 X205.5119 Z-5.0
G1 X188.6786
G1 Y62.5735
G1 Y64.0735 Z-2.0
G1 Y66.0735
G1 Y67.5735 Z-5.0
G1 Y73.7401
G0 Z3.0
G0 X109.2189 Y37.2917
G0 Z1.0
G1 F20.0 Z-1.0
G1 F150.0 Y29.2917
G1 X86.2189
G1 Y37.2917
G1 X109.2189
G1 F20.0 Z-2.0
G1 F150.0 Y29.2917
G1 X86.2189
G1 Y37.2917
G1 X109.2189
G1 F20.0 Z-3.0
G1 F150.0 Y29.2917
G1 X99.3856
G1 X97.8856 Z-2.0
G1 X95.8856
G1 X94.3856 Z-3.0
G1 X86.2189
G1 Y37.2917
G1 X94.5
G1 X96.0 Z-2.0
G1 X98.0
G1 X99.5 Z-3.0
G1 X109.2189
G1 F20.0 Z-4.0
G1 F150.0 Y29.2917
G1 X99.3856
G1 X97.8856 Z-2.0
G1 X95.8856
G1 X94.3856 Z-4.0
G1 X86.2189
G1 Y37.2917
G1 X94.5
G1 X96.0 Z-2.0
G1 X98.0
G1 X99.5 Z-4.0
G1 X109.2189
G1 F20.0 Z-5.0
G1 F150.0 Y29.2917
G1 X99.3856
G1 X97.8856 Z-2.0
G1 X95.8856
G1 X94.3856 Z-5.0
G1 X86.2189
G1 Y37.2917
G1 X94.5
G1 X96.0 Z-2.0
G1 X98.0
G1 X99.5 Z-5.0
G1 X109.2189
G0 F200
( Contour2 )
S1000
G0 Z3.0
G0 X209.8511 Y114.11
G0 Z1.0
G1 F20.0 Z-1.0
G3 F150.0 X207.3506 Y114.5401 I-71.0213 J-405.4023
G3 X202.9718 Y115.2616 I-89.3721 J-528.7609
G3 X202.9708 Y115.2618 I-0.1585 J-0.9874
G1 X201.3304 Y115.5234
G3 X201.3283 Y115.5237 I-0.1575 J-0.9875
G1 X199.8925 Y115.7495
G3 X199.8901 Y115.7499 I-0.1554 J-0.9879
G1 X197.3766 Y116.1392
G3 X197.3745 Y116.1395 I-0.1531 J-0.9882
G1 X195.4888 Y116.4276
G3 X195.4872 Y116.4278 I-0.151 J-0.9885
G1 X192.6603 Y116.8551
G3 X192.303 Y116.9089 I-4.8627 J-31.0986
G3 X191.9942 Y116.9553 I-4.8363 J-31.1193
G3 X191.4512 Y117.0369 I-7.0558 J-45.1205
G3 X191.0456 Y117.0978 I-6.9893 J-45.1773
G3 X190.4353 Y117.1893 I-10.6068 J-68.6107
G3 X189.8254 Y117.2808 I-18.1937 J-119.215
G1 X186.9166 Y117.7159
G3 X186.9155 Y117.7161 I-0.1479 J-0.989
G1 X186.2788 Y117.8105
G3 X186.2778 Y117.8107 I-0.1468 J-0.9892
G1 X185.0441 Y117.9925
G3 X185.0433 Y117.9926 I-0.1458 J-0.9893
G1 X184.8991 Y118.0137
G3 X175.6882 Y119.2823 I-72.1963 J-490.1339
G3 X175.6865 Y119.2825 I-0.1271 J-0.9919
G1 X174.5358 Y119.428
G3 X174.5339 Y119.4282 I-0.1254 J-0.9921
G3 X166.453 Y120.3692 I-63.3831 J-509.17
G3 X166.4524 I-0.1078 J-0.9942
G1 X165.8806 Y120.4309
G3 X165.8791 Y120.431 I-0.1072 J-0.9942
G1 X164.7533 Y120.5507
G3 X164.7506 Y120.551 I-0.1057 J-0.9944
G1 X162.5686 Y120.7771
G3 X162.5666 Y120.7773 I-0.1031 J-0.9947
G1 X162.0551 Y120.8293
G3 X162.0542 Y120.8294 I-0.1011 J-0.9949
G3 X153.9847 Y121.6045 I-88.44 J-878.302
G3 X153.9838 Y121.6046 I-0.091 J-0.9958
G1 X152.4717 Y121.7416
G3 X152.4705 Y121.7417 I-0.0902 J-0.9959
G3 X141.1137 Y122.699 I-101.3313 J-1134.3179
G3 X141.1132 I-0.079 J-0.9969
G1 X140.4037 Y122.7549
G3 X140.4022 Y122.755 I-0.0785 J-0.9969
G1 X137.7412 Y122.9604
G3 X137.7396 Y122.9606 I-0.077 J-0.997
G1 X136.7416 Y123.036
G3 X136.741 I-0.0754 J-0.9972
G1 X136.3043 Y123.0687
G3 X136.3039 Y123.0688 I-0.0747 J-0.9972
G1 X135.8945 Y123.0993
G3 X135.8936 Y123.0994 I-0.0743 J-0.9972
G1 X134.3585 Y123.2125
G3 X134.3577 I-0.0735 J-0.9973
G1 X134.0698 Y123.2335
G3 X134.0687 Y123.2336 I-0.0727 J-0.9974
G1 X131.9095 Y123.3885
G3 X131.9076 Y123.3886 I-0.0716 J-0.9974
G1 X129.7482 Y123.5392
G3 X129.7465 Y123.5394 I-0.0696 J-0.9976
G1 X128.3938 Y123.6315
G3 X128.3919 Y123.6316 I-0.068 J-0.9977
G1 X125.7705 Y123.8053
G3 X125.7691 I-0.0661 J-0.9978
G1 X125.4619 Y123.8253
G3 X125.4606 Y123.8254 I-0.0647 J-0.9979
G1 X123.0218 Y123.9803
G3 X123.0202 Y123.9804 I-0.0634 J-0.998
G1 X121.8769 Y124.0511
G3 X121.8753 Y124.0512 I-0.0617 J-0.9981
G1 X119.66 Y124.1847
G3 X119.6585 Y124.1848 I-0.0601 J-0.9982
G1 X118.6199 Y124.2457
G3 X118.6192 Y124.2458 I-0.0586 J-0.9983
G3 X102.5019 Y125.0708 I-68.7333 J-1184.9504
G3 X102.5015 I-0.0443 J-0.999
G1 X100.4878 Y125.1593
G3 X100.4865 Y125.1594 I-0.0439 J-0.999
G1 X98.7245 Y125.2345
G3 X98.7229 Y125.2346 I-0.0426 J-0.9991
G1 X95.639 Y125.3612
G3 X95.6379 I-0.041 J-0.9992
G1 X95.0596 Y125.3843
G3 X95.0591 I-0.0399 J-0.9992
G1 X93.9748 Y125.427
G3 X93.9742 Y125.4271 I-0.0394 J-0.9992
G1 X93.0254 Y125.4638
G3 X93.0242 Y125.4639 I-0.0388 J-0.9992
G1 X89.7036 Y125.5887
G3 X89.7026 I-0.0375 J-0.9993
G1 X89.495 Y125.5963
G3 X89.4942 I-0.0366 J-0.9993
G1 X86.381 Y125.7077
G3 X86.3799 I-0.0357 J-0.9994
G1 X85.1824 Y125.7493
G3 X85.1818 I-0.0347 J-0.9994
G1 X84.003 Y125.7896
G3 X84.0024 I-0.0341 J-0.9994
G1 X82.842 Y125.8285
G3 X82.8414 I-0.0335 J-0.9994
G1 X81.6991 Y125.8661
G3 X81.6985 Y125.8662 I-0.0329 J-0.9995
G1 X80.574 Y125.9026
G3 X80.5736 I-0.0323 J-0.9995
G1 X80.0201 Y125.9202
G3 X80.0194 Y125.9203 I-0.0319 J-0.9995
G1 X77.8228 Y125.9888
G3 X77.8221 Y125.9889 I-0.0312 J-0.9995
G1 X77.2901 Y126.0051
G3 X77.2897 I-0.0305 J-0.9995
G1 X76.234 Y126.0369
G3 X76.2335 I-0.0301 J-0.9995
G1 X75.1942 Y126.0676
G3 X75.1938 Y126.0677 I-0.0296 J-0.9996
G1 X74.6823 Y126.0826
G3 X74.682 I-0.0292 J-0.9996
G1 X74.1745 Y126.0973
G3 X74.1734 I-0.0289 J-0.9996
G1 X70.1453 Y126.2094
G3 X68.254 Y126.2594 I-13.9306 J-491.0253
G1 X67.7973 Y126.2713
G3 X67.7965 I-0.0259 J-0.9997
G1 X64.1662 Y126.3622
G3 X64.1647 I-0.025 J-0.9997
G1 X60.7613 Y126.4425
G3 X60.7603 Y126.4426 I-0.0236 J-0.9997
G1 X59.1649 Y126.4787
G3 X59.1641 I-0.0227 J-0.9997
G1 X56.073 Y126.5462
G3 X56.0722 Y126.5463 I-0.0218 J-0.9998
G1 X54.6231 Y126.5768
G3 X54.6228 I-0.0211 J-0.9998
G1 X53.9209 Y126.5914
G3 X53.9206 I-0.0207 J-0.9998
G1 X53.231 Y126.6055
G3 X52.5478 Y126.6194 I-2.8133 J-121.6584
G1 X51.21 Y126.6462
G3 X51.2091 I-0.02 J-0.9998
G1 X46.0205 Y126.7454
G3 X46.0193 I-0.0191 J-0.9998
G1 X41.4791 Y126.8266
G3 X41.4786 I-0.0179 J-0.9998
G1 X41.3544 Y126.8288
G3 X41.354 I-0.0173 J-0.9998
G1 X37.3968 Y126.8957
G3 X37.3961 I-0.0169 J-0.9999
G1 X33.9334 Y126.9517
G3 X33.9331 I-0.0162 J-0.9999
G1 X33.1756 Y126.9637
G3 X33.175 I-0.0158 J-0.9999
G1 X27.3048 Y127.053
G3 X27.304 I-0.0152 J-0.9999
G1 X22.9013 Y127.1165
G3 X22.9009 I-0.0144 J-0.9999
G1 X22.0753 Y127.128
G1 X22.0752
G1 X21.3013 Y127.1388
G3 X21.3008 I-0.0139 J-0.9999
G1 X15.4965 Y127.2172
G3 X15.496 I-0.0135 J-0.9999
G1 X12.5937 Y127.2549
G3 X12.5934 I-0.013 J-0.9999
G1 X9.6912 Y127.2916
G3 X8.6786 Y126.2917 I-0.0127 J-0.9999
G1 Y11.2917
G3 X9.6913 Y10.2918 I1.0 J0.0
G1 X14.4837 Y10.3529
G3 X14.4842 I-0.0128 J0.9999
G1 X18.977 Y10.4126
G3 X18.9775 I-0.0133 J0.9999
G1 X21.0835 Y10.4415
G3 X21.0839 I-0.0137 J0.9999
G1 X25.1643 Y10.4991
G3 X25.1648 I-0.0141 J0.9999
G1 X28.9901 Y10.5554
G3 X28.9907 I-0.0147 J0.9999
G1 X32.5769 Y10.6103
G3 X32.5775 I-0.0153 J0.9999
G1 X35.9395 Y10.6638
G3 X35.94 I-0.0159 J0.9999
G1 X37.5159 Y10.6896
G3 X37.5163 I-0.0164 J0.9999
G1 X39.0429 Y10.7151
G3 X44.9604 Y10.8186 I-58.184 J3496.1466
G3 X44.9609 I-0.0183 J0.9998
G1 X50.137 Y10.916
G3 X50.1379 Y10.9161 I-0.0188 J0.9998
G1 X51.2702 Y10.9383
G3 X51.2707 I-0.0197 J0.9998
G1 X53.4645 Y10.9826
G3 X53.465 I-0.0202 J0.9998
G1 X54.4933 Y11.0038
G3 X54.4941 I-0.0206 J0.9998
G1 X58.4765 Y11.0893
G3 X58.9182 Y11.0991 I-0.7265 J42.6634
G1 X60.6318 Y11.1378
G3 X60.6327 I-0.0226 J0.9997
G1 X63.8502 Y11.2135
G3 X63.8511 I-0.0235 J0.9997
G1 X65.2395 Y11.2475
G3 X65.3416 Y11.2495 I0.0147 J1.8654
G3 X65.4434 Y11.2525 I-0.0051 J1.8638
G1 X68.043 Y11.3184
G3 X68.0433 I-0.0253 J0.9997
G3 X86.3803 Y11.8756 I-49.9858 J1947.0791
G1 X86.3804
G1 X87.0579 Y11.8994
G3 X87.0584 Y11.8995 I-0.0351 J0.9994
G1 X88.3923 Y11.947
G3 X88.393 Y11.9471 I-0.0356 J0.9994
G1 X89.6852 Y11.994
G3 X89.6862 I-0.0363 J0.9993
G1 X92.1759 Y12.087
G3 X92.2638 Y12.09 I-0.0283 J2.0923
G3 X92.3515 Y12.0937 I-0.043 J2.0913
G1 X94.6754 Y12.1838
G3 X94.6764 Y12.1839 I-0.0388 J0.9992
G1 X95.7723 Y12.2275
G3 X95.7733 I-0.0398 J0.9992
G1 X97.8962 Y12.3142
G3 X97.8976 Y12.3143 I-0.0408 J0.9992
G1 X99.8877 Y12.3982
G3 X99.8887 I-0.0421 J0.9991
G1 X100.8216 Y12.4385
G3 X100.8221 I-0.0431 J0.9991
G1 X101.274 Y12.4582
G3 X101.2743 Y12.4583 I-0.0436 J0.999
G1 X101.7191 Y12.4778
G3 X101.7199 I-0.0439 J0.999
G1 X103.4557 Y12.5555
G3 X103.5747 Y12.5605 I-0.0416 J2.4058
G3 X103.677 Y12.5652 I-0.0582 J2.4043
G3 X103.779 Y12.5699 I-0.0586 J2.4032
G3 X103.8964 Y12.5756 I-0.0589 J2.4021
G1 X105.4972 Y12.6498
G3 X105.499 I-0.0463 J0.9989
G1 X108.529 Y12.7957
G3 X108.5308 Y12.7958 I-0.0481 J0.9988
G1 X109.8563 Y12.8619
G3 X109.8574 Y12.862 I-0.0498 J0.9988
G1 X111.1 Y12.9253
G3 X111.101 Y12.9254 I-0.0509 J0.9987
G1 X112.2659 Y12.986
G3 X112.2674 I-0.0519 J0.9987
G1 X114.4513 Y13.1028
G3 X114.4521 Y13.1029 I-0.0534 J0.9986
G3 X122.1014 Y13.546 I-56.8491 J1047.4828
G3 X122.1022 Y13.5461 I-0.0615 J0.9981
G1 X124.0122 Y13.6653
G3 X124.0145 Y13.6654 I-0.0623 J0.9981
G1 X126.879 Y13.8507
G3 X126.8811 Y13.8508 I-0.0645 J0.9979
G1 X128.3081 Y13.9461
G3 X128.4938 Y13.9585 I-0.5072 J8.9344
G3 X128.649 Y13.969 I-0.5333 J9.0367
G3 X128.9258 Y13.9878 I-0.7471 J13.0549
G3 X129.1309 Y14.0018 I-0.8266 J13.6373
G3 X129.7501 Y14.0442 I-3.0994 J49.7882
G3 X148.1117 Y15.4598 I-75.2763 J1096.2067
G3 X148.1127 Y15.4599 I-0.0852 J0.9964
G1 X150.4033 Y15.6582
G3 X151.4113 Y15.7471 I-10.8128 J128.3505
G1 X153.2896 Y15.9155
G3 X153.2909 Y15.9157 I-0.0893 J0.996
G1 X154.1132 Y15.9905
G3 X154.1144 Y15.9907 I-0.0907 J0.9959
G1 X155.6557 Y16.133
G3 X155.657 Y16.1331 I-0.092 J0.9958
G1 X156.3312 Y16.1962
G3 X156.3323 Y16.1963 I-0.0932 J0.9957
G1 X157.5965 Y16.316
G3 X157.5975 Y16.3161 I-0.0943 J0.9955
G1 X158.1505 Y16.3691
G3 X158.1515 Y16.3692 I-0.0953 J0.9954
G1 X159.1883 Y16.4695
G3 X159.1895 Y16.4696 I-0.0963 J0.9954
G1 X160.0966 Y16.5585
G3 X160.0977 Y16.5586 I-0.0975 J0.9952
G1 X160.8913 Y16.6372
G3 X160.8923 Y16.6373 I-0.0986 J0.9951
G1 X161.5867 Y16.7068
G3 X161.5876 Y16.7069 I-0.0996 J0.995
G1 X162.1951 Y16.7682
G3 X162.1971 Y16.7684 I-0.1005 J0.9949
G1 X164.3228 Y16.9874
G3 X164.3262 Y16.9877 I-0.1025 J0.9947
G1 X166.4445 Y17.2133
G3 X166.6369 Y17.234 I-0.6352 J6.7867
G3 X166.8241 Y17.2545 I-0.7139 J7.3964
G3 X169.7026 Y17.5763 I-41.5807 J384.9442
G1 X170.0171 Y17.6125
G3 X170.0187 Y17.6127 I-0.1142 J0.9935
G1 X171.2577 Y17.7571
G3 X171.2592 Y17.7573 I-0.1158 J0.9933
G3 X180.5583 Y18.9499 I-55.2461 J467.6063
G3 X180.5597 Y18.9501 I-0.1371 J0.9906
G1 X181.7179 Y19.1121
G3 X181.7209 Y19.1125 I-0.1385 J0.9904
G1 X183.7468 Y19.4019
G3 X183.7497 Y19.4023 I-0.1414 J0.9899
G1 X185.2685 Y19.6238
G3 X185.2707 Y19.6241 I-0.1443 J0.9895
G1 X187.5482 Y19.9615
G3 X187.5497 Y19.9618 I-0.1466 J0.9892
G1 X189.8267 Y20.3027
G3 X189.827 Y20.3028 I-0.1481 J0.989
G1 X192.3302 Y20.6785
G3 X192.3308 Y20.6787 I-0.1485 J0.9889
G1 X194.5209 Y21.009
G3 X194.522 Y21.0092 I-0.1491 J0.9888
G1 X196.438 Y21.3004
G3 X196.4394 Y21.3006 I-0.1503 J0.9886
G1 X198.1154 Y21.5579
G3 X198.117 Y21.5581 I-0.1517 J0.9884
G1 X199.5832 Y21.7855
G3 X199.5848 Y21.7858 I-0.1533 J0.9882
G1 X200.8674 Y21.9868
G3 X200.8698 Y21.9872 I-0.1549 J0.9879
G1 X203.1136 Y22.3445
G3 X203.1159 Y22.3449 I-0.1573 J0.9876
G1 X203.957 Y22.481
G3 X203.9584 Y22.4812 I-0.1597 J0.9872
G1 X204.6942 Y22.6012
G3 X204.6954 Y22.6014 I-0.161 J0.987
G1 X205.3391 Y22.7072
G3 X205.3402 Y22.7074 I-0.1622 J0.9868
G1 X205.9033 Y22.8006
G3 X205.9048 Y22.8009 I-0.1633 J0.9866
G1 X206.89 Y22.9655
G3 X206.8925 Y22.966 I-0.1648 J0.9863
G1 X208.3697 Y23.2168
G3 X208.373 Y23.2173 I-0.1674 J0.9859
G1 X209.8492 Y23.473
G3 X209.8524 Y23.4736 I-0.1707 J0.9853
G1 X211.103 Y23.6943
G3 X211.1049 Y23.6946 I-0.1738 J0.9848
G1 X211.6909 Y23.7992
G3 X211.6913 Y23.7993 I-0.1757 J0.9844
G3 X216.236 Y24.6281 I-120.4817 J673.5496
G1 X217.9367 Y24.9425
G3 X217.9401 Y24.9431 I-0.1818 J0.9833
G2 X218.3057 Y25.0107 I10.4123 J-55.2646
G3 X218.3139 Y25.0122 I-0.1786 J0.9839
G2 X218.6645 Y25.0771 I6.6153 J-34.7901
G3 X218.6755 Y25.0791 I-0.1769 J0.9842
G2 X219.0125 Y25.1414 I5.1968 J-27.1709
G3 X219.0178 Y25.1424 I-0.1757 J0.9844
G1 X221.7248 Y25.6402
G3 X221.7338 Y25.642 I-0.1809 J0.9835
G2 X221.9669 Y25.6845 I2.1271 J-10.9949
G3 X221.9876 Y25.6883 I-0.1691 J0.9856
G2 X222.2124 Y25.7292 I2.0224 J-10.4632
G3 X222.2333 Y25.733 I-0.1687 J0.9857
G2 X222.4503 Y25.7725 I1.9277 J-9.984
G3 X222.4714 Y25.7763 I-0.1682 J0.9857
G2 X222.6807 Y25.8143 I1.8414 J-9.5489
G3 X222.702 Y25.8182 I-0.1678 J0.9858
G2 X222.904 Y25.8548 I1.7623 J-9.1512
G3 X222.9254 Y25.8586 I-0.1674 J0.9859
G2 X223.1203 Y25.8939 I1.6894 J-8.7858
G3 X223.1418 Y25.8978 I-0.167 J0.986
G2 X223.3298 Y25.9317 I1.6218 J-8.4481
G3 X223.3514 Y25.9356 I-0.1667 J0.986
G2 X223.5328 Y25.9683 I1.559 J-8.135
G3 X223.5544 Y25.9722 I-0.1663 J0.9861
G2 X223.7295 Y26.0036 I1.5003 J-7.8431
G3 X223.7511 Y26.0075 I-0.166 J0.9861
G2 X223.92 Y26.0378 I1.4454 J-7.5703
G3 X223.9416 Y26.0417 I-0.1656 J0.9862
G2 X224.1046 Y26.0709 I1.3938 J-7.3143
G3 X224.1262 Y26.0747 I-0.1653 J0.9862
G2 X224.2835 Y26.1028 I1.3452 J-7.0735
G3 X224.3049 Y26.1067 I-0.165 J0.9863
G2 X224.4567 Y26.1338 I1.2993 J-6.8462
G3 X224.4781 Y26.1376 I-0.1647 J0.9863
G2 X224.6246 Y26.1636 I1.2559 J-6.6314
G3 X224.6459 Y26.1674 I-0.1644 J0.9864
G2 X224.7872 Y26.1925 I1.2147 J-6.4278
G3 X224.8084 Y26.1963 I-0.1641 J0.9864
G2 X224.9448 Y26.2205 I1.1756 J-6.2342
G3 X224.9659 Y26.2242 I-0.1638 J0.9865
G2 X225.0974 Y26.2475 I1.1383 J-6.0499
G3 X225.1103 Y26.2497 I-0.1635 J0.9865
G2 X226.288 Y26.4562 I27.9684 J-156.0316
G3 X226.304 Y26.4591 I-0.169 J0.9856
G2 X226.4984 Y26.4928 I1.2895 J-6.8524
G3 X226.5254 Y26.4975 I-0.1571 J0.9876
G2 X226.7066 Y26.5288 I1.2216 J-6.5225
G3 X226.7177 Y26.5307 I-0.1568 J0.9876
G1 X228.2815 Y26.7972
G3 X228.2931 Y26.7992 I-0.168 J0.9858
G2 X228.4601 Y26.8272 I1.0495 J-5.7474
G3 X228.4719 Y26.8291 I-0.151 J0.9885
G1 X229.8413 Y27.055
G3 X229.8512 Y27.0567 I-0.1628 J0.9867
G2 X229.9953 Y27.0801 I0.9882 J-5.6371
G3 X230.0064 Y27.0818 I-0.1475 J0.9891
G1 X230.6774 Y27.1896
G1 X231.0016 Y27.2411
G1 X231.3208 Y27.2916
G1 X231.9505 Y27.3902
G1 X232.2548 Y27.4375
G1 X233.457 Y27.6221
G1 X234.0201 Y27.7077
G1 X235.1128 Y27.8724
G1 X237.1635 Y28.179
G1 X237.1634
G1 X237.1635
G1 X238.0609 Y28.3131
G3 X238.0617 Y28.3132 I-0.1478 J0.989
G1 X239.7443 Y28.566
G3 X239.7461 Y28.5663 I-0.1486 J0.9889
G1 X241.2179 Y28.7902
G3 X241.2197 Y28.7905 I-0.1504 J0.9886
G1 X241.8635 Y28.8896
G3 X241.8654 Y28.8899 I-0.1522 J0.9884
G1 X243.072 Y29.078
G3 X243.0726 Y29.0781 I-0.154 J0.9881
G3 X247.304 Y29.7684 I-50.5732 J323.3036
G3 X247.3055 Y29.7687 I-0.1675 J0.9859
G1 X248.3588 Y29.9493
G3 X248.3619 Y29.9499 I-0.169 J0.9856
G1 X249.1513 Y30.0878
G3 X249.1532 Y30.0881 I-0.1721 J0.9851
G1 X249.4492 Y30.1404
G3 X249.4515 Y30.1408 I-0.174 J0.9847
G1 X250.4869 Y30.3263
G3 X250.4906 Y30.327 I-0.1763 J0.9843
G1 X251.5253 Y30.5163
G3 X251.5277 Y30.5168 I-0.18 J0.9837
G1 X251.8282 Y30.5726
G3 X251.8308 Y30.573 I-0.1825 J0.9832
G1 X253.0227 Y30.7974
G3 X253.0264 Y30.7981 I-0.185 J0.9827
G1 X254.1803 Y31.0198
G3 X254.1826 Y31.0203 I-0.1887 J0.982
G1 X254.7413 Y31.129
G3 X254.7433 Y31.1294 I-0.191 J0.9816
G1 X255.8428 Y31.3456
G3 X255.8441 Y31.3459 I-0.193 J0.9812
G1 X255.9106 Y31.3591
G1 X255.9108
G1 X255.9772 Y31.3723
G3 X255.9779 Y31.3724 I-0.1944 J0.9809
G3 X260.2229 Y32.2299 I-143.3731 J720.686
G3 X260.2235 Y32.2301 I-0.2009 J0.9796
G1 X262.0768 Y32.6112
G3 X262.0782 Y32.6115 I-0.2015 J0.9795
G1 X265.5522 Y33.3312
G3 X265.5526 I-0.2028 J0.9792
G1 X271.631 Y34.5933
G1 X276.1902 Y35.5347
G1 X277.0449 Y35.7103
G1 X277.4454 Y35.7925
G1 X280.5522 Y36.4282
G2 X282.8813 Y36.9021 I287.4108 J-1406.6309
G1 X286.3778 Y37.6091
G1 X289.8754 Y38.3112
G3 X290.6786 Y39.2917 I-0.1968 J0.9804
G1 Y98.2917
G3 X289.8752 Y99.2722 I-1.0 J0.0
G1 X287.4781 Y99.7528
G2 X278.4976 Y101.5751 I413.7303 J2061.9459
G1 X275.1305 Y102.2669
G1 X272.1853 Y102.8753
G1 X269.6084 Y103.4096
G1 X265.0984 Y104.3464
G3 X265.098 Y104.3465 I-0.2034 J-0.9791
G1 X263.4065 Y104.6972
G3 X263.4059 Y104.6973 I-0.203 J-0.9792
G1 X261.9257 Y105.0033
G3 X261.9243 Y105.0036 I-0.2024 J-0.9793
G1 X259.3331 Y105.5353
G3 X259.3306 Y105.5358 I-0.201 J-0.9796
G1 X257.3863 Y105.9296
G3 X257.3836 Y105.9302 I-0.1985 J-0.9801
G1 X255.9245 Y106.2215
G3 X255.9225 Y106.2219 I-0.1958 J-0.9806
G1 X255.3751 Y106.33
G3 X255.374 Y106.3303 I-0.1938 J-0.981
G1 X254.8949 Y106.4243
G3 X254.8933 Y106.4247 I-0.1927 J-0.9813
G1 X254.0546 Y106.5879
G3 X251.5264 Y107.0668 I-49.0672 J-252.1107
G3 X251.5247 Y107.0671 I-0.1812 J-0.9834
G1 X250.1756 Y107.3132
G3 X250.1726 Y107.3138 I-0.1795 J-0.9838
G1 X249.8562 Y107.3705
G3 X249.8535 Y107.371 I-0.1765 J-0.9843
G1 X248.6071 Y107.5909
G3 X248.605 Y107.5913 I-0.1737 J-0.9848
G3 X247.4318 Y107.7932 I-51.844 J-297.6849
G3 X247.43 Y107.7935 I-0.1677 J-0.9858
G1 X246.3331 Y107.9781
G3 X246.3299 Y107.9786 I-0.166 J-0.9861
G1 X245.3009 Y108.1483
G3 X245.2987 Y108.1486 I-0.1627 J-0.9867
G1 X244.8162 Y108.2271
G3 X244.8143 Y108.2274 I-0.1605 J-0.987
G1 X243.8792 Y108.3776
G3 X243.8777 Y108.3778 I-0.1586 J-0.9874
G1 X243.6585 Y108.4127
G3 X243.6579 I-0.1571 J-0.9876
G1 X243.4421 Y108.4469
G3 X243.4408 Y108.4471 I-0.1565 J-0.9877
G1 X242.591 Y108.5807
G3 X242.5891 Y108.581 I-0.1552 J-0.9879
G1 X241.7921 Y108.7048
G3 X241.7906 Y108.705 I-0.1534 J-0.9882
G1 X241.0555 Y108.818
G3 X240.9855 Y108.8287 I-0.2891 J-1.6564
G1 X239.6013 Y109.0389
G3 X239.5994 Y109.0392 I-0.1502 J-0.9887
G1 X237.1552 Y109.4056
G3 X237.1546 I-0.1482 J-0.989
G1 X236.6963 Y109.4741
G3 X236.6959 I-0.1477 J-0.989
G2 X233.2635 Y109.9907 I159.5355 J1071.6111
G1 X231.5491 Y110.2559
G1 X230.694 Y110.3911
G1 X229.8388 Y110.5288
G1 X229.2144 Y110.6309
G1 X228.61 Y110.7312
G1 X227.4379 Y110.929
G1 X226.3395 Y111.1182
G1 X225.8252 Y111.2079
G1 X225.3274 Y111.2953
G1 X223.3943 Y111.6401
G1 X222.5497 Y111.7929
G1 X221.7575 Y111.9371
G1 X220.2715 Y112.2097
G1 X218.9712 Y112.4496
G1 X217.835 Y112.6597
G3 X217.3362 Y112.752 I-12.1836 J-64.4602
G3 X216.8687 Y112.8384 I-7.2787 J-38.0517
G3 X216.4306 Y112.9194 I-5.658 J-29.393
G3 X216.0199 Y112.9952 I-4.7651 J-24.6632
G3 X215.6348 Y113.0662 I-4.1733 J-21.5563
G3 X215.2737 Y113.1327 I-3.7409 J-19.3054
G3 X214.9352 Y113.1949 I-3.4049 J-17.5713
G3 X214.6178 Y113.2532 I-3.1331 J-16.1783
G3 X214.3202 Y113.3077 I-2.9064 J-15.0243
G3 X214.0361 Y113.3596 I-2.713 J-14.046
G3 X209.8518 Y114.1099 I-114.5516 J-626.7953
G3 X209.8511 Y114.11 I-0.1732 J-0.9849
G1 F20.0 Z-2.0
G3 F150.0 X207.3506 Y114.5401 I-71.0213 J-405.4023
G3 X202.9718 Y115.2616 I-89.3721 J-528.7609
G3 X202.9708 Y115.2618 I-0.1585 J-0.9874
G1 X201.3304 Y115.5234
G3 X201.3283 Y115.5237 I-0.1575 J-0.9875
G1 X199.8925 Y115.7495
G3 X199.8901 Y115.7499 I-0.1554 J-0.9879
G1 X197.3766 Y116.1392
G3 X197.3745 Y116.1395 I-0.1531 J-0.9882
G1 X195.4888 Y116.4276
G3 X195.4872 Y116.4278 I-0.151 J-0.9885
G1 X192.6603 Y116.8551
G3 X192.303 Y116.9089 I-4.8627 J-31.0986
G3 X191.9942 Y116.9553 I-4.8363 J-31.1193
G3 X191.4512 Y117.0369 I-7.0558 J-45.1205
G3 X191.0456 Y117.0978 I-6.9893 J-45.1773
G3 X190.4353 Y117.1893 I-10.6068 J-68.6107
G3 X189.8254 Y117.2808 I-18.1937 J-119.215
G1 X186.9166 Y117.7159
G3 X186.9155 Y117.7161 I-0.1479 J-0.989
G1 X186.2788 Y117.8105
G3 X186.2778 Y117.8107 I-0.1468 J-0.9892
G1 X185.0441 Y117.9925
G3 X185.0433 Y117.9926 I-0.1458 J-0.9893
G1 X184.8991 Y118.0137
G3 X175.6882 Y119.2823 I-72.1963 J-490.1339
G3 X175.6865 Y119.2825 I-0.1271 J-0.9919
G1 X174.5358 Y119.428
G3 X174.5339 Y119.4282 I-0.1254 J-0.9921
G3 X166.453 Y120.3692 I-63.3831 J-509.17
G3 X166.4524 I-0.1078 J-0.9942
G1 X165.8806 Y120.4309
G3 X165.8791 Y120.431 I-0.1072 J-0.9942
G1 X164.7533 Y120.5507
G3 X164.7506 Y120.551 I-0.1057 J-0.9944
G1 X162.5686 Y120.7771
G3 X162.5666 Y120.7773 I-0.1031 J-0.9947
G1 X162.0551 Y120.8293
G3 X162.0542 Y120.8294 I-0.1011 J-0.9949
G3 X153.9847 Y121.6045 I-88.44 J-878.302
G3 X153.9838 Y121.6046 I-0.091 J-0.9958
G1 X152.4717 Y121.7416
G3 X152.4705 Y121.7417 I-0.0902 J-0.9959
G3 X141.1137 Y122.699 I-101.3313 J-1134.3179
G3 X141.1132 I-0.079 J-0.9969
G1 X140.4037 Y122.7549
G3 X140.4022 Y122.755 I-0.0785 J-0.9969
G1 X137.7412 Y122.9604
G3 X137.7396 Y122.9606 I-0.077 J-0.997
G1 X136.7416 Y123.036
G3 X136.741 I-0.0754 J-0.9972
G1 X136.3043 Y123.0687
G3 X136.3039 Y123.0688 I-0.0747 J-0.9972
G1 X135.8945 Y123.0993
G3 X135.8936 Y123.0994 I-0.0743 J-0.9972
G1 X134.3585 Y123.2125
G3 X134.3577 I-0.0735 J-0.9973
G1 X134.0698 Y123.2335
G3 X134.0687 Y123.2336 I-0.0727 J-0.9974
G1 X131.9095 Y123.3885
G3 X131.9076 Y123.3886 I-0.0716 J-0.9974
G1 X129.7482 Y123.5392
G3 X129.7465 Y123.5394 I-0.0696 J-0.9976
G1 X128.3938 Y123.6315
G3 X128.3919 Y123.6316 I-0.068 J-0.9977
G1 X125.7705 Y123.8053
G3 X125.7691 I-0.0661 J-0.9978
G1 X125.4619 Y123.8253
G3 X125.4606 Y123.8254 I-0.0647 J-0.9979
G1 X123.0218 Y123.9803
G3 X123.0202 Y123.9804 I-0.0634 J-0.998
G1 X121.8769 Y124.0511
G3 X121.8753 Y124.0512 I-0.0617 J-0.9981
G1 X119.66 Y124.1847
G3 X119.6585 Y124.1848 I-0.0601 J-0.9982
G1 X118.6199 Y124.2457
G3 X118.6192 Y124.2458 I-0.0586 J-0.9983
G3 X102.5019 Y125.0708 I-68.7333 J-1184.9504
G3 X102.5015 I-0.0443 J-0.999
G1 X100.4878 Y125.1593
G3 X100.4865 Y125.1594 I-0.0439 J-0.999
G1 X98.7245 Y125.2345
G3 X98.7229 Y125.2346 I-0.0426 J-0.9991
G1 X95.639 Y125.3612
G3 X95.6379 I-0.041 J-0.9992
G1 X95.0596 Y125.3843
G3 X95.0591 I-0.0399 J-0.9992
G1 X93.9748 Y125.427
G3 X93.9742 Y125.4271 I-0.0394 J-0.9992
G1 X93.0254 Y125.4638
G3 X93.0242 Y125.4639 I-0.0388 J-0.9992
G1 X89.7036 Y125.5887
G3 X89.7026 I-0.0375 J-0.9993
G1 X89.495 Y125.5963
G3 X89.4942 I-0.0366 J-0.9993
G1 X86.381 Y125.7077
G3 X86.3799 I-0.0357 J-0.9994
G1 X85.1824 Y125.7493
G3 X85.1818 I-0.0347 J-0.9994
G1 X84.003 Y125.7896
G3 X84.0024 I-0.0341 J-0.9994
G1 X82.842 Y125.8285
G3 X82.8414 I-0.0335 J-0.9994
G1 X81.6991 Y125.8661
G3 X81.6985 Y125.8662 I-0.0329 J-0.9995
G1 X80.574 Y125.9026
G3 X80.5736 I-0.0323 J-0.9995
G1 X80.0201 Y125.9202
G3 X80.0194 Y125.9203 I-0.0319 J-0.9995
G1 X77.8228 Y125.9888
G3 X77.8221 Y125.9889 I-0.0312 J-0.9995
G1 X77.2901 Y126.0051
G3 X77.2897 I-0.0305 J-0.9995
G1 X76.234 Y126.0369
G3 X76.2335 I-0.0301 J-0.9995
G1 X75.1942 Y126.0676
G3 X75.1938 Y126.0677 I-0.0296 J-0.9996
G1 X74.6823 Y126.0826
G3 X74.682 I-0.0292 J-0.9996
G1 X74.1745 Y126.0973
G3 X74.1734 I-0.0289 J-0.9996
G1 X70.1453 Y126.2094
G3 X68.254 Y126.2594 I-13.9306 J-491.0253
G1 X67.7973 Y126.2713
G3 X67.7965 I-0.0259 J-0.9997
G1 X64.1662 Y126.3622
G3 X64.1647 I-0.025 J-0.9997
G1 X60.7613 Y126.4425
G3 X60.7603 Y126.4426 I-0.0236 J-0.9997
G1 X59.1649 Y126.4787
G3 X59.1641 I-0.0227 J-0.9997
G1 X56.073 Y126.5462
G3 X56.0722 Y126.5463 I-0.0218 J-0.9998
G1 X54.6231 Y126.5768
G3 X54.6228 I-0.0211 J-0.9998
G1 X53.9209 Y126.5914
G3 X53.9206 I-0.0207 J-0.9998
G1 X53.231 Y126.6055
G3 X52.5478 Y126.6194 I-2.8133 J-121.6584
G1 X51.21 Y126.6462
G3 X51.2091 I-0.02 J-0.9998
G1 X46.0205 Y126.7454
G3 X46.0193 I-0.0191 J-0.9998
G1 X41.4791 Y126.8266
G3 X41.4786 I-0.0179 J-0.9998
G1 X41.3544 Y126.8288
G3 X41.354 I-0.0173 J-0.9998
G1 X37.3968 Y126.8957
G3 X37.3961 I-0.0169 J-0.9999
G1 X33.9334 Y126.9517
G3 X33.9331 I-0.0162 J-0.9999
G1 X33.1756 Y126.9637
G3 X33.175 I-0.0158 J-0.9999
G1 X27.3048 Y127.053
G3 X27.304 I-0.0152 J-0.9999
G1 X22.9013 Y127.1165
G3 X22.9009 I-0.0144 J-0.9999
G1 X22.0753 Y127.128
G1 X22.0752
G1 X21.3013 Y127.1388
G3 X21.3008 I-0.0139 J-0.9999
G1 X15.4965 Y127.2172
G3 X15.496 I-0.0135 J-0.9999
G1 X12.5937 Y127.2549
G3 X12.5934 I-0.013 J-0.9999
G1 X9.6912 Y127.2916
G3 X8.6786 Y126.2917 I-0.0127 J-0.9999
G1 Y11.2917
G3 X9.6913 Y10.2918 I1.0 J0.0
G1 X14.4837 Y10.3529
G3 X14.4842 I-0.0128 J0.9999
G1 X18.977 Y10.4126
G3 X18.9775 I-0.0133 J0.9999
G1 X21.0835 Y10.4415
G3 X21.0839 I-0.0137 J0.9999
G1 X25.1643 Y10.4991
G3 X25.1648 I-0.0141 J0.9999
G1 X28.9901 Y10.5554
G3 X28.9907 I-0.0147 J0.9999
G1 X32.5769 Y10.6103
G3 X32.5775 I-0.0153 J0.9999
G1 X35.9395 Y10.6638
G3 X35.94 I-0.0159 J0.9999
G1 X37.5159 Y10.6896
G3 X37.5163 I-0.0164 J0.9999
G1 X39.0429 Y10.7151
G3 X44.9604 Y10.8186 I-58.184 J3496.1466
G3 X44.9609 I-0.0183 J0.9998
G1 X50.137 Y10.916
G3 X50.1379 Y10.9161 I-0.0188 J0.9998
G1 X51.2702 Y10.9383
G3 X51.2707 I-0.0197 J0.9998
G1 X53.4645 Y10.9826
G3 X53.465 I-0.0202 J0.9998
G1 X54.4933 Y11.0038
G3 X54.4941 I-0.0206 J0.9998
G1 X58.4765 Y11.0893
G3 X58.9182 Y11.0991 I-0.7265 J42.6634
G1 X60.6318 Y11.1378
G3 X60.6327 I-0.0226 J0.9997
G1 X63.8502 Y11.2135
G3 X63.8511 I-0.0235 J0.9997
G1 X65.2395 Y11.2475
G3 X65.3416 Y11.2495 I0.0147 J1.8654
G3 X65.4434 Y11.2525 I-0.0051 J1.8638
G1 X68.043 Y11.3184
G3 X68.0433 I-0.0253 J0.9997
G3 X86.3803 Y11.8756 I-49.9858 J1947.0791
G1 X86.3804
G1 X87.0579 Y11.8994
G3 X87.0584 Y11.8995 I-0.0351 J0.9994
G1 X88.3923 Y11.947
G3 X88.393 Y11.9471 I-0.0356 J0.9994
G1 X89.6852 Y11.994
G3 X89.6862 I-0.0363 J0.9993
G1 X92.1759 Y12.087
G3 X92.2638 Y12.09 I-0.0283 J2.0923
G3 X92.3515 Y12.0937 I-0.043 J2.0913
G1 X94.6754 Y12.1838
G3 X94.6764 Y12.1839 I-0.0388 J0.9992
G1 X95.7723 Y12.2275
G3 X95.7733 I-0.0398 J0.9992
G1 X97.8962 Y12.3142
G3 X97.8976 Y12.3143 I-0.0408 J0.9992
G1 X99.8877 Y12.3982
G3 X99.8887 I-0.0421 J0.9991
G1 X100.8216 Y12.4385
G3 X100.8221 I-0.0431 J0.9991
G1 X101.274 Y12.4582
G3 X101.2743 Y12.4583 I-0.0436 J0.999
G1 X101.7191 Y12.4778
G3 X101.7199 I-0.0439 J0.999
G1 X103.4557 Y12.5555
G3 X103.5747 Y12.5605 I-0.0416 J2.4058
G3 X103.677 Y12.5652 I-0.0582 J2.4043
G3 X103.779 Y12.5699 I-0.0586 J2.4032
G3 X103.8964 Y12.5756 I-0.0589 J2.4021
G1 X105.4972 Y12.6498
G3 X105.499 I-0.0463 J0.9989
G1 X108.529 Y12.7957
G3 X108.5308 Y12.7958 I-0.0481 J0.9988
G1 X109.8563 Y12.8619
G3 X109.8574 Y12.862 I-0.0498 J0.9988
G1 X111.1 Y12.9253
G3 X111.101 Y12.9254 I-0.0509 J0.9987
G1 X112.2659 Y12.986
G3 X112.2674 I-0.0519 J0.9987
G1 X114.4513 Y13.1028
G3 X114.4521 Y13.1029 I-0.0534 J0.9986
G3 X122.1014 Y13.546 I-56.8491 J1047.4828
G3 X122.1022 Y13.5461 I-0.0615 J0.9981
G1 X124.0122 Y13.6653
G3 X124.0145 Y13.6654 I-0.0623 J0.9981
G1 X126.879 Y13.8507
G3 X126.8811 Y13.8508 I-0.0645 J0.9979
G1 X128.3081 Y13.9461
G3 X128.4938 Y13.9585 I-0.5072 J8.9344
G3 X128.649 Y13.969 I-0.5333 J9.0367
G3 X128.9258 Y13.9878 I-0.7471 J13.0549
G3 X129.1309 Y14.0018 I-0.8266 J13.6373
G3 X129.7501 Y14.0442 I-3.0994 J49.7882
G3 X148.1117 Y15.4598 I-75.2763 J1096.2067
G3 X148.1127 Y15.4599 I-0.0852 J0.9964
G1 X150.4033 Y15.6582
G3 X151.4113 Y15.7471 I-10.8128 J128.3505
G1 X153.2896 Y15.9155
G3 X153.2909 Y15.9157 I-0.0893 J0.996
G1 X154.1132 Y15.9905
G3 X154.1144 Y15.9907 I-0.0907 J0.9959
G1 X155.6557 Y16.133
G3 X155.657 Y16.1331 I-0.092 J0.9958
G1 X156.3312 Y16.1962
G3 X156.3323 Y16.1963 I-0.0932 J0.9957
G1 X157.5965 Y16.316
G3 X157.5975 Y16.3161 I-0.0943 J0.9955
G1 X158.1505 Y16.3691
G3 X158.1515 Y16.3692 I-0.0953 J0.9954
G1 X159.1883 Y16.4695
G3 X159.1895 Y16.4696 I-0.0963 J0.9954
G1 X160.0966 Y16.5585
G3 X160.0977 Y16.5586 I-0.0975 J0.9952
G1 X160.8913 Y16.6372
G3 X160.8923 Y16.6373 I-0.0986 J0.9951
G1 X161.5867 Y16.7068
G3 X161.5876 Y16.7069 I-0.0996 J0.995
G1 X162.1951 Y16.7682
G3 X162.1971 Y16.7684 I-0.1005 J0.9949
G1 X164.3228 Y16.9874
G3 X164.3262 Y16.9877 I-0.1025 J0.9947
G1 X166.4445 Y17.2133
G3 X166.6369 Y17.234 I-0.6352 J6.7867
G3 X166.8241 Y17.2545 I-0.7139 J7.3964
G3 X169.7026 Y17.5763 I-41.5807 J384.9442
G1 X170.0171 Y17.6125
G3 X170.0187 Y17.6127 I-0.1142 J0.9935
G1 X171.2577 Y17.7571
G3 X171.2592 Y17.7573 I-0.1158 J0.9933
G3 X180.5583 Y18.9499 I-55.2461 J467.6063
G3 X180.5597 Y18.9501 I-0.1371 J0.9906
G1 X181.7179 Y19.1121
G3 X181.7209 Y19.1125 I-0.1385 J0.9904
G1 X183.7468 Y19.4019
G3 X183.7497 Y19.4023 I-0.1414 J0.9899
G1 X185.2685 Y19.6238
G3 X185.2707 Y19.6241 I-0.1443 J0.9895
G1 X187.5482 Y19.9615
G3 X187.5497 Y19.9618 I-0.1466 J0.9892
G1 X189.8267 Y20.3027
G3 X189.827 Y20.3028 I-0.1481 J0.989
G1 X192.3302 Y20.6785
G3 X192.3308 Y20.6787 I-0.1485 J0.9889
G1 X194.5209 Y21.009
G3 X194.522 Y21.0092 I-0.1491 J0.9888
G1 X196.438 Y21.3004
G3 X196.4394 Y21.3006 I-0.1503 J0.9886
G1 X198.1154 Y21.5579
G3 X198.117 Y21.5581 I-0.1517 J0.9884
G1 X199.5832 Y21.7855
G3 X199.5848 Y21.7858 I-0.1533 J0.9882
G1 X200.8674 Y21.9868
G3 X200.8698 Y21.9872 I-0.1549 J0.9879
G1 X203.1136 Y22.3445
G3 X203.1159 Y22.3449 I-0.1573 J0.9876
G1 X203.957 Y22.481
G3 X203.9584 Y22.4812 I-0.1597 J0.9872
G1 X204.6942 Y22.6012
G3 X204.6954 Y22.6014 I-0.161 J0.987
G1 X205.3391 Y22.7072
G3 X205.3402 Y22.7074 I-0.1622 J0.9868
G1 X205.9033 Y22.8006
G3 X205.9048 Y22.8009 I-0.1633 J0.9866
G1 X206.89 Y22.9655
G3 X206.8925 Y22.966 I-0.1648 J0.9863
G1 X208.3697 Y23.2168
G3 X208.373 Y23.2173 I-0.1674 J0.9859
G1 X209.8492 Y23.473
G3 X209.8524 Y23.4736 I-0.1707 J0.9853
G1 X211.103 Y23.6943
G3 X211.1049 Y23.6946 I-0.1738 J0.9848
G1 X211.6909 Y23.7992
G3 X211.6913 Y23.7993 I-0.1757 J0.9844
G3 X216.236 Y24.6281 I-120.4817 J673.5496
G1 X217.9367 Y24.9425
G3 X217.9401 Y24.9431 I-0.1818 J0.9833
G2 X218.3057 Y25.0107 I10.4123 J-55.2646
G3 X218.3139 Y25.0122 I-0.1786 J0.9839
G2 X218.6645 Y25.0771 I6.6153 J-34.7901
G3 X218.6755 Y25.0791 I-0.1769 J0.9842
G2 X219.0125 Y25.1414 I5.1968 J-27.1709
G3 X219.0178 Y25.1424 I-0.1757 J0.9844
G1 X221.7248 Y25.6402
G3 X221.7338 Y25.642 I-0.1809 J0.9835
G2 X221.9669 Y25.6845 I2.1271 J-10.9949
G3 X221.9876 Y25.6883 I-0.1691 J0.9856
G2 X222.2124 Y25.7292 I2.0224 J-10.4632
G3 X222.2333 Y25.733 I-0.1687 J0.9857
G2 X222.4503 Y25.7725 I1.9277 J-9.984
G3 X222.4714 Y25.7763 I-0.1682 J0.9857
G2 X222.6807 Y25.8143 I1.8414 J-9.5489
G3 X222.702 Y25.8182 I-0.1678 J0.9858
G2 X222.904 Y25.8548 I1.7623 J-9.1512
G3 X222.9254 Y25.8586 I-0.1674 J0.9859
G2 X223.1203 Y25.8939 I1.6894 J-8.7858
G3 X223.1418 Y25.8978 I-0.167 J0.986
G2 X223.3298 Y25.9317 I1.6218 J-8.4481
G3 X223.3514 Y25.9356 I-0.1667 J0.986
G2 X223.5328 Y25.9683 I1.559 J-8.135
G3 X223.5544 Y25.9722 I-0.1663 J0.9861
G2 X223.7295 Y26.0036 I1.5003 J-7.8431
G3 X223.7511 Y26.0075 I-0.166 J0.9861
G2 X223.92 Y26.0378 I1.4454 J-7.5703
G3 X223.9416 Y26.0417 I-0.1656 J0.9862
G2 X224.1046 Y26.0709 I1.3938 J-7.3143
G3 X224.1262 Y26.0747 I-0.1653 J0.9862
G2 X224.2835 Y26.1028 I1.3452 J-7.0735
G3 X224.3049 Y26.1067 I-0.165 J0.9863
G2 X224.4567 Y26.1338 I1.2993 J-6.8462
G3 X224.4781 Y26.1376 I-0.1647 J0.9863
G2 X224.6246 Y26.1636 I1.2559 J-6.6314
G3 X224.6459 Y26.1674 I-0.1644 J0.9864
G2 X224.7872 Y26.1925 I1.2147 J-6.4278
G3 X224.8084 Y26.1963 I-0.1641 J0.9864
G2 X224.9448 Y26.2205 I1.1756 J-6.2342
G3 X224.9659 Y26.2242 I-0.1638 J0.9865
G2 X225.0974 Y26.2475 I1.1383 J-6.0499
G3 X225.1103 Y26.2497 I-0.1635 J0.9865
G2 X226.288 Y26.4562 I27.9684 J-156.0316
G3 X226.304 Y26.4591 I-0.169 J0.9856
G2 X226.4984 Y26.4928 I1.2895 J-6.8524
G3 X226.5254 Y26.4975 I-0.1571 J0.9876
G2 X226.7066 Y26.5288 I1.2216 J-6.5225
G3 X226.7177 Y26.5307 I-0.1568 J0.9876
G1 X228.2815 Y26.7972
G3 X228.2931 Y26.7992 I-0.168 J0.9858
G2 X228.4601 Y26.8272 I1.0495 J-5.7474
G3 X228.4719 Y26.8291 I-0.151 J0.9885
G1 X229.8413 Y27.055
G3 X229.8512 Y27.0567 I-0.1628 J0.9867
G2 X229.9953 Y27.0801 I0.9882 J-5.6371
G3 X230.0064 Y27.0818 I-0.1475 J0.9891
G1 X230.6774 Y27.1896
G1 X231.0016 Y27.2411
G1 X231.3208 Y27.2916
G1 X231.9505 Y27.3902
G1 X232.2548 Y27.4375
G1 X233.457 Y27.6221
G1 X234.0201 Y27.7077
G1 X235.1128 Y27.8724
G1 X237.1635 Y28.179
G1 X237.1634
G1 X237.1635
G1 X238.0609 Y28.3131
G3 X238.0617 Y28.3132 I-0.1478 J0.989
G1 X239.7443 Y28.566
G3 X239.7461 Y28.5663 I-0.1486 J0.9889
G1 X241.2179 Y28.7902
G3 X241.2197 Y28.7905 I-0.1504 J0.9886
G1 X241.8635 Y28.8896
G3 X241.8654 Y28.8899 I-0.1522 J0.9884
G1 X243.072 Y29.078
G3 X243.0726 Y29.0781 I-0.154 J0.9881
G3 X247.304 Y29.7684 I-50.5732 J323.3036
G3 X247.3055 Y29.7687 I-0.1675 J0.9859
G1 X248.3588 Y29.9493
G3 X248.3619 Y29.9499 I-0.169 J0.9856
G1 X249.1513 Y30.0878
G3 X249.1532 Y30.0881 I-0.1721 J0.9851
G1 X249.4492 Y30.1404
G3 X249.4515 Y30.1408 I-0.174 J0.9847
G1 X250.4869 Y30.3263
G3 X250.4906 Y30.327 I-0.1763 J0.9843
G1 X251.5253 Y30.5163
G3 X251.5277 Y30.5168 I-0.18 J0.9837
G1 X251.8282 Y30.5726
G3 X251.8308 Y30.573 I-0.1825 J0.9832
G1 X253.0227 Y30.7974
G3 X253.0264 Y30.7981 I-0.185 J0.9827
G1 X254.1803 Y31.0198
G3 X254.1826 Y31.0203 I-0.1887 J0.982
G1 X254.7413 Y31.129
G3 X254.7433 Y31.1294 I-0.191 J0.9816
G1 X255.8428 Y31.3456
G3 X255.8441 Y31.3459 I-0.193 J0.9812
G1 X255.9106 Y31.3591
G1 X255.9108
G1 X255.9772 Y31.3723
G3 X255.9779 Y31.3724 I-0.1944 J0.9809
G3 X260.2229 Y32.2299 I-143.3731 J720.686
G3 X260.2235 Y32.2301 I-0.2009 J0.9796
G1 X262.0768 Y32.6112
G3 X262.0782 Y32.6115 I-0.2015 J0.9795
G1 X265.5522 Y33.3312
G3 X265.5526 I-0.2028 J0.9792
G1 X271.631 Y34.5933
G1 X276.1902 Y35.5347
G1 X277.0449 Y35.7103
G1 X277.4454 Y35.7925
G1 X280.5522 Y36.4282
G2 X282.8813 Y36.9021 I287.4108 J-1406.6309
G1 X286.3778 Y37.6091
G1 X289.8754 Y38.3112
G3 X290.6786 Y39.2917 I-0.1968 J0.9804
G1 Y98.2917
G3 X289.8752 Y99.2722 I-1.0 J0.0
G1 X287.4781 Y99.7528
G2 X278.4976 Y101.5751 I413.7303 J2061.9459
G1 X275.1305 Y102.2669
G1 X272.1853 Y102.8753
G1 X269.6084 Y103.4096
G1 X265.0984 Y104.3464
G3 X265.098 Y104.3465 I-0.2034 J-0.9791
G1 X263.4065 Y104.6972
G3 X263.4059 Y104.6973 I-0.203 J-0.9792
G1 X261.9257 Y105.0033
G3 X261.9243 Y105.0036 I-0.2024 J-0.9793
G1 X259.3331 Y105.5353
G3 X259.3306 Y105.5358 I-0.201 J-0.9796
G1 X257.3863 Y105.9296
G3 X257.3836 Y105.9302 I-0.1985 J-0.9801
G1 X255.9245 Y106.2215
G3 X255.9225 Y106.2219 I-0.1958 J-0.9806
G1 X255.3751 Y106.33
G3 X255.374 Y106.3303 I-0.1938 J-0.981
G1 X254.8949 Y106.4243
G3 X254.8933 Y106.4247 I-0.1927 J-0.9813
G1 X254.0546 Y106.5879
G3 X251.5264 Y107.0668 I-49.0672 J-252.1107
G3 X251.5247 Y107.0671 I-0.1812 J-0.9834
G1 X250.1756 Y107.3132
G3 X250.1726 Y107.3138 I-0.1795 J-0.9838
G1 X249.8562 Y107.3705
G3 X249.8535 Y107.371 I-0.1765 J-0.9843
G1 X248.6071 Y107.5909
G3 X248.605 Y107.5913 I-0.1737 J-0.9848
G3 X247.4318 Y107.7932 I-51.844 J-297.6849
G3 X247.43 Y107.7935 I-0.1677 J-0.9858
G1 X246.3331 Y107.9781
G3 X246.3299 Y107.9786 I-0.166 J-0.9861
G1 X245.3009 Y108.1483
G3 X245.2987 Y108.1486 I-0.1627 J-0.9867
G1 X244.8162 Y108.2271
G3 X244.8143 Y108.2274 I-0.1605 J-0.987
G1 X243.8792 Y108.3776
G3 X243.8777 Y108.3778 I-0.1586 J-0.9874
G1 X243.6585 Y108.4127
G3 X243.6579 I-0.1571 J-0.9876
G1 X243.4421 Y108.4469
G3 X243.4408 Y108.4471 I-0.1565 J-0.9877
G1 X242.591 Y108.5807
G3 X242.5891 Y108.581 I-0.1552 J-0.9879
G1 X241.7921 Y108.7048
G3 X241.7906 Y108.705 I-0.1534 J-0.9882
G1 X241.0555 Y108.818
G3 X240.9855 Y108.8287 I-0.2891 J-1.6564
G1 X239.6013 Y109.0389
G3 X239.5994 Y109.0392 I-0.1502 J-0.9887
G1 X237.1552 Y109.4056
G3 X237.1546 I-0.1482 J-0.989
G1 X236.6963 Y109.4741
G3 X236.6959 I-0.1477 J-0.989
G2 X233.2635 Y109.9907 I159.5355 J1071.6111
G1 X231.5491 Y110.2559
G1 X230.694 Y110.3911
G1 X229.8388 Y110.5288
G1 X229.2144 Y110.6309
G1 X228.61 Y110.7312
G1 X227.4379 Y110.929
G1 X226.3395 Y111.1182
G1 X225.8252 Y111.2079
G1 X225.3274 Y111.2953
G1 X223.3943 Y111.6401
G1 X222.5497 Y111.7929
G1 X221.7575 Y111.9371
G1 X220.2715 Y112.2097
G1 X218.9712 Y112.4496
G1 X217.835 Y112.6597
G3 X217.3362 Y112.752 I-12.1836 J-64.4602
G3 X216.8687 Y112.8384 I-7.2787 J-38.0517
G3 X216.4306 Y112.9194 I-5.658 J-29.393
G3 X216.0199 Y112.9952 I-4.7651 J-24.6632
G3 X215.6348 Y113.0662 I-4.1733 J-21.5563
G3 X215.2737 Y113.1327 I-3.7409 J-19.3054
G3 X214.9352 Y113.1949 I-3.4049 J-17.5713
G3 X214.6178 Y113.2532 I-3.1331 J-16.1783
G3 X214.3202 Y113.3077 I-2.9064 J-15.0243
G3 X214.0361 Y113.3596 I-2.713 J-14.046
G3 X209.8518 Y114.1099 I-114.5516 J-626.7953
G3 X209.8511 Y114.11 I-0.1732 J-0.9849
G1 F20.0 Z-3.0
G3 F150.0 X207.3506 Y114.5401 I-71.0213 J-405.4023
G3 X202.9718 Y115.2616 I-89.3721 J-528.7609
G3 X202.9708 Y115.2618 I-0.1585 J-0.9874
G1 X201.3304 Y115.5234
G3 X201.3283 Y115.5237 I-0.1575 J-0.9875
G1 X199.8925 Y115.7495
G3 X199.8901 Y115.7499 I-0.1554 J-0.9879
G1 X197.3766 Y116.1392
G3 X197.3745 Y116.1395 I-0.1531 J-0.9882
G1 X195.4888 Y116.4276
G3 X195.4872 Y116.4278 I-0.151 J-0.9885
G1 X192.6603 Y116.8551
G3 X192.303 Y116.9089 I-4.8627 J-31.0986
G3 X191.9942 Y116.9553 I-4.8363 J-31.1193
G3 X191.4512 Y117.0369 I-7.0558 J-45.1205
G3 X191.0456 Y117.0978 I-6.9893 J-45.1773
G3 X190.4353 Y117.1893 I-10.6068 J-68.6107
G3 X189.8254 Y117.2808 I-18.1937 J-119.215
G1 X186.9166 Y117.7159
G3 X186.9155 Y117.7161 I-0.1479 J-0.989
G1 X186.2788 Y117.8105
G3 X186.2778 Y117.8107 I-0.1468 J-0.9892
G1 X185.0441 Y117.9925
G3 X185.0433 Y117.9926 I-0.1458 J-0.9893
G1 X184.8991 Y118.0137
G3 X175.6882 Y119.2823 I-72.1963 J-490.1339
G3 X175.6865 Y119.2825 I-0.1271 J-0.9919
G1 X174.5358 Y119.428
G3 X174.5339 Y119.4282 I-0.1254 J-0.9921
G3 X166.453 Y120.3692 I-63.3831 J-509.17
G3 X166.4524 I-0.1078 J-0.9942
G1 X165.8806 Y120.4309
G3 X165.8791 Y120.431 I-0.1072 J-0.9942
G1 X164.7533 Y120.5507
G3 X164.7506 Y120.551 I-0.1057 J-0.9944
G1 X162.5686 Y120.7771
G3 X162.5666 Y120.7773 I-0.1031 J-0.9947
G1 X162.0551 Y120.8293
G3 X162.0542 Y120.8294 I-0.1011 J-0.9949
G3 X153.9847 Y121.6045 I-88.44 J-878.302
G3 X153.9838 Y121.6046 I-0.091 J-0.9958
G1 X152.4717 Y121.7416
G3 X152.4705 Y121.7417 I-0.0902 J-0.9959
G3 X141.1137 Y122.699 I-101.3313 J-1134.3179
G3 X141.1132 I-0.079 J-0.9969
G1 X140.4037 Y122.7549
G3 X140.4022 Y122.755 I-0.0785 J-0.9969
G1 X137.7412 Y122.9604
G3 X137.7396 Y122.9606 I-0.077 J-0.997
G1 X136.7416 Y123.036
G3 X136.741 I-0.0754 J-0.9972
G1 X136.7279 Y123.037
G1 X136.3043 Y123.0687 Z-2.7168
G3 X136.3039 Y123.0688 Z-2.7166 I-0.0747 J-0.9972
G1 X135.8945 Y123.0993 Z-2.4429
G3 X135.8936 Y123.0994 Z-2.4423 I-0.0743 J-0.9972
G1 X135.232 Y123.1481 Z-2.0
G1 X134.3585 Y123.2125
G3 X134.3577 I-0.0735 J-0.9973
G1 X134.0698 Y123.2335
G3 X134.0687 Y123.2336 I-0.0727 J-0.9974
G1 X133.2373 Y123.2932
G1 X131.9095 Y123.3885 Z-2.8874
G3 X131.9076 Y123.3886 Z-2.8887 I-0.0716 J-0.9974
G1 X131.7411 Y123.4002 Z-3.0
G1 X129.7482 Y123.5392
G3 X129.7465 Y123.5394 I-0.0696 J-0.9976
G1 X128.3938 Y123.6315
G3 X128.3919 Y123.6316 I-0.068 J-0.9977
G1 X125.7705 Y123.8053
G3 X125.7691 I-0.0661 J-0.9978
G1 X125.4619 Y123.8253
G3 X125.4606 Y123.8254 I-0.0647 J-0.9979
G1 X123.0218 Y123.9803
G3 X123.0202 Y123.9804 I-0.0634 J-0.998
G1 X121.8769 Y124.0511
G3 X121.8753 Y124.0512 I-0.0617 J-0.9981
G1 X119.66 Y124.1847
G3 X119.6585 Y124.1848 I-0.0601 J-0.9982
G1 X118.6199 Y124.2457
G3 X118.6192 Y124.2458 I-0.0586 J-0.9983
G3 X102.5019 Y125.0708 I-68.7333 J-1184.9504
G3 X102.5015 I-0.0443 J-0.999
G1 X100.4878 Y125.1593
G3 X100.4865 Y125.1594 I-0.0439 J-0.999
G1 X98.7245 Y125.2345
G3 X98.7229 Y125.2346 I-0.0426 J-0.9991
G1 X95.639 Y125.3612
G3 X95.6379 I-0.041 J-0.9992
G1 X95.0596 Y125.3843
G3 X95.0591 I-0.0399 J-0.9992
G1 X93.9748 Y125.427
G3 X93.9742 Y125.4271 I-0.0394 J-0.9992
G1 X93.0254 Y125.4638
G3 X93.0242 Y125.4639 I-0.0388 J-0.9992
G1 X89.7036 Y125.5887
G3 X89.7026 I-0.0375 J-0.9993
G1 X89.495 Y125.5963
G3 X89.4942 I-0.0366 J-0.9993
G1 X86.381 Y125.7077
G3 X86.3799 I-0.0357 J-0.9994
G1 X85.1824 Y125.7493
G3 X85.1818 I-0.0347 J-0.9994
G1 X84.003 Y125.7896
G3 X84.0024 I-0.0341 J-0.9994
G1 X82.842 Y125.8285
G3 X82.8414 I-0.0335 J-0.9994
G1 X81.6991 Y125.8661
G3 X81.6985 Y125.8662 I-0.0329 J-0.9995
G1 X80.574 Y125.9026
G3 X80.5736 I-0.0323 J-0.9995
G1 X80.0201 Y125.9202
G3 X80.0194 Y125.9203 I-0.0319 J-0.9995
G1 X77.8228 Y125.9888
G3 X77.8221 Y125.9889 I-0.0312 J-0.9995
G1 X77.2901 Y126.0051
G3 X77.2897 I-0.0305 J-0.9995
G1 X76.234 Y126.0369
G3 X76.2335 I-0.0301 J-0.9995
G1 X75.1942 Y126.0676
G3 X75.1938 Y126.0677 I-0.0296 J-0.9996
G1 X74.6823 Y126.0826
G3 X74.682 I-0.0292 J-0.9996
G1 X74.1745 Y126.0973
G3 X74.1734 I-0.0289 J-0.9996
G1 X70.1453 Y126.2094
G3 X68.254 Y126.2594 I-13.9306 J-491.0253
G1 X67.7973 Y126.2713
G3 X67.7965 I-0.0259 J-0.9997
G1 X64.1662 Y126.3622
G3 X64.1647 I-0.025 J-0.9997
G1 X60.7613 Y126.4425
G3 X60.7603 Y126.4426 I-0.0236 J-0.9997
G1 X59.1649 Y126.4787
G3 X59.1641 I-0.0227 J-0.9997
G1 X56.073 Y126.5462
G3 X56.0722 Y126.5463 I-0.0218 J-0.9998
G1 X54.6231 Y126.5768
G3 X54.6228 I-0.0211 J-0.9998
G1 X53.9209 Y126.5914
G3 X53.9206 I-0.0207 J-0.9998
G1 X53.231 Y126.6055
G3 X52.5478 Y126.6194 I-2.8133 J-121.6584
G1 X51.21 Y126.6462
G3 X51.2091 I-0.02 J-0.9998
G1 X46.0205 Y126.7454
G3 X46.0193 I-0.0191 J-0.9998
G1 X41.4791 Y126.8266
G3 X41.4786 I-0.0179 J-0.9998
G1 X41.3544 Y126.8288
G3 X41.354 I-0.0173 J-0.9998
G1 X37.3968 Y126.8957
G3 X37.3961 I-0.0169 J-0.9999
G1 X33.9334 Y126.9517
G3 X33.9331 I-0.0162 J-0.9999
G1 X33.1756 Y126.9637
G3 X33.175 I-0.0158 J-0.9999
G1 X28.3356 Y127.0373
G1 X27.3048 Y127.053 Z-2.3127
G3 X27.304 Z-2.3122 I-0.0152 J-0.9999
G1 X26.8358 Y127.0598 Z-2.0
G1 X24.836 Y127.0886
G1 X23.3362 Y127.1102 Z-3.0
G1 X22.9013 Y127.1165
G3 X22.9009 I-0.0144 J-0.9999
G1 X22.0753 Y127.128
G1 X22.0752
G1 X21.3013 Y127.1388
G3 X21.3008 I-0.0139 J-0.9999
G1 X15.4965 Y127.2172
G3 X15.496 I-0.0135 J-0.9999
G1 X12.5937 Y127.2549
G3 X12.5934 I-0.013 J-0.9999
G1 X9.6912 Y127.2916
G3 X8.6786 Y126.2917 I-0.0127 J-0.9999
G1 Y11.2917
G3 X9.6913 Y10.2918 I1.0 J0.0
G1 X14.4837 Y10.3529
G3 X14.4842 I-0.0128 J0.9999
G1 X18.977 Y10.4126
G3 X18.9775 I-0.0133 J0.9999
G1 X19.4938 Y10.4197
G1 X20.9937 Y10.4403 Z-2.0
G1 X21.0835 Y10.4415
G3 X21.0839 I-0.0137 J0.9999
G1 X22.9935 Y10.4685
G1 X24.4933 Y10.4897 Z-3.0
G1 X25.1643 Y10.4991
G3 X25.1648 I-0.0141 J0.9999
G1 X28.9901 Y10.5554
G3 X28.9907 I-0.0147 J0.9999
G1 X32.5769 Y10.6103
G3 X32.5775 I-0.0153 J0.9999
G1 X35.9395 Y10.6638
G3 X35.94 I-0.0159 J0.9999
G1 X37.5159 Y10.6896
G3 X37.5163 I-0.0164 J0.9999
G1 X39.0429 Y10.7151
G3 X44.9604 Y10.8186 I-58.184 J3496.1466
G3 X44.9609 I-0.0183 J0.9998
G1 X50.137 Y10.916
G3 X50.1379 Y10.9161 I-0.0188 J0.9998
G1 X51.2702 Y10.9383
G3 X51.2707 I-0.0197 J0.9998
G1 X53.4645 Y10.9826
G3 X53.465 I-0.0202 J0.9998
G1 X54.4933 Y11.0038
G3 X54.4941 I-0.0206 J0.9998
G1 X58.4765 Y11.0893
G3 X58.9182 Y11.0991 I-0.7265 J42.6634
G1 X60.6318 Y11.1378
G3 X60.6327 I-0.0226 J0.9997
G1 X63.8502 Y11.2135
G3 X63.8511 I-0.0235 J0.9997
G1 X65.2395 Y11.2475
G3 X65.3416 Y11.2495 I0.0147 J1.8654
G3 X65.4434 Y11.2525 I-0.0051 J1.8638
G1 X68.043 Y11.3184
G3 X68.0433 I-0.0253 J0.9997
G3 X86.3803 Y11.8756 I-49.9858 J1947.0791
G1 X86.3804
G1 X87.0579 Y11.8994
G3 X87.0584 Y11.8995 I-0.0351 J0.9994
G1 X88.3923 Y11.947
G3 X88.393 Y11.9471 I-0.0356 J0.9994
G1 X89.6852 Y11.994
G3 X89.6862 I-0.0363 J0.9993
G1 X92.1759 Y12.087
G3 X92.2638 Y12.09 I-0.0283 J2.0923
G3 X92.3515 Y12.0937 I-0.043 J2.0913
G1 X94.6754 Y12.1838
G3 X94.6764 Y12.1839 I-0.0388 J0.9992
G1 X95.7723 Y12.2275
G3 X95.7733 I-0.0398 J0.9992
G1 X97.8962 Y12.3142
G3 X97.8976 Y12.3143 I-0.0408 J0.9992
G1 X99.8877 Y12.3982
G3 X99.8887 I-0.0421 J0.9991
G1 X100.8216 Y12.4385
G3 X100.8221 I-0.0431 J0.9991
G1 X101.274 Y12.4582
G3 X101.2743 Y12.4583 I-0.0436 J0.999
G1 X101.7191 Y12.4778
G3 X101.7199 I-0.0439 J0.999
G1 X103.4557 Y12.5555
G3 X103.5747 Y12.5605 I-0.0416 J2.4058
G3 X103.677 Y12.5652 I-0.0582 J2.4043
G3 X103.779 Y12.5699 I-0.0586 J2.4032
G3 X103.8964 Y12.5756 I-0.0589 J2.4021
G1 X105.4972 Y12.6498
G3 X105.499 I-0.0463 J0.9989
G1 X108.529 Y12.7957
G3 X108.5308 Y12.7958 I-0.0481 J0.9988
G1 X109.8563 Y12.8619
G3 X109.8574 Y12.862 I-0.0498 J0.9988
G1 X111.1 Y12.9253
G3 X111.101 Y12.9254 I-0.0509 J0.9987
G1 X112.2659 Y12.986
G3 X112.2674 I-0.0519 J0.9987
G1 X114.4513 Y13.1028
G3 X114.4521 Y13.1029 I-0.0534 J0.9986
G3 X122.1014 Y13.546 I-56.8491 J1047.4828
G3 X122.1022 Y13.5461 I-0.0615 J0.9981
G1 X124.0122 Y13.6653
G3 X124.0145 Y13.6654 I-0.0623 J0.9981
G1 X126.879 Y13.8507
G3 X126.8811 Y13.8508 I-0.0645 J0.9979
G1 X128.3081 Y13.9461
G3 X128.4938 Y13.9585 I-0.5072 J8.9344
G3 X128.649 Y13.969 I-0.5333 J9.0367
G3 X128.9258 Y13.9878 I-0.7471 J13.0549
G3 X129.1309 Y14.0018 I-0.8266 J13.6373
G3 X129.7501 Y14.0442 I-3.0994 J49.7882
G3 X133.6185 Y14.3167 I-75.2763 J1096.2067
G3 X135.1145 Y14.4258 Z-2.0 I-79.1447 J1095.9342
G3 X137.109 Y14.5744 I-80.6407 J1095.8251
G3 X138.6047 Y14.6882 Z-3.0 I-82.6352 J1095.6765
G3 X148.1117 Y15.4598 I-84.1309 J1095.5627
G3 X148.1127 Y15.4599 I-0.0852 J0.9964
G1 X150.4033 Y15.6582
G3 X151.4113 Y15.7471 I-10.8128 J128.3505
G1 X153.2896 Y15.9155
G3 X153.2909 Y15.9157 I-0.0893 J0.996
G1 X154.1132 Y15.9905
G3 X154.1144 Y15.9907 I-0.0907 J0.9959
G1 X155.6557 Y16.133
G3 X155.657 Y16.1331 I-0.092 J0.9958
G1 X156.3312 Y16.1962
G3 X156.3323 Y16.1963 I-0.0932 J0.9957
G1 X157.5965 Y16.316
G3 X157.5975 Y16.3161 I-0.0943 J0.9955
G1 X158.1505 Y16.3691
G3 X158.1515 Y16.3692 I-0.0953 J0.9954
G1 X159.1883 Y16.4695
G3 X159.1895 Y16.4696 I-0.0963 J0.9954
G1 X160.0966 Y16.5585
G3 X160.0977 Y16.5586 I-0.0975 J0.9952
G1 X160.8913 Y16.6372
G3 X160.8923 Y16.6373 I-0.0986 J0.9951
G1 X161.5867 Y16.7068
G3 X161.5876 Y16.7069 I-0.0996 J0.995
G1 X162.1951 Y16.7682
G3 X162.1971 Y16.7684 I-0.1005 J0.9949
G1 X164.3228 Y16.9874
G3 X164.3262 Y16.9877 I-0.1025 J0.9947
G1 X166.4445 Y17.2133
G3 X166.6369 Y17.234 I-0.6352 J6.7867
G3 X166.8241 Y17.2545 I-0.7139 J7.3964
G3 X169.7026 Y17.5763 I-41.5807 J384.9442
G1 X170.0171 Y17.6125
G3 X170.0187 Y17.6127 I-0.1142 J0.9935
G1 X171.2577 Y17.7571
G3 X171.2592 Y17.7573 I-0.1158 J0.9933
G3 X180.5583 Y18.9499 I-55.2461 J467.6063
G3 X180.5597 Y18.9501 I-0.1371 J0.9906
G1 X181.7179 Y19.1121
G3 X181.7209 Y19.1125 I-0.1385 J0.9904
G1 X183.7468 Y19.4019
G3 X183.7497 Y19.4023 I-0.1414 J0.9899
G1 X185.2685 Y19.6238
G3 X185.2707 Y19.6241 I-0.1443 J0.9895
G1 X187.5482 Y19.9615
G3 X187.5497 Y19.9618 I-0.1466 J0.9892
G1 X189.8267 Y20.3027
G3 X189.827 Y20.3028 I-0.1481 J0.989
G1 X192.3302 Y20.6785
G3 X192.3308 Y20.6787 I-0.1485 J0.9889
G1 X194.5209 Y21.009
G3 X194.522 Y21.0092 I-0.1491 J0.9888
G1 X196.438 Y21.3004
G3 X196.4394 Y21.3006 I-0.1503 J0.9886
G1 X198.1154 Y21.5579
G3 X198.117 Y21.5581 I-0.1517 J0.9884
G1 X199.5832 Y21.7855
G3 X199.5848 Y21.7858 I-0.1533 J0.9882
G1 X200.8674 Y21.9868
G3 X200.8698 Y21.9872 I-0.1549 J0.9879
G1 X203.1136 Y22.3445
G3 X203.1159 Y22.3449 I-0.1573 J0.9876
G1 X203.957 Y22.481
G3 X203.9584 Y22.4812 I-0.1597 J0.9872
G1 X204.6942 Y22.6012
G3 X204.6954 Y22.6014 I-0.161 J0.987
G1 X205.3391 Y22.7072
G3 X205.3402 Y22.7074 I-0.1622 J0.9868
G1 X205.9033 Y22.8006
G3 X205.9048 Y22.8009 I-0.1633 J0.9866
G1 X206.89 Y22.9655
G3 X206.8925 Y22.966 I-0.1648 J0.9863
G1 X208.3697 Y23.2168
G3 X208.373 Y23.2173 I-0.1674 J0.9859
G1 X209.8492 Y23.473
G3 X209.8524 Y23.4736 I-0.1707 J0.9853
G1 X211.103 Y23.6943
G3 X211.1049 Y23.6946 I-0.1738 J0.9848
G1 X211.6909 Y23.7992
G3 X211.6913 Y23.7993 I-0.1757 J0.9844
G3 X216.236 Y24.6281 I-120.4817 J673.5496
G1 X217.9367 Y24.9425
G3 X217.9401 Y24.9431 I-0.1818 J0.9833
G2 X218.3057 Y25.0107 I10.4123 J-55.2646
G3 X218.3139 Y25.0122 I-0.1786 J0.9839
G2 X218.6645 Y25.0771 I6.6153 J-34.7901
G3 X218.6755 Y25.0791 I-0.1769 J0.9842
G2 X219.0125 Y25.1414 I5.1968 J-27.1709
G3 X219.0178 Y25.1424 I-0.1757 J0.9844
G1 X221.7248 Y25.6402
G3 X221.7338 Y25.642 I-0.1809 J0.9835
G2 X221.9669 Y25.6845 I2.1271 J-10.9949
G3 X221.9876 Y25.6883 I-0.1691 J0.9856
G2 X222.2124 Y25.7292 I2.0224 J-10.4632
G3 X222.2333 Y25.733 I-0.1687 J0.9857
G2 X222.4503 Y25.7725 I1.9277 J-9.984
G3 X222.4714 Y25.7763 I-0.1682 J0.9857
G2 X222.6807 Y25.8143 I1.8414 J-9.5489
G3 X222.702 Y25.8182 I-0.1678 J0.9858
G2 X222.904 Y25.8548 I1.7623 J-9.1512
G3 X222.9254 Y25.8586 I-0.1674 J0.9859
G2 X223.1203 Y25.8939 I1.6894 J-8.7858
G3 X223.1418 Y25.8978 I-0.167 J0.986
G2 X223.3298 Y25.9317 I1.6218 J-8.4481
G3 X223.3514 Y25.9356 I-0.1667 J0.986
G2 X223.5328 Y25.9683 I1.559 J-8.135
G3 X223.5544 Y25.9722 I-0.1663 J0.9861
G2 X223.7295 Y26.0036 I1.5003 J-7.8431
G3 X223.7511 Y26.0075 I-0.166 J0.9861
G2 X223.92 Y26.0378 I1.4454 J-7.5703
G3 X223.9416 Y26.0417 I-0.1656 J0.9862
G2 X224.1046 Y26.0709 I1.3938 J-7.3143
G3 X224.1262 Y26.0747 I-0.1653 J0.9862
G2 X224.2835 Y26.1028 I1.3452 J-7.0735
G3 X224.3049 Y26.1067 I-0.165 J0.9863
G2 X224.4567 Y26.1338 I1.2993 J-6.8462
G3 X224.4781 Y26.1376 I-0.1647 J0.9863
G2 X224.6246 Y26.1636 I1.2559 J-6.6314
G3 X224.6459 Y26.1674 I-0.1644 J0.9864
G2 X224.7872 Y26.1925 I1.2147 J-6.4278
G3 X224.8084 Y26.1963 I-0.1641 J0.9864
G2 X224.9448 Y26.2205 I1.1756 J-6.2342
G3 X224.9659 Y26.2242 I-0.1638 J0.9865
G2 X225.0974 Y26.2475 I1.1383 J-6.0499
G3 X225.1103 Y26.2497 I-0.1635 J0.9865
G2 X226.288 Y26.4562 I27.9684 J-156.0316
G3 X226.304 Y26.4591 I-0.169 J0.9856
G2 X226.4984 Y26.4928 I1.2895 J-6.8524
G3 X226.5254 Y26.4975 I-0.1571 J0.9876
G2 X226.7066 Y26.5288 I1.2216 J-6.5225
G3 X226.7177 Y26.5307 I-0.1568 J0.9876
G1 X228.2815 Y26.7972
G3 X228.2931 Y26.7992 I-0.168 J0.9858
G2 X228.4601 Y26.8272 I1.0495 J-5.7474
G3 X228.4719 Y26.8291 I-0.151 J0.9885
G1 X229.8413 Y27.055
G3 X229.8512 Y27.0567 I-0.1628 J0.9867
G2 X229.9953 Y27.0801 I0.9882 J-5.6371
G3 X230.0064 Y27.0818 I-0.1475 J0.9891
G1 X230.6774 Y27.1896
G1 X231.0016 Y27.2411
G1 X231.3208 Y27.2916
G1 X231.9505 Y27.3902
G1 X232.2548 Y27.4375
G1 X233.457 Y27.6221
G1 X234.0201 Y27.7077
G1 X235.1128 Y27.8724
G1 X237.1635 Y28.179
G1 X237.1634
G1 X237.1635
G1 X238.0609 Y28.3131
G3 X238.0617 Y28.3132 I-0.1478 J0.989
G1 X239.7443 Y28.566
G3 X239.7461 Y28.5663 I-0.1486 J0.9889
G1 X241.2179 Y28.7902
G3 X241.2197 Y28.7905 I-0.1504 J0.9886
G1 X241.8635 Y28.8896
G3 X241.8654 Y28.8899 I-0.1522 J0.9884
G1 X243.072 Y29.078
G3 X243.0726 Y29.0781 I-0.154 J0.9881
G3 X247.304 Y29.7684 I-50.5732 J323.3036
G3 X247.3055 Y29.7687 I-0.1675 J0.9859
G1 X248.3588 Y29.9493
G3 X248.3619 Y29.9499 I-0.169 J0.9856
G1 X249.1513 Y30.0878
G3 X249.1532 Y30.0881 I-0.1721 J0.9851
G1 X249.4492 Y30.1404
G3 X249.4515 Y30.1408 I-0.174 J0.9847
G1 X250.4869 Y30.3263
G3 X250.4906 Y30.327 I-0.1763 J0.9843
G1 X251.5253 Y30.5163
G3 X251.5277 Y30.5168 I-0.18 J0.9837
G1 X251.8282 Y30.5726
G3 X251.8308 Y30.573 I-0.1825 J0.9832
G1 X253.0227 Y30.7974
G3 X253.0264 Y30.7981 I-0.185 J0.9827
G1 X254.1803 Y31.0198
G3 X254.1826 Y31.0203 I-0.1887 J0.982
G1 X254.7413 Y31.129
G3 X254.7433 Y31.1294 I-0.191 J0.9816
G1 X255.8428 Y31.3456
G3 X255.8441 Y31.3459 I-0.193 J0.9812
G1 X255.9106 Y31.3591
G1 X255.9108
G1 X255.9772 Y31.3723
G3 X255.9779 Y31.3724 I-0.1944 J0.9809
G3 X260.2229 Y32.2299 I-143.3731 J720.686
G3 X260.2235 Y32.2301 I-0.2009 J0.9796
G1 X262.0768 Y32.6112
G3 X262.0782 Y32.6115 I-0.2015 J0.9795
G1 X265.5522 Y33.3312
G3 X265.5526 I-0.2028 J0.9792
G1 X269.8156 Y34.2163
G1 X271.2842 Y34.5213 Z-2.0
G1 X271.631 Y34.5933
G1 X273.2428 Y34.9261
G1 X274.7119 Y35.2294 Z-3.0
G1 X276.1902 Y35.5347
G1 X277.0449 Y35.7103
G1 X277.4454 Y35.7925
G1 X280.5522 Y36.4282
G2 X282.8813 Y36.9021 I287.4108 J-1406.6309
G1 X286.3778 Y37.6091
G1 X289.8754 Y38.3112
G3 X290.6786 Y39.2917 I-0.1968 J0.9804
G1 Y98.2917
G3 X289.8752 Y99.2722 I-1.0 J0.0
G1 X287.4781 Y99.7528
G2 X278.4976 Y101.5751 I413.7303 J2061.9459
G1 X277.507 Y101.7786
G1 X276.0377 Y102.0805 Z-2.0
G1 X275.1305 Y102.2669
G1 X274.0789 Y102.4841
G1 X272.6099 Y102.7876 Z-3.0
G1 X272.1853 Y102.8753
G1 X269.6084 Y103.4096
G1 X265.0984 Y104.3464
G3 X265.098 Y104.3465 I-0.2034 J-0.9791
G1 X263.4065 Y104.6972
G3 X263.4059 Y104.6973 I-0.203 J-0.9792
G1 X261.9257 Y105.0033
G3 X261.9243 Y105.0036 I-0.2024 J-0.9793
G1 X259.3331 Y105.5353
G3 X259.3306 Y105.5358 I-0.201 J-0.9796
G1 X257.3863 Y105.9296
G3 X257.3836 Y105.9302 I-0.1985 J-0.9801
G1 X255.9245 Y106.2215
G3 X255.9225 Y106.2219 I-0.1958 J-0.9806
G1 X255.3751 Y106.33
G3 X255.374 Y106.3303 I-0.1938 J-0.981
G1 X254.8949 Y106.4243
G3 X254.8933 Y106.4247 I-0.1927 J-0.9813
G1 X254.0546 Y106.5879
G3 X251.5264 Y107.0668 I-49.0672 J-252.1107
G3 X251.5247 Y107.0671 I-0.1812 J-0.9834
G1 X250.1756 Y107.3132
G3 X250.1726 Y107.3138 I-0.1795 J-0.9838
G1 X249.8562 Y107.3705
G3 X249.8535 Y107.371 I-0.1765 J-0.9843
G1 X248.6071 Y107.5909
G3 X248.605 Y107.5913 I-0.1737 J-0.9848
G3 X247.4318 Y107.7932 I-51.844 J-297.6849
G3 X247.43 Y107.7935 I-0.1677 J-0.9858
G1 X246.3331 Y107.9781
G3 X246.3299 Y107.9786 I-0.166 J-0.9861
G1 X245.3009 Y108.1483
G3 X245.2987 Y108.1486 I-0.1627 J-0.9867
G1 X244.8162 Y108.2271
G3 X244.8143 Y108.2274 I-0.1605 J-0.987
G1 X243.8792 Y108.3776
G3 X243.8777 Y108.3778 I-0.1586 J-0.9874
G1 X243.6585 Y108.4127
G3 X243.6579 I-0.1571 J-0.9876
G1 X243.4421 Y108.4469
G3 X243.4408 Y108.4471 I-0.1565 J-0.9877
G1 X242.591 Y108.5807
G3 X242.5891 Y108.581 I-0.1552 J-0.9879
G1 X241.7921 Y108.7048
G3 X241.7906 Y108.705 I-0.1534 J-0.9882
G1 X241.0555 Y108.818
G3 X240.9855 Y108.8287 I-0.2891 J-1.6564
G1 X239.6013 Y109.0389
G3 X239.5994 Y109.0392 I-0.1502 J-0.9887
G1 X237.1552 Y109.4056
G3 X237.1546 I-0.1482 J-0.989
G1 X236.6963 Y109.4741
G3 X236.6959 I-0.1477 J-0.989
G2 X233.2635 Y109.9907 I159.5355 J1071.6111
G1 X231.5491 Y110.2559
G1 X230.694 Y110.3911
G1 X229.8388 Y110.5288
G1 X229.2144 Y110.6309
G1 X228.61 Y110.7312
G1 X227.4379 Y110.929
G1 X226.3395 Y111.1182
G1 X225.8252 Y111.2079
G1 X225.3274 Y111.2953
G1 X223.3943 Y111.6401
G1 X222.5497 Y111.7929
G1 X221.7575 Y111.9371
G1 X220.2715 Y112.2097
G1 X218.9712 Y112.4496
G1 X217.835 Y112.6597
G3 X217.3362 Y112.752 I-12.1836 J-64.4602
G3 X216.8687 Y112.8384 I-7.2787 J-38.0517
G3 X216.4306 Y112.9194 I-5.658 J-29.393
G3 X216.0199 Y112.9952 I-4.7651 J-24.6632
G3 X215.6348 Y113.0662 I-4.1733 J-21.5563
G3 X215.2737 Y113.1327 I-3.7409 J-19.3054
G3 X214.9352 Y113.1949 I-3.4049 J-17.5713
G3 X214.6178 Y113.2532 I-3.1331 J-16.1783
G3 X214.3202 Y113.3077 I-2.9064 J-15.0243
G3 X214.0361 Y113.3596 I-2.713 J-14.046
G3 X209.8518 Y114.1099 I-114.5516 J-626.7953
G3 X209.8511 Y114.11 I-0.1732 J-0.9849
G1 F20.0 Z-4.0
G3 F150.0 X207.3506 Y114.5401 I-71.0213 J-405.4023
G3 X202.9718 Y115.2616 I-89.3721 J-528.7609
G3 X202.9708 Y115.2618 I-0.1585 J-0.9874
G1 X201.3304 Y115.5234
G3 X201.3283 Y115.5237 I-0.1575 J-0.9875
G1 X199.8925 Y115.7495
G3 X199.8901 Y115.7499 I-0.1554 J-0.9879
G1 X197.3766 Y116.1392
G3 X197.3745 Y116.1395 I-0.1531 J-0.9882
G1 X195.4888 Y116.4276
G3 X195.4872 Y116.4278 I-0.151 J-0.9885
G1 X192.6603 Y116.8551
G3 X192.303 Y116.9089 I-4.8627 J-31.0986
G3 X191.9942 Y116.9553 I-4.8363 J-31.1193
G3 X191.4512 Y117.0369 I-7.0558 J-45.1205
G3 X191.0456 Y117.0978 I-6.9893 J-45.1773
G3 X190.4353 Y117.1893 I-10.6068 J-68.6107
G3 X189.8254 Y117.2808 I-18.1937 J-119.215
G1 X186.9166 Y117.7159
G3 X186.9155 Y117.7161 I-0.1479 J-0.989
G1 X186.2788 Y117.8105
G3 X186.2778 Y117.8107 I-0.1468 J-0.9892
G1 X185.0441 Y117.9925
G3 X185.0433 Y117.9926 I-0.1458 J-0.9893
G1 X184.8991 Y118.0137
G3 X175.6882 Y119.2823 I-72.1963 J-490.1339
G3 X175.6865 Y119.2825 I-0.1271 J-0.9919
G1 X174.5358 Y119.428
G3 X174.5339 Y119.4282 I-0.1254 J-0.9921
G3 X166.453 Y120.3692 I-63.3831 J-509.17
G3 X166.4524 I-0.1078 J-0.9942
G1 X165.8806 Y120.4309
G3 X165.8791 Y120.431 I-0.1072 J-0.9942
G1 X164.7533 Y120.5507
G3 X164.7506 Y120.551 I-0.1057 J-0.9944
G1 X162.5686 Y120.7771
G3 X162.5666 Y120.7773 I-0.1031 J-0.9947
G1 X162.0551 Y120.8293
G3 X162.0542 Y120.8294 I-0.1011 J-0.9949
G3 X153.9847 Y121.6045 I-88.44 J-878.302
G3 X153.9838 Y121.6046 I-0.091 J-0.9958
G1 X152.4717 Y121.7416
G3 X152.4705 Y121.7417 I-0.0902 J-0.9959
G3 X141.1137 Y122.699 I-101.3313 J-1134.3179
G3 X141.1132 I-0.079 J-0.9969
G1 X140.4037 Y122.7549
G3 X140.4022 Y122.755 I-0.0785 J-0.9969
G1 X137.7412 Y122.9604
G3 X137.7396 Y122.9606 I-0.077 J-0.997
G1 X136.7416 Y123.036
G3 X136.741 I-0.0754 J-0.9972
G1 X136.7279 Y123.037
G1 X136.3043 Y123.0687 Z-3.4336
G3 X136.3039 Y123.0688 Z-3.4331 I-0.0747 J-0.9972
G1 X135.8945 Y123.0993 Z-2.8857
G3 X135.8936 Y123.0994 Z-2.8846 I-0.0743 J-0.9972
G1 X135.232 Y123.1481 Z-2.0
G1 X134.3585 Y123.2125
G3 X134.3577 I-0.0735 J-0.9973
G1 X134.0698 Y123.2335
G3 X134.0687 Y123.2336 I-0.0727 J-0.9974
G1 X133.2373 Y123.2932
G1 X131.9095 Y123.3885 Z-3.7748
G3 X131.9076 Y123.3886 Z-3.7775 I-0.0716 J-0.9974
G1 X131.7411 Y123.4002 Z-4.0
G1 X129.7482 Y123.5392
G3 X129.7465 Y123.5394 I-0.0696 J-0.9976
G1 X128.3938 Y123.6315
G3 X128.3919 Y123.6316 I-0.068 J-0.9977
G1 X125.7705 Y123.8053
G3 X125.7691 I-0.0661 J-0.9978
G1 X125.4619 Y123.8253
G3 X125.4606 Y123.8254 I-0.0647 J-0.9979
G1 X123.0218 Y123.9803
G3 X123.0202 Y123.9804 I-0.0634 J-0.998
G1 X121.8769 Y124.0511
G3 X121.8753 Y124.0512 I-0.0617 J-0.9981
G1 X119.66 Y124.1847
G3 X119.6585 Y124.1848 I-0.0601 J-0.9982
G1 X118.6199 Y124.2457
G3 X118.6192 Y124.2458 I-0.0586 J-0.9983
G3 X102.5019 Y125.0708 I-68.7333 J-1184.9504
G3 X102.5015 I-0.0443 J-0.999
G1 X100.4878 Y125.1593
G3 X100.4865 Y125.1594 I-0.0439 J-0.999
G1 X98.7245 Y125.2345
G3 X98.7229 Y125.2346 I-0.0426 J-0.9991
G1 X95.639 Y125.3612
G3 X95.6379 I-0.041 J-0.9992
G1 X95.0596 Y125.3843
G3 X95.0591 I-0.0399 J-0.9992
G1 X93.9748 Y125.427
G3 X93.9742 Y125.4271 I-0.0394 J-0.9992
G1 X93.0254 Y125.4638
G3 X93.0242 Y125.4639 I-0.0388 J-0.9992
G1 X89.7036 Y125.5887
G3 X89.7026 I-0.0375 J-0.9993
G1 X89.495 Y125.5963
G3 X89.4942 I-0.0366 J-0.9993
G1 X86.381 Y125.7077
G3 X86.3799 I-0.0357 J-0.9994
G1 X85.1824 Y125.7493
G3 X85.1818 I-0.0347 J-0.9994
G1 X84.003 Y125.7896
G3 X84.0024 I-0.0341 J-0.9994
G1 X82.842 Y125.8285
G3 X82.8414 I-0.0335 J-0.9994
G1 X81.6991 Y125.8661
G3 X81.6985 Y125.8662 I-0.0329 J-0.9995
G1 X80.574 Y125.9026
G3 X80.5736 I-0.0323 J-0.9995
G1 X80.0201 Y125.9202
G3 X80.0194 Y125.9203 I-0.0319 J-0.9995
G1 X77.8228 Y125.9888
G3 X77.8221 Y125.9889 I-0.0312 J-0.9995
G1 X77.2901 Y126.0051
G3 X77.2897 I-0.0305 J-0.9995
G1 X76.234 Y126.0369
G3 X76.2335 I-0.0301 J-0.9995
G1 X75.1942 Y126.0676
G3 X75.1938 Y126.0677 I-0.0296 J-0.9996
G1 X74.6823 Y126.0826
G3 X74.682 I-0.0292 J-0.9996
G1 X74.1745 Y126.0973
G3 X74.1734 I-0.0289 J-0.9996
G1 X70.1453 Y126.2094
G3 X68.254 Y126.2594 I-13.9306 J-491.0253
G1 X67.7973 Y126.2713
G3 X67.7965 I-0.0259 J-0.9997
G1 X64.1662 Y126.3622
G3 X64.1647 I-0.025 J-0.9997
G1 X60.7613 Y126.4425
G3 X60.7603 Y126.4426 I-0.0236 J-0.9997
G1 X59.1649 Y126.4787
G3 X59.1641 I-0.0227 J-0.9997
G1 X56.073 Y126.5462
G3 X56.0722 Y126.5463 I-0.0218 J-0.9998
G1 X54.6231 Y126.5768
G3 X54.6228 I-0.0211 J-0.9998
G1 X53.9209 Y126.5914
G3 X53.9206 I-0.0207 J-0.9998
G1 X53.231 Y126.6055
G3 X52.5478 Y126.6194 I-2.8133 J-121.6584
G1 X51.21 Y126.6462
G3 X51.2091 I-0.02 J-0.9998
G1 X46.0205 Y126.7454
G3 X46.0193 I-0.0191 J-0.9998
G1 X41.4791 Y126.8266
G3 X41.4786 I-0.0179 J-0.9998
G1 X41.3544 Y126.8288
G3 X41.354 I-0.0173 J-0.9998
G1 X37.3968 Y126.8957
G3 X37.3961 I-0.0169 J-0.9999
G1 X33.9334 Y126.9517
G3 X33.9331 I-0.0162 J-0.9999
G1 X33.1756 Y126.9637
G3 X33.175 I-0.0158 J-0.9999
G1 X28.3356 Y127.0373
G1 X27.3048 Y127.053 Z-2.6254
G3 X27.304 Z-2.6243 I-0.0152 J-0.9999
G1 X26.8358 Y127.0598 Z-2.0
G1 X24.836 Y127.0886
G1 X23.3362 Y127.1102 Z-4.0
G1 X22.9013 Y127.1165
G3 X22.9009 I-0.0144 J-0.9999
G1 X22.0753 Y127.128
G1 X22.0752
G1 X21.3013 Y127.1388
G3 X21.3008 I-0.0139 J-0.9999
G1 X15.4965 Y127.2172
G3 X15.496 I-0.0135 J-0.9999
G1 X12.5937 Y127.2549
G3 X12.5934 I-0.013 J-0.9999
G1 X9.6912 Y127.2916
G3 X8.6786 Y126.2917 I-0.0127 J-0.9999
G1 Y11.2917
G3 X9.6913 Y10.2918 I1.0 J0.0
G1 X14.4837 Y10.3529
G3 X14.4842 I-0.0128 J0.9999
G1 X18.977 Y10.4126
G3 X18.9775 I-0.0133 J0.9999
G1 X19.4938 Y10.4197
G1 X20.9937 Y10.4403 Z-2.0
G1 X21.0835 Y10.4415
G3 X21.0839 I-0.0137 J0.9999
G1 X22.9935 Y10.4685
G1 X24.4933 Y10.4897 Z-4.0
G1 X25.1643 Y10.4991
G3 X25.1648 I-0.0141 J0.9999
G1 X28.9901 Y10.5554
G3 X28.9907 I-0.0147 J0.9999
G1 X32.5769 Y10.6103
G3 X32.5775 I-0.0153 J0.9999
G1 X35.9395 Y10.6638
G3 X35.94 I-0.0159 J0.9999
G1 X37.5159 Y10.6896
G3 X37.5163 I-0.0164 J0.9999
G1 X39.0429 Y10.7151
G3 X44.9604 Y10.8186 I-58.184 J3496.1466
G3 X44.9609 I-0.0183 J0.9998
G1 X50.137 Y10.916
G3 X50.1379 Y10.9161 I-0.0188 J0.9998
G1 X51.2702 Y10.9383
G3 X51.2707 I-0.0197 J0.9998
G1 X53.4645 Y10.9826
G3 X53.465 I-0.0202 J0.9998
G1 X54.4933 Y11.0038
G3 X54.4941 I-0.0206 J0.9998
G1 X58.4765 Y11.0893
G3 X58.9182 Y11.0991 I-0.7265 J42.6634
G1 X60.6318 Y11.1378
G3 X60.6327 I-0.0226 J0.9997
G1 X63.8502 Y11.2135
G3 X63.8511 I-0.0235 J0.9997
G1 X65.2395 Y11.2475
G3 X65.3416 Y11.2495 I0.0147 J1.8654
G3 X65.4434 Y11.2525 I-0.0051 J1.8638
G1 X68.043 Y11.3184
G3 X68.0433 I-0.0253 J0.9997
G3 X86.3803 Y11.8756 I-49.9858 J1947.0791
G1 X86.3804
G1 X87.0579 Y11.8994
G3 X87.0584 Y11.8995 I-0.0351 J0.9994
G1 X88.3923 Y11.947
G3 X88.393 Y11.9471 I-0.0356 J0.9994
G1 X89.6852 Y11.994
G3 X89.6862 I-0.0363 J0.9993
G1 X92.1759 Y12.087
G3 X92.2638 Y12.09 I-0.0283 J2.0923
G3 X92.3515 Y12.0937 I-0.043 J2.0913
G1 X94.6754 Y12.1838
G3 X94.6764 Y12.1839 I-0.0388 J0.9992
G1 X95.7723 Y12.2275
G3 X95.7733 I-0.0398 J0.9992
G1 X97.8962 Y12.3142
G3 X97.8976 Y12.3143 I-0.0408 J0.9992
G1 X99.8877 Y12.3982
G3 X99.8887 I-0.0421 J0.9991
G1 X100.8216 Y12.4385
G3 X100.8221 I-0.0431 J0.9991
G1 X101.274 Y12.4582
G3 X101.2743 Y12.4583 I-0.0436 J0.999
G1 X101.7191 Y12.4778
G3 X101.7199 I-0.0439 J0.999
G1 X103.4557 Y12.5555
G3 X103.5747 Y12.5605 I-0.0416 J2.4058
G3 X103.677 Y12.5652 I-0.0582 J2.4043
G3 X103.779 Y12.5699 I-0.0586 J2.4032
G3 X103.8964 Y12.5756 I-0.0589 J2.4021
G1 X105.4972 Y12.6498
G3 X105.499 I-0.0463 J0.9989
G1 X108.529 Y12.7957
G3 X108.5308 Y12.7958 I-0.0481 J0.9988
G1 X109.8563 Y12.8619
G3 X109.8574 Y12.862 I-0.0498 J0.9988
G1 X111.1 Y12.9253
G3 X111.101 Y12.9254 I-0.0509 J0.9987
G1 X112.2659 Y12.986
G3 X112.2674 I-0.0519 J0.9987
G1 X114.4513 Y13.1028
G3 X114.4521 Y13.1029 I-0.0534 J0.9986
G3 X122.1014 Y13.546 I-56.8491 J1047.4828
G3 X122.1022 Y13.5461 I-0.0615 J0.9981
G1 X124.0122 Y13.6653
G3 X124.0145 Y13.6654 I-0.0623 J0.9981
G1 X126.879 Y13.8507
G3 X126.8811 Y13.8508 I-0.0645 J0.9979
G1 X128.3081 Y13.9461
G3 X128.4938 Y13.9585 I-0.5072 J8.9344
G3 X128.649 Y13.969 I-0.5333 J9.0367
G3 X128.9258 Y13.9878 I-0.7471 J13.0549
G3 X129.1309 Y14.0018 I-0.8266 J13.6373
G3 X129.7501 Y14.0442 I-3.0994 J49.7882
G3 X133.6185 Y14.3167 I-75.2763 J1096.2067
G3 X135.1145 Y14.4258 Z-2.0 I-79.1447 J1095.9342
G3 X137.109 Y14.5744 I-80.6407 J1095.8251
G3 X138.6047 Y14.6882 Z-4.0 I-82.6352 J1095.6765
G3 X148.1117 Y15.4598 I-84.1309 J1095.5627
G3 X148.1127 Y15.4599 I-0.0852 J0.9964
G1 X150.4033 Y15.6582
G3 X151.4113 Y15.7471 I-10.8128 J128.3505
G1 X153.2896 Y15.9155
G3 X153.2909 Y15.9157 I-0.0893 J0.996
G1 X154.1132 Y15.9905
G3 X154.1144 Y15.9907 I-0.0907 J0.9959
G1 X155.6557 Y16.133
G3 X155.657 Y16.1331 I-0.092 J0.9958
G1 X156.3312 Y16.1962
G3 X156.3323 Y16.1963 I-0.0932 J0.9957
G1 X157.5965 Y16.316
G3 X157.5975 Y16.3161 I-0.0943 J0.9955
G1 X158.1505 Y16.3691
G3 X158.1515 Y16.3692 I-0.0953 J0.9954
G1 X159.1883 Y16.4695
G3 X159.1895 Y16.4696 I-0.0963 J0.9954
G1 X160.0966 Y16.5585
G3 X160.0977 Y16.5586 I-0.0975 J0.9952
G1 X160.8913 Y16.6372
G3 X160.8923 Y16.6373 I-0.0986 J0.9951
G1 X161.5867 Y16.7068
G3 X161.5876 Y16.7069 I-0.0996 J0.995
G1 X162.1951 Y16.7682
G3 X162.1971 Y16.7684 I-0.1005 J0.9949
G1 X164.3228 Y16.9874
G3 X164.3262 Y16.9877 I-0.1025 J0.9947
G1 X166.4445 Y17.2133
G3 X166.6369 Y17.234 I-0.6352 J6.7867
G3 X166.8241 Y17.2545 I-0.7139 J7.3964
G3 X169.7026 Y17.5763 I-41.5807 J384.9442
G1 X170.0171 Y17.6125
G3 X170.0187 Y17.6127 I-0.1142 J0.9935
G1 X171.2577 Y17.7571
G3 X171.2592 Y17.7573 I-0.1158 J0.9933
G3 X180.5583 Y18.9499 I-55.2461 J467.6063
G3 X180.5597 Y18.9501 I-0.1371 J0.9906
G1 X181.7179 Y19.1121
G3 X181.7209 Y19.1125 I-0.1385 J0.9904
G1 X183.7468 Y19.4019
G3 X183.7497 Y19.4023 I-0.1414 J0.9899
G1 X185.2685 Y19.6238
G3 X185.2707 Y19.6241 I-0.1443 J0.9895
G1 X187.5482 Y19.9615
G3 X187.5497 Y19.9618 I-0.1466 J0.9892
G1 X189.8267 Y20.3027
G3 X189.827 Y20.3028 I-0.1481 J0.989
G1 X192.3302 Y20.6785
G3 X192.3308 Y20.6787 I-0.1485 J0.9889
G1 X194.5209 Y21.009
G3 X194.522 Y21.0092 I-0.1491 J0.9888
G1 X196.438 Y21.3004
G3 X196.4394 Y21.3006 I-0.1503 J0.9886
G1 X198.1154 Y21.5579
G3 X198.117 Y21.5581 I-0.1517 J0.9884
G1 X199.5832 Y21.7855
G3 X199.5848 Y21.7858 I-0.1533 J0.9882
G1 X200.8674 Y21.9868
G3 X200.8698 Y21.9872 I-0.1549 J0.9879
G1 X203.1136 Y22.3445
G3 X203.1159 Y22.3449 I-0.1573 J0.9876
G1 X203.957 Y22.481
G3 X203.9584 Y22.4812 I-0.1597 J0.9872
G1 X204.6942 Y22.6012
G3 X204.6954 Y22.6014 I-0.161 J0.987
G1 X205.3391 Y22.7072
G3 X205.3402 Y22.7074 I-0.1622 J0.9868
G1 X205.9033 Y22.8006
G3 X205.9048 Y22.8009 I-0.1633 J0.9866
G1 X206.89 Y22.9655
G3 X206.8925 Y22.966 I-0.1648 J0.9863
G1 X208.3697 Y23.2168
G3 X208.373 Y23.2173 I-0.1674 J0.9859
G1 X209.8492 Y23.473
G3 X209.8524 Y23.4736 I-0.1707 J0.9853
G1 X211.103 Y23.6943
G3 X211.1049 Y23.6946 I-0.1738 J0.9848
G1 X211.6909 Y23.7992
G3 X211.6913 Y23.7993 I-0.1757 J0.9844
G3 X216.236 Y24.6281 I-120.4817 J673.5496
G1 X217.9367 Y24.9425
G3 X217.9401 Y24.9431 I-0.1818 J0.9833
G2 X218.3057 Y25.0107 I10.4123 J-55.2646
G3 X218.3139 Y25.0122 I-0.1786 J0.9839
G2 X218.6645 Y25.0771 I6.6153 J-34.7901
G3 X218.6755 Y25.0791 I-0.1769 J0.9842
G2 X219.0125 Y25.1414 I5.1968 J-27.1709
G3 X219.0178 Y25.1424 I-0.1757 J0.9844
G1 X221.7248 Y25.6402
G3 X221.7338 Y25.642 I-0.1809 J0.9835
G2 X221.9669 Y25.6845 I2.1271 J-10.9949
G3 X221.9876 Y25.6883 I-0.1691 J0.9856
G2 X222.2124 Y25.7292 I2.0224 J-10.4632
G3 X222.2333 Y25.733 I-0.1687 J0.9857
G2 X222.4503 Y25.7725 I1.9277 J-9.984
G3 X222.4714 Y25.7763 I-0.1682 J0.9857
G2 X222.6807 Y25.8143 I1.8414 J-9.5489
G3 X222.702 Y25.8182 I-0.1678 J0.9858
G2 X222.904 Y25.8548 I1.7623 J-9.1512
G3 X222.9254 Y25.8586 I-0.1674 J0.9859
G2 X223.1203 Y25.8939 I1.6894 J-8.7858
G3 X223.1418 Y25.8978 I-0.167 J0.986
G2 X223.3298 Y25.9317 I1.6218 J-8.4481
G3 X223.3514 Y25.9356 I-0.1667 J0.986
G2 X223.5328 Y25.9683 I1.559 J-8.135
G3 X223.5544 Y25.9722 I-0.1663 J0.9861
G2 X223.7295 Y26.0036 I1.5003 J-7.8431
G3 X223.7511 Y26.0075 I-0.166 J0.9861
G2 X223.92 Y26.0378 I1.4454 J-7.5703
G3 X223.9416 Y26.0417 I-0.1656 J0.9862
G2 X224.1046 Y26.0709 I1.3938 J-7.3143
G3 X224.1262 Y26.0747 I-0.1653 J0.9862
G2 X224.2835 Y26.1028 I1.3452 J-7.0735
G3 X224.3049 Y26.1067 I-0.165 J0.9863
G2 X224.4567 Y26.1338 I1.2993 J-6.8462
G3 X224.4781 Y26.1376 I-0.1647 J0.9863
G2 X224.6246 Y26.1636 I1.2559 J-6.6314
G3 X224.6459 Y26.1674 I-0.1644 J0.9864
G2 X224.7872 Y26.1925 I1.2147 J-6.4278
G3 X224.8084 Y26.1963 I-0.1641 J0.9864
G2 X224.9448 Y26.2205 I1.1756 J-6.2342
G3 X224.9659 Y26.2242 I-0.1638 J0.9865
G2 X225.0974 Y26.2475 I1.1383 J-6.0499
G3 X225.1103 Y26.2497 I-0.1635 J0.9865
G2 X226.288 Y26.4562 I27.9684 J-156.0316
G3 X226.304 Y26.4591 I-0.169 J0.9856
G2 X226.4984 Y26.4928 I1.2895 J-6.8524
G3 X226.5254 Y26.4975 I-0.1571 J0.9876
G2 X226.7066 Y26.5288 I1.2216 J-6.5225
G3 X226.7177 Y26.5307 I-0.1568 J0.9876
G1 X228.2815 Y26.7972
G3 X228.2931 Y26.7992 I-0.168 J0.9858
G2 X228.4601 Y26.8272 I1.0495 J-5.7474
G3 X228.4719 Y26.8291 I-0.151 J0.9885
G1 X229.8413 Y27.055
G3 X229.8512 Y27.0567 I-0.1628 J0.9867
G2 X229.9953 Y27.0801 I0.9882 J-5.6371
G3 X230.0064 Y27.0818 I-0.1475 J0.9891
G1 X230.6774 Y27.1896
G1 X231.0016 Y27.2411
G1 X231.3208 Y27.2916
G1 X231.9505 Y27.3902
G1 X232.2548 Y27.4375
G1 X233.457 Y27.6221
G1 X234.0201 Y27.7077
G1 X235.1128 Y27.8724
G1 X237.1635 Y28.179
G1 X237.1634
G1 X237.1635
G1 X238.0609 Y28.3131
G3 X238.0617 Y28.3132 I-0.1478 J0.989
G1 X239.7443 Y28.566
G3 X239.7461 Y28.5663 I-0.1486 J0.9889
G1 X241.2179 Y28.7902
G3 X241.2197 Y28.7905 I-0.1504 J0.9886
G1 X241.8635 Y28.8896
G3 X241.8654 Y28.8899 I-0.1522 J0.9884
G1 X243.072 Y29.078
G3 X243.0726 Y29.0781 I-0.154 J0.9881
G3 X247.304 Y29.7684 I-50.5732 J323.3036
G3 X247.3055 Y29.7687 I-0.1675 J0.9859
G1 X248.3588 Y29.9493
G3 X248.3619 Y29.9499 I-0.169 J0.9856
G1 X249.1513 Y30.0878
G3 X249.1532 Y30.0881 I-0.1721 J0.9851
G1 X249.4492 Y30.1404
G3 X249.4515 Y30.1408 I-0.174 J0.9847
G1 X250.4869 Y30.3263
G3 X250.4906 Y30.327 I-0.1763 J0.9843
G1 X251.5253 Y30.5163
G3 X251.5277 Y30.5168 I-0.18 J0.9837
G1 X251.8282 Y30.5726
G3 X251.8308 Y30.573 I-0.1825 J0.9832
G1 X253.0227 Y30.7974
G3 X253.0264 Y30.7981 I-0.185 J0.9827
G1 X254.1803 Y31.0198
G3 X254.1826 Y31.0203 I-0.1887 J0.982
G1 X254.7413 Y31.129
G3 X254.7433 Y31.1294 I-0.191 J0.9816
G1 X255.8428 Y31.3456
G3 X255.8441 Y31.3459 I-0.193 J0.9812
G1 X255.9106 Y31.3591
G1 X255.9108
G1 X255.9772 Y31.3723
G3 X255.9779 Y31.3724 I-0.1944 J0.9809
G3 X260.2229 Y32.2299 I-143.3731 J720.686
G3 X260.2235 Y32.2301 I-0.2009 J0.9796
G1 X262.0768 Y32.6112
G3 X262.0782 Y32.6115 I-0.2015 J0.9795
G1 X265.5522 Y33.3312
G3 X265.5526 I-0.2028 J0.9792
G1 X269.8156 Y34.2163
G1 X271.2842 Y34.5213 Z-2.0
G1 X271.631 Y34.5933
G1 X273.2428 Y34.9261
G1 X274.7119 Y35.2294 Z-4.0
G1 X276.1902 Y35.5347
G1 X277.0449 Y35.7103
G1 X277.4454 Y35.7925
G1 X280.5522 Y36.4282
G2 X282.8813 Y36.9021 I287.4108 J-1406.6309
G1 X286.3778 Y37.6091
G1 X289.8754 Y38.3112
G3 X290.6786 Y39.2917 I-0.1968 J0.9804
G1 Y98.2917
G3 X289.8752 Y99.2722 I-1.0 J0.0
G1 X287.4781 Y99.7528
G2 X278.4976 Y101.5751 I413.7303 J2061.9459
G1 X277.507 Y101.7786
G1 X276.0377 Y102.0805 Z-2.0
G1 X275.1305 Y102.2669
G1 X274.0789 Y102.4841
G1 X272.6099 Y102.7876 Z-4.0
G1 X272.1853 Y102.8753
G1 X269.6084 Y103.4096
G1 X265.0984 Y104.3464
G3 X265.098 Y104.3465 I-0.2034 J-0.9791
G1 X263.4065 Y104.6972
G3 X263.4059 Y104.6973 I-0.203 J-0.9792
G1 X261.9257 Y105.0033
G3 X261.9243 Y105.0036 I-0.2024 J-0.9793
G1 X259.3331 Y105.5353
G3 X259.3306 Y105.5358 I-0.201 J-0.9796
G1 X257.3863 Y105.9296
G3 X257.3836 Y105.9302 I-0.1985 J-0.9801
G1 X255.9245 Y106.2215
G3 X255.9225 Y106.2219 I-0.1958 J-0.9806
G1 X255.3751 Y106.33
G3 X255.374 Y106.3303 I-0.1938 J-0.981
G1 X254.8949 Y106.4243
G3 X254.8933 Y106.4247 I-0.1927 J-0.9813
G1 X254.0546 Y106.5879
G3 X251.5264 Y107.0668 I-49.0672 J-252.1107
G3 X251.5247 Y107.0671 I-0.1812 J-0.9834
G1 X250.1756 Y107.3132
G3 X250.1726 Y107.3138 I-0.1795 J-0.9838
G1 X249.8562 Y107.3705
G3 X249.8535 Y107.371 I-0.1765 J-0.9843
G1 X248.6071 Y107.5909
G3 X248.605 Y107.5913 I-0.1737 J-0.9848
G3 X247.4318 Y107.7932 I-51.844 J-297.6849
G3 X247.43 Y107.7935 I-0.1677 J-0.9858
G1 X246.3331 Y107.9781
G3 X246.3299 Y107.9786 I-0.166 J-0.9861
G1 X245.3009 Y108.1483
G3 X245.2987 Y108.1486 I-0.1627 J-0.9867
G1 X244.8162 Y108.2271
G3 X244.8143 Y108.2274 I-0.1605 J-0.987
G1 X243.8792 Y108.3776
G3 X243.8777 Y108.3778 I-0.1586 J-0.9874
G1 X243.6585 Y108.4127
G3 X243.6579 I-0.1571 J-0.9876
G1 X243.4421 Y108.4469
G3 X243.4408 Y108.4471 I-0.1565 J-0.9877
G1 X242.591 Y108.5807
G3 X242.5891 Y108.581 I-0.1552 J-0.9879
G1 X241.7921 Y108.7048
G3 X241.7906 Y108.705 I-0.1534 J-0.9882
G1 X241.0555 Y108.818
G3 X240.9855 Y108.8287 I-0.2891 J-1.6564
G1 X239.6013 Y109.0389
G3 X239.5994 Y109.0392 I-0.1502 J-0.9887
G1 X237.1552 Y109.4056
G3 X237.1546 I-0.1482 J-0.989
G1 X236.6963 Y109.4741
G3 X236.6959 I-0.1477 J-0.989
G2 X233.2635 Y109.9907 I159.5355 J1071.6111
G1 X231.5491 Y110.2559
G1 X230.694 Y110.3911
G1 X229.8388 Y110.5288
G1 X229.2144 Y110.6309
G1 X228.61 Y110.7312
G1 X227.4379 Y110.929
G1 X226.3395 Y111.1182
G1 X225.8252 Y111.2079
G1 X225.3274 Y111.2953
G1 X223.3943 Y111.6401
G1 X222.5497 Y111.7929
G1 X221.7575 Y111.9371
G1 X220.2715 Y112.2097
G1 X218.9712 Y112.4496
G1 X217.835 Y112.6597
G3 X217.3362 Y112.752 I-12.1836 J-64.4602
G3 X216.8687 Y112.8384 I-7.2787 J-38.0517
G3 X216.4306 Y112.9194 I-5.658 J-29.393
G3 X216.0199 Y112.9952 I-4.7651 J-24.6632
G3 X215.6348 Y113.0662 I-4.1733 J-21.5563
G3 X215.2737 Y113.1327 I-3.7409 J-19.3054
G3 X214.9352 Y113.1949 I-3.4049 J-17.5713
G3 X214.6178 Y113.2532 I-3.1331 J-16.1783
G3 X214.3202 Y113.3077 I-2.9064 J-15.0243
G3 X214.0361 Y113.3596 I-2.713 J-14.046
G3 X209.8518 Y114.1099 I-114.5516 J-626.7953
G3 X209.8511 Y114.11 I-0.1732 J-0.9849
G1 F20.0 Z-5.0
G3 F150.0 X207.3506 Y114.5401 I-71.0213 J-405.4023
G3 X202.9718 Y115.2616 I-89.3721 J-528.7609
G3 X202.9708 Y115.2618 I-0.1585 J-0.9874
G1 X201.3304 Y115.5234
G3 X201.3283 Y115.5237 I-0.1575 J-0.9875
G1 X199.8925 Y115.7495
G3 X199.8901 Y115.7499 I-0.1554 J-0.9879
G1 X197.3766 Y116.1392
G3 X197.3745 Y116.1395 I-0.1531 J-0.9882
G1 X195.4888 Y116.4276
G3 X195.4872 Y116.4278 I-0.151 J-0.9885
G1 X192.6603 Y116.8551
G3 X192.303 Y116.9089 I-4.8627 J-31.0986
G3 X191.9942 Y116.9553 I-4.8363 J-31.1193
G3 X191.4512 Y117.0369 I-7.0558 J-45.1205
G3 X191.0456 Y117.0978 I-6.9893 J-45.1773
G3 X190.4353 Y117.1893 I-10.6068 J-68.6107
G3 X189.8254 Y117.2808 I-18.1937 J-119.215
G1 X186.9166 Y117.7159
G3 X186.9155 Y117.7161 I-0.1479 J-0.989
G1 X186.2788 Y117.8105
G3 X186.2778 Y117.8107 I-0.1468 J-0.9892
G1 X185.0441 Y117.9925
G3 X185.0433 Y117.9926 I-0.1458 J-0.9893
G1 X184.8991 Y118.0137
G3 X175.6882 Y119.2823 I-72.1963 J-490.1339
G3 X175.6865 Y119.2825 I-0.1271 J-0.9919
G1 X174.5358 Y119.428
G3 X174.5339 Y119.4282 I-0.1254 J-0.9921
G3 X166.453 Y120.3692 I-63.3831 J-509.17
G3 X166.4524 I-0.1078 J-0.9942
G1 X165.8806 Y120.4309
G3 X165.8791 Y120.431 I-0.1072 J-0.9942
G1 X164.7533 Y120.5507
G3 X164.7506 Y120.551 I-0.1057 J-0.9944
G1 X162.5686 Y120.7771
G3 X162.5666 Y120.7773 I-0.1031 J-0.9947
G1 X162.0551 Y120.8293
G3 X162.0542 Y120.8294 I-0.1011 J-0.9949
G3 X153.9847 Y121.6045 I-88.44 J-878.302
G3 X153.9838 Y121.6046 I-0.091 J-0.9958
G1 X152.4717 Y121.7416
G3 X152.4705 Y121.7417 I-0.0902 J-0.9959
G3 X141.1137 Y122.699 I-101.3313 J-1134.3179
G3 X141.1132 I-0.079 J-0.9969
G1 X140.4037 Y122.7549
G3 X140.4022 Y122.755 I-0.0785 J-0.9969
G1 X137.7412 Y122.9604
G3 X137.7396 Y122.9606 I-0.077 J-0.997
G1 X136.7416 Y123.036
G3 X136.741 I-0.0754 J-0.9972
G1 X136.7279 Y123.037
G1 X136.3043 Y123.0687 Z-4.1505
G3 X136.3039 Y123.0688 Z-4.1497 I-0.0747 J-0.9972
G1 X135.8945 Y123.0993 Z-3.3286
G3 X135.8936 Y123.0994 Z-3.3269 I-0.0743 J-0.9972
G1 X135.232 Y123.1481 Z-2.0
G1 X134.3585 Y123.2125
G3 X134.3577 I-0.0735 J-0.9973
G1 X134.0698 Y123.2335
G3 X134.0687 Y123.2336 I-0.0727 J-0.9974
G1 X133.2373 Y123.2932
G1 X131.9095 Y123.3885 Z-4.6623
G3 X131.9076 Y123.3886 Z-4.6662 I-0.0716 J-0.9974
G1 X131.7411 Y123.4002 Z-5.0
G1 X129.7482 Y123.5392
G3 X129.7465 Y123.5394 I-0.0696 J-0.9976
G1 X128.3938 Y123.6315
G3 X128.3919 Y123.6316 I-0.068 J-0.9977
G1 X125.7705 Y123.8053
G3 X125.7691 I-0.0661 J-0.9978
G1 X125.4619 Y123.8253
G3 X125.4606 Y123.8254 I-0.0647 J-0.9979
G1 X123.0218 Y123.9803
G3 X123.0202 Y123.9804 I-0.0634 J-0.998
G1 X121.8769 Y124.0511
G3 X121.8753 Y124.0512 I-0.0617 J-0.9981
G1 X119.66 Y124.1847
G3 X119.6585 Y124.1848 I-0.0601 J-0.9982
G1 X118.6199 Y124.2457
G3 X118.6192 Y124.2458 I-0.0586 J-0.9983
G3 X102.5019 Y125.0708 I-68.7333 J-1184.9504
G3 X102.5015 I-0.0443 J-0.999
G1 X100.4878 Y125.1593
G3 X100.4865 Y125.1594 I-0.0439 J-0.999
G1 X98.7245 Y125.2345
G3 X98.7229 Y125.2346 I-0.0426 J-0.9991
G1 X95.639 Y125.3612
G3 X95.6379 I-0.041 J-0.9992
G1 X95.0596 Y125.3843
G3 X95.0591 I-0.0399 J-0.9992
G1 X93.9748 Y125.427
G3 X93.9742 Y125.4271 I-0.0394 J-0.9992
G1 X93.0254 Y125.4638
G3 X93.0242 Y125.4639 I-0.0388 J-0.9992
G1 X89.7036 Y125.5887
G3 X89.7026 I-0.0375 J-0.9993
G1 X89.495 Y125.5963
G3 X89.4942 I-0.0366 J-0.9993
G1 X86.381 Y125.7077
G3 X86.3799 I-0.0357 J-0.9994
G1 X85.1824 Y125.7493
G3 X85.1818 I-0.0347 J-0.9994
G1 X84.003 Y125.7896
G3 X84.0024 I-0.0341 J-0.9994
G1 X82.842 Y125.8285
G3 X82.8414 I-0.0335 J-0.9994
G1 X81.6991 Y125.8661
G3 X81.6985 Y125.8662 I-0.0329 J-0.9995
G1 X80.574 Y125.9026
G3 X80.5736 I-0.0323 J-0.9995
G1 X80.0201 Y125.9202
G3 X80.0194 Y125.9203 I-0.0319 J-0.9995
G1 X77.8228 Y125.9888
G3 X77.8221 Y125.9889 I-0.0312 J-0.9995
G1 X77.2901 Y126.0051
G3 X77.2897 I-0.0305 J-0.9995
G1 X76.234 Y126.0369
G3 X76.2335 I-0.0301 J-0.9995
G1 X75.1942 Y126.0676
G3 X75.1938 Y126.0677 I-0.0296 J-0.9996
G1 X74.6823 Y126.0826
G3 X74.682 I-0.0292 J-0.9996
G1 X74.1745 Y126.0973
G3 X74.1734 I-0.0289 J-0.9996
G1 X70.1453 Y126.2094
G3 X68.254 Y126.2594 I-13.9306 J-491.0253
G1 X67.7973 Y126.2713
G3 X67.7965 I-0.0259 J-0.9997
G1 X64.1662 Y126.3622
G3 X64.1647 I-0.025 J-0.9997
G1 X60.7613 Y126.4425
G3 X60.7603 Y126.4426 I-0.0236 J-0.9997
G1 X59.1649 Y126.4787
G3 X59.1641 I-0.0227 J-0.9997
G1 X56.073 Y126.5462
G3 X56.0722 Y126.5463 I-0.0218 J-0.9998
G1 X54.6231 Y126.5768
G3 X54.6228 I-0.0211 J-0.9998
G1 X53.9209 Y126.5914
G3 X53.9206 I-0.0207 J-0.9998
G1 X53.231 Y126.6055
G3 X52.5478 Y126.6194 I-2.8133 J-121.6584
G1 X51.21 Y126.6462
G3 X51.2091 I-0.02 J-0.9998
G1 X46.0205 Y126.7454
G3 X46.0193 I-0.0191 J-0.9998
G1 X41.4791 Y126.8266
G3 X41.4786 I-0.0179 J-0.9998
G1 X41.3544 Y126.8288
G3 X41.354 I-0.0173 J-0.9998
G1 X37.3968 Y126.8957
G3 X37.3961 I-0.0169 J-0.9999
G1 X33.9334 Y126.9517
G3 X33.9331 I-0.0162 J-0.9999
G1 X33.1756 Y126.9637
G3 X33.175 I-0.0158 J-0.9999
G1 X28.3356 Y127.0373
G1 X27.3048 Y127.053 Z-2.9381
G3 X27.304 Z-2.9365 I-0.0152 J-0.9999
G1 X26.8358 Y127.0598 Z-2.0
G1 X24.836 Y127.0886
G1 X23.3362 Y127.1102 Z-5.0
G1 X22.9013 Y127.1165
G3 X22.9009 I-0.0144 J-0.9999
G1 X22.0753 Y127.128
G1 X22.0752
G1 X21.3013 Y127.1388
G3 X21.3008 I-0.0139 J-0.9999
G1 X15.4965 Y127.2172
G3 X15.496 I-0.0135 J-0.9999
G1 X12.5937 Y127.2549
G3 X12.5934 I-0.013 J-0.9999
G1 X9.6912 Y127.2916
G3 X8.6786 Y126.2917 I-0.0127 J-0.9999
G1 Y11.2917
G3 X9.6913 Y10.2918 I1.0 J0.0
G1 X14.4837 Y10.3529
G3 X14.4842 I-0.0128 J0.9999
G1 X18.977 Y10.4126
G3 X18.9775 I-0.0133 J0.9999
G1 X19.4938 Y10.4197
G1 X20.9937 Y10.4403 Z-2.0
G1 X21.0835 Y10.4415
G3 X21.0839 I-0.0137 J0.9999
G1 X22.9935 Y10.4685
G1 X24.4933 Y10.4897 Z-5.0
G1 X25.1643 Y10.4991
G3 X25.1648 I-0.0141 J0.9999
G1 X28.9901 Y10.5554
G3 X28.9907 I-0.0147 J0.9999
G1 X32.5769 Y10.6103
G3 X32.5775 I-0.0153 J0.9999
G1 X35.9395 Y10.6638
G3 X35.94 I-0.0159 J0.9999
G1 X37.5159 Y10.6896
G3 X37.5163 I-0.0164 J0.9999
G1 X39.0429 Y10.7151
G3 X44.9604 Y10.8186 I-58.184 J3496.1466
G3 X44.9609 I-0.0183 J0.9998
G1 X50.137 Y10.916
G3 X50.1379 Y10.9161 I-0.0188 J0.9998
G1 X51.2702 Y10.9383
G3 X51.2707 I-0.0197 J0.9998
G1 X53.4645 Y10.9826
G3 X53.465 I-0.0202 J0.9998
G1 X54.4933 Y11.0038
G3 X54.4941 I-0.0206 J0.9998
G1 X58.4765 Y11.0893
G3 X58.9182 Y11.0991 I-0.7265 J42.6634
G1 X60.6318 Y11.1378
G3 X60.6327 I-0.0226 J0.9997
G1 X63.8502 Y11.2135
G3 X63.8511 I-0.0235 J0.9997
G1 X65.2395 Y11.2475
G3 X65.3416 Y11.2495 I0.0147 J1.8654
G3 X65.4434 Y11.2525 I-0.0051 J1.8638
G1 X68.043 Y11.3184
G3 X68.0433 I-0.0253 J0.9997
G3 X86.3803 Y11.8756 I-49.9858 J1947.0791
G1 X86.3804
G1 X87.0579 Y11.8994
G3 X87.0584 Y11.8995 I-0.0351 J0.9994
G1 X88.3923 Y11.947
G3 X88.393 Y11.9471 I-0.0356 J0.9994
G1 X89.6852 Y11.994
G3 X89.6862 I-0.0363 J0.9993
G1 X92.1759 Y12.087
G3 X92.2638 Y12.09 I-0.0283 J2.0923
G3 X92.3515 Y12.0937 I-0.043 J2.0913
G1 X94.6754 Y12.1838
G3 X94.6764 Y12.1839 I-0.0388 J0.9992
G1 X95.7723 Y12.2275
G3 X95.7733 I-0.0398 J0.9992
G1 X97.8962 Y12.3142
G3 X97.8976 Y12.3143 I-0.0408 J0.9992
G1 X99.8877 Y12.3982
G3 X99.8887 I-0.0421 J0.9991
G1 X100.8216 Y12.4385
G3 X100.8221 I-0.0431 J0.9991
G1 X101.274 Y12.4582
G3 X101.2743 Y12.4583 I-0.0436 J0.999
G1 X101.7191 Y12.4778
G3 X101.7199 I-0.0439 J0.999
G1 X103.4557 Y12.5555
G3 X103.5747 Y12.5605 I-0.0416 J2.4058
G3 X103.677 Y12.5652 I-0.0582 J2.4043
G3 X103.779 Y12.5699 I-0.0586 J2.4032
G3 X103.8964 Y12.5756 I-0.0589 J2.4021
G1 X105.4972 Y12.6498
G3 X105.499 I-0.0463 J0.9989
G1 X108.529 Y12.7957
G3 X108.5308 Y12.7958 I-0.0481 J0.9988
G1 X109.8563 Y12.8619
G3 X109.8574 Y12.862 I-0.0498 J0.9988
G1 X111.1 Y12.9253
G3 X111.101 Y12.9254 I-0.0509 J0.9987
G1 X112.2659 Y12.986
G3 X112.2674 I-0.0519 J0.9987
G1 X114.4513 Y13.1028
G3 X114.4521 Y13.1029 I-0.0534 J0.9986
G3 X122.1014 Y13.546 I-56.8491 J1047.4828
G3 X122.1022 Y13.5461 I-0.0615 J0.9981
G1 X124.0122 Y13.6653
G3 X124.0145 Y13.6654 I-0.0623 J0.9981
G1 X126.879 Y13.8507
G3 X126.8811 Y13.8508 I-0.0645 J0.9979
G1 X128.3081 Y13.9461
G3 X128.4938 Y13.9585 I-0.5072 J8.9344
G3 X128.649 Y13.969 I-0.5333 J9.0367
G3 X128.9258 Y13.9878 I-0.7471 J13.0549
G3 X129.1309 Y14.0018 I-0.8266 J13.6373
G3 X129.7501 Y14.0442 I-3.0994 J49.7882
G3 X133.6185 Y14.3167 I-75.2763 J1096.2067
G3 X135.1145 Y14.4258 Z-2.0 I-79.1447 J1095.9342
G3 X137.109 Y14.5744 I-80.6407 J1095.8251
G3 X138.6047 Y14.6882 Z-5.0 I-82.6352 J1095.6765
G3 X148.1117 Y15.4598 I-84.1309 J1095.5627
G3 X148.1127 Y15.4599 I-0.0852 J0.9964
G1 X150.4033 Y15.6582
G3 X151.4113 Y15.7471 I-10.8128 J128.3505
G1 X153.2896 Y15.9155
G3 X153.2909 Y15.9157 I-0.0893 J0.996
G1 X154.1132 Y15.9905
G3 X154.1144 Y15.9907 I-0.0907 J0.9959
G1 X155.6557 Y16.133
G3 X155.657 Y16.1331 I-0.092 J0.9958
G1 X156.3312 Y16.1962
G3 X156.3323 Y16.1963 I-0.0932 J0.9957
G1 X157.5965 Y16.316
G3 X157.5975 Y16.3161 I-0.0943 J0.9955
G1 X158.1505 Y16.3691
G3 X158.1515 Y16.3692 I-0.0953 J0.9954
G1 X159.1883 Y16.4695
G3 X159.1895 Y16.4696 I-0.0963 J0.9954
G1 X160.0966 Y16.5585
G3 X160.0977 Y16.5586 I-0.0975 J0.9952
G1 X160.8913 Y16.6372
G3 X160.8923 Y16.6373 I-0.0986 J0.9951
G1 X161.5867 Y16.7068
G3 X161.5876 Y16.7069 I-0.0996 J0.995
G1 X162.1951 Y16.7682
G3 X162.1971 Y16.7684 I-0.1005 J0.9949
G1 X164.3228 Y16.9874
G3 X164.3262 Y16.9877 I-0.1025 J0.9947
G1 X166.4445 Y17.2133
G3 X166.6369 Y17.234 I-0.6352 J6.7867
G3 X166.8241 Y17.2545 I-0.7139 J7.3964
G3 X169.7026 Y17.5763 I-41.5807 J384.9442
G1 X170.0171 Y17.6125
G3 X170.0187 Y17.6127 I-0.1142 J0.9935
G1 X171.2577 Y17.7571
G3 X171.2592 Y17.7573 I-0.1158 J0.9933
G3 X180.5583 Y18.9499 I-55.2461 J467.6063
G3 X180.5597 Y18.9501 I-0.1371 J0.9906
G1 X181.7179 Y19.1121
G3 X181.7209 Y19.1125 I-0.1385 J0.9904
G1 X183.7468 Y19.4019
G3 X183.7497 Y19.4023 I-0.1414 J0.9899
G1 X185.2685 Y19.6238
G3 X185.2707 Y19.6241 I-0.1443 J0.9895
G1 X187.5482 Y19.9615
G3 X187.5497 Y19.9618 I-0.1466 J0.9892
G1 X189.8267 Y20.3027
G3 X189.827 Y20.3028 I-0.1481 J0.989
G1 X192.3302 Y20.6785
G3 X192.3308 Y20.6787 I-0.1485 J0.9889
G1 X194.5209 Y21.009
G3 X194.522 Y21.0092 I-0.1491 J0.9888
G1 X196.438 Y21.3004
G3 X196.4394 Y21.3006 I-0.1503 J0.9886
G1 X198.1154 Y21.5579
G3 X198.117 Y21.5581 I-0.1517 J0.9884
G1 X199.5832 Y21.7855
G3 X199.5848 Y21.7858 I-0.1533 J0.9882
G1 X200.8674 Y21.9868
G3 X200.8698 Y21.9872 I-0.1549 J0.9879
G1 X203.1136 Y22.3445
G3 X203.1159 Y22.3449 I-0.1573 J0.9876
G1 X203.957 Y22.481
G3 X203.9584 Y22.4812 I-0.1597 J0.9872
G1 X204.6942 Y22.6012
G3 X204.6954 Y22.6014 I-0.161 J0.987
G1 X205.3391 Y22.7072
G3 X205.3402 Y22.7074 I-0.1622 J0.9868
G1 X205.9033 Y22.8006
G3 X205.9048 Y22.8009 I-0.1633 J0.9866
G1 X206.89 Y22.9655
G3 X206.8925 Y22.966 I-0.1648 J0.9863
G1 X208.3697 Y23.2168
G3 X208.373 Y23.2173 I-0.1674 J0.9859
G1 X209.8492 Y23.473
G3 X209.8524 Y23.4736 I-0.1707 J0.9853
G1 X211.103 Y23.6943
G3 X211.1049 Y23.6946 I-0.1738 J0.9848
G1 X211.6909 Y23.7992
G3 X211.6913 Y23.7993 I-0.1757 J0.9844
G3 X216.236 Y24.6281 I-120.4817 J673.5496
G1 X217.9367 Y24.9425
G3 X217.9401 Y24.9431 I-0.1818 J0.9833
G2 X218.3057 Y25.0107 I10.4123 J-55.2646
G3 X218.3139 Y25.0122 I-0.1786 J0.9839
G2 X218.6645 Y25.0771 I6.6153 J-34.7901
G3 X218.6755 Y25.0791 I-0.1769 J0.9842
G2 X219.0125 Y25.1414 I5.1968 J-27.1709
G3 X219.0178 Y25.1424 I-0.1757 J0.9844
G1 X221.7248 Y25.6402
G3 X221.7338 Y25.642 I-0.1809 J0.9835
G2 X221.9669 Y25.6845 I2.1271 J-10.9949
G3 X221.9876 Y25.6883 I-0.1691 J0.9856
G2 X222.2124 Y25.7292 I2.0224 J-10.4632
G3 X222.2333 Y25.733 I-0.1687 J0.9857
G2 X222.4503 Y25.7725 I1.9277 J-9.984
G3 X222.4714 Y25.7763 I-0.1682 J0.9857
G2 X222.6807 Y25.8143 I1.8414 J-9.5489
G3 X222.702 Y25.8182 I-0.1678 J0.9858
G2 X222.904 Y25.8548 I1.7623 J-9.1512
G3 X222.9254 Y25.8586 I-0.1674 J0.9859
G2 X223.1203 Y25.8939 I1.6894 J-8.7858
G3 X223.1418 Y25.8978 I-0.167 J0.986
G2 X223.3298 Y25.9317 I1.6218 J-8.4481
G3 X223.3514 Y25.9356 I-0.1667 J0.986
G2 X223.5328 Y25.9683 I1.559 J-8.135
G3 X223.5544 Y25.9722 I-0.1663 J0.9861
G2 X223.7295 Y26.0036 I1.5003 J-7.8431
G3 X223.7511 Y26.0075 I-0.166 J0.9861
G2 X223.92 Y26.0378 I1.4454 J-7.5703
G3 X223.9416 Y26.0417 I-0.1656 J0.9862
G2 X224.1046 Y26.0709 I1.3938 J-7.3143
G3 X224.1262 Y26.0747 I-0.1653 J0.9862
G2 X224.2835 Y26.1028 I1.3452 J-7.0735
G3 X224.3049 Y26.1067 I-0.165 J0.9863
G2 X224.4567 Y26.1338 I1.2993 J-6.8462
G3 X224.4781 Y26.1376 I-0.1647 J0.9863
G2 X224.6246 Y26.1636 I1.2559 J-6.6314
G3 X224.6459 Y26.1674 I-0.1644 J0.9864
G2 X224.7872 Y26.1925 I1.2147 J-6.4278
G3 X224.8084 Y26.1963 I-0.1641 J0.9864
G2 X224.9448 Y26.2205 I1.1756 J-6.2342
G3 X224.9659 Y26.2242 I-0.1638 J0.9865
G2 X225.0974 Y26.2475 I1.1383 J-6.0499
G3 X225.1103 Y26.2497 I-0.1635 J0.9865
G2 X226.288 Y26.4562 I27.9684 J-156.0316
G3 X226.304 Y26.4591 I-0.169 J0.9856
G2 X226.4984 Y26.4928 I1.2895 J-6.8524
G3 X226.5254 Y26.4975 I-0.1571 J0.9876
G2 X226.7066 Y26.5288 I1.2216 J-6.5225
G3 X226.7177 Y26.5307 I-0.1568 J0.9876
G1 X228.2815 Y26.7972
G3 X228.2931 Y26.7992 I-0.168 J0.9858
G2 X228.4601 Y26.8272 I1.0495 J-5.7474
G3 X228.4719 Y26.8291 I-0.151 J0.9885
G1 X229.8413 Y27.055
G3 X229.8512 Y27.0567 I-0.1628 J0.9867
G2 X229.9953 Y27.0801 I0.9882 J-5.6371
G3 X230.0064 Y27.0818 I-0.1475 J0.9891
G1 X230.6774 Y27.1896
G1 X231.0016 Y27.2411
G1 X231.3208 Y27.2916
G1 X231.9505 Y27.3902
G1 X232.2548 Y27.4375
G1 X233.457 Y27.6221
G1 X234.0201 Y27.7077
G1 X235.1128 Y27.8724
G1 X237.1635 Y28.179
G1 X237.1634
G1 X237.1635
G1 X238.0609 Y28.3131
G3 X238.0617 Y28.3132 I-0.1478 J0.989
G1 X239.7443 Y28.566
G3 X239.7461 Y28.5663 I-0.1486 J0.9889
G1 X241.2179 Y28.7902
G3 X241.2197 Y28.7905 I-0.1504 J0.9886
G1 X241.8635 Y28.8896
G3 X241.8654 Y28.8899 I-0.1522 J0.9884
G1 X243.072 Y29.078
G3 X243.0726 Y29.0781 I-0.154 J0.9881
G3 X247.304 Y29.7684 I-50.5732 J323.3036
G3 X247.3055 Y29.7687 I-0.1675 J0.9859
G1 X248.3588 Y29.9493
G3 X248.3619 Y29.9499 I-0.169 J0.9856
G1 X249.1513 Y30.0878
G3 X249.1532 Y30.0881 I-0.1721 J0.9851
G1 X249.4492 Y30.1404
G3 X249.4515 Y30.1408 I-0.174 J0.9847
G1 X250.4869 Y30.3263
G3 X250.4906 Y30.327 I-0.1763 J0.9843
G1 X251.5253 Y30.5163
G3 X251.5277 Y30.5168 I-0.18 J0.9837
G1 X251.8282 Y30.5726
G3 X251.8308 Y30.573 I-0.1825 J0.9832
G1 X253.0227 Y30.7974
G3 X253.0264 Y30.7981 I-0.185 J0.9827
G1 X254.1803 Y31.0198
G3 X254.1826 Y31.0203 I-0.1887 J0.982
G1 X254.7413 Y31.129
G3 X254.7433 Y31.1294 I-0.191 J0.9816
G1 X255.8428 Y31.3456
G3 X255.8441 Y31.3459 I-0.193 J0.9812
G1 X255.9106 Y31.3591
G1 X255.9108
G1 X255.9772 Y31.3723
G3 X255.9779 Y31.3724 I-0.1944 J0.9809
G3 X260.2229 Y32.2299 I-143.3731 J720.686
G3 X260.2235 Y32.2301 I-0.2009 J0.9796
G1 X262.0768 Y32.6112
G3 X262.0782 Y32.6115 I-0.2015 J0.9795
G1 X265.5522 Y33.3312
G3 X265.5526 I-0.2028 J0.9792
G1 X269.8156 Y34.2163
G1 X271.2842 Y34.5213 Z-2.0
G1 X271.631 Y34.5933
G1 X273.2428 Y34.9261
G1 X274.7119 Y35.2294 Z-5.0
G1 X276.1902 Y35.5347
G1 X277.0449 Y35.7103
G1 X277.4454 Y35.7925
G1 X280.5522 Y36.4282
G2 X282.8813 Y36.9021 I287.4108 J-1406.6309
G1 X286.3778 Y37.6091
G1 X289.8754 Y38.3112
G3 X290.6786 Y39.2917 I-0.1968 J0.9804
G1 Y98.2917
G3 X289.8752 Y99.2722 I-1.0 J0.0
G1 X287.4781 Y99.7528
G2 X278.4976 Y101.5751 I413.7303 J2061.9459
G1 X277.507 Y101.7786
G1 X276.0377 Y102.0805 Z-2.0
G1 X275.1305 Y102.2669
G1 X274.0789 Y102.4841
G1 X272.6099 Y102.7876 Z-5.0
G1 X272.1853 Y102.8753
G1 X269.6084 Y103.4096
G1 X265.0984 Y104.3464
G3 X265.098 Y104.3465 I-0.2034 J-0.9791
G1 X263.4065 Y104.6972
G3 X263.4059 Y104.6973 I-0.203 J-0.9792
G1 X261.9257 Y105.0033
G3 X261.9243 Y105.0036 I-0.2024 J-0.9793
G1 X259.3331 Y105.5353
G3 X259.3306 Y105.5358 I-0.201 J-0.9796
G1 X257.3863 Y105.9296
G3 X257.3836 Y105.9302 I-0.1985 J-0.9801
G1 X255.9245 Y106.2215
G3 X255.9225 Y106.2219 I-0.1958 J-0.9806
G1 X255.3751 Y106.33
G3 X255.374 Y106.3303 I-0.1938 J-0.981
G1 X254.8949 Y106.4243
G3 X254.8933 Y106.4247 I-0.1927 J-0.9813
G1 X254.0546 Y106.5879
G3 X251.5264 Y107.0668 I-49.0672 J-252.1107
G3 X251.5247 Y107.0671 I-0.1812 J-0.9834
G1 X250.1756 Y107.3132
G3 X250.1726 Y107.3138 I-0.1795 J-0.9838
G1 X249.8562 Y107.3705
G3 X249.8535 Y107.371 I-0.1765 J-0.9843
G1 X248.6071 Y107.5909
G3 X248.605 Y107.5913 I-0.1737 J-0.9848
G3 X247.4318 Y107.7932 I-51.844 J-297.6849
G3 X247.43 Y107.7935 I-0.1677 J-0.9858
G1 X246.3331 Y107.9781
G3 X246.3299 Y107.9786 I-0.166 J-0.9861
G1 X245.3009 Y108.1483
G3 X245.2987 Y108.1486 I-0.1627 J-0.9867
G1 X244.8162 Y108.2271
G3 X244.8143 Y108.2274 I-0.1605 J-0.987
G1 X243.8792 Y108.3776
G3 X243.8777 Y108.3778 I-0.1586 J-0.9874
G1 X243.6585 Y108.4127
G3 X243.6579 I-0.1571 J-0.9876
G1 X243.4421 Y108.4469
G3 X243.4408 Y108.4471 I-0.1565 J-0.9877
G1 X242.591 Y108.5807
G3 X242.5891 Y108.581 I-0.1552 J-0.9879
G1 X241.7921 Y108.7048
G3 X241.7906 Y108.705 I-0.1534 J-0.9882
G1 X241.0555 Y108.818
G3 X240.9855 Y108.8287 I-0.2891 J-1.6564
G1 X239.6013 Y109.0389
G3 X239.5994 Y109.0392 I-0.1502 J-0.9887
G1 X237.1552 Y109.4056
G3 X237.1546 I-0.1482 J-0.989
G1 X236.6963 Y109.4741
G3 X236.6959 I-0.1477 J-0.989
G2 X233.2635 Y109.9907 I159.5355 J1071.6111
G1 X231.5491 Y110.2559
G1 X230.694 Y110.3911
G1 X229.8388 Y110.5288
G1 X229.2144 Y110.6309
G1 X228.61 Y110.7312
G1 X227.4379 Y110.929
G1 X226.3395 Y111.1182
G1 X225.8252 Y111.2079
G1 X225.3274 Y111.2953
G1 X223.3943 Y111.6401
G1 X222.5497 Y111.7929
G1 X221.7575 Y111.9371
G1 X220.2715 Y112.2097
G1 X218.9712 Y112.4496
G1 X217.835 Y112.6597
G3 X217.3362 Y112.752 I-12.1836 J-64.4602
G3 X216.8687 Y112.8384 I-7.2787 J-38.0517
G3 X216.4306 Y112.9194 I-5.658 J-29.393
G3 X216.0199 Y112.9952 I-4.7651 J-24.6632
G3 X215.6348 Y113.0662 I-4.1733 J-21.5563
G3 X215.2737 Y113.1327 I-3.7409 J-19.3054
G3 X214.9352 Y113.1949 I-3.4049 J-17.5713
G3 X214.6178 Y113.2532 I-3.1331 J-16.1783
G3 X214.3202 Y113.3077 I-2.9064 J-15.0243
G3 X214.0361 Y113.3596 I-2.713 J-14.046
G3 X209.8518 Y114.1099 I-114.5516 J-626.7953
G3 X209.8511 Y114.11 I-0.1732 J-0.9849
G0 F200
G0 Z3.0
M5
M30
