( Made using CamBam - http://www.cambam.co.uk )
( PlatineRadioV2 1/6/2025 12:29:37 AM )
( Post-pro: GRBL )
( T0 : 2.0 )
G21 G90 G40
G0 Z3.0
( T0 : 2.0 )
T0 M6
( Contour1 )
G17
M3 S1000
G0 X104.94 Y22.0
G0 Z1.0
G1 F500.0 Z-1.0
G1 F1000.0 X86.5
G1 Y61.5
G1 X104.94
G1 Y22.0
G1 F500.0 Z-2.0
G1 F1000.0 X86.5
G1 Y61.5
G1 X104.94
G1 Y22.0
G1 F500.0 Z-3.0
G1 F1000.0 X86.5
G1 Y39.01
G1 Y40.51 Z-2.0
G1 Y42.51
G1 Y44.01 Z-3.0
G1 Y61.5
G1 X104.94
G1 Y44.15
G1 Y42.65 Z-2.0
G1 Y40.65
G1 Y39.15 Z-3.0
G1 Y22.0
G1 F500.0 Z-4.0
G1 F1000.0 X86.5
G1 Y39.01
G1 Y40.51 Z-2.0
G1 Y42.51
G1 Y44.01 Z-4.0
G1 Y61.5
G1 X104.94
G1 Y44.15
G1 Y42.65 Z-2.0
G1 Y40.65
G1 Y39.15 Z-4.0
G1 Y22.0
G1 F500.0 Z-5.0
G1 F1000.0 X86.5
G1 Y39.01
G1 Y40.51 Z-2.0
G1 Y42.51
G1 Y44.01 Z-5.0
G1 Y61.5
G1 X104.94
G1 Y44.15
G1 Y42.65 Z-2.0
G1 Y40.65
G1 Y39.15 Z-5.0
G1 Y22.0
( Contour2 )
S1000
G0 Z3.0
G0 X65.0
G0 Z1.0
G1 F500.0 Z-1.0
G1 F1000.0 X26.0
G1 Y61.5
G1 X65.0
G1 Y22.0
G1 F500.0 Z-2.0
G1 F1000.0 X26.0
G1 Y61.5
G1 X65.0
G1 Y22.0
G1 F500.0 Z-3.0
G1 F1000.0 X47.15
G1 X45.65 Z-2.0
G1 X43.65
G1 X42.15 Z-3.0
G1 X26.0
G1 Y39.01
G1 Y40.51 Z-2.0
G1 Y42.51
G1 Y44.01 Z-3.0
G1 Y61.5
G1 X42.15
G1 X43.65 Z-2.0
G1 X45.65
G1 X47.15 Z-3.0
G1 X65.0
G1 Y44.01
G1 Y42.51 Z-2.0
G1 Y40.51
G1 Y39.01 Z-3.0
G1 Y22.0
G1 F500.0 Z-4.0
G1 F1000.0 X47.15
G1 X45.65 Z-2.0
G1 X43.65
G1 X42.15 Z-4.0
G1 X26.0
G1 Y39.01
G1 Y40.51 Z-2.0
G1 Y42.51
G1 Y44.01 Z-4.0
G1 Y61.5
G1 X42.15
G1 X43.65 Z-2.0
G1 X45.65
G1 X47.15 Z-4.0
G1 X65.0
G1 Y44.01
G1 Y42.51 Z-2.0
G1 Y40.51
G1 Y39.01 Z-4.0
G1 Y22.0
G1 F500.0 Z-5.0
G1 F1000.0 X47.15
G1 X45.65 Z-2.0
G1 X43.65
G1 X42.15 Z-5.0
G1 X26.0
G1 Y39.01
G1 Y40.51 Z-2.0
G1 Y42.51
G1 Y44.01 Z-5.0
G1 Y61.5
G1 X42.15
G1 X43.65 Z-2.0
G1 X45.65
G1 X47.15 Z-5.0
G1 X65.0
G1 Y44.01
G1 Y42.51 Z-2.0
G1 Y40.51
G1 Y39.01 Z-5.0
G1 Y22.0
( Contour3 )
S1000
G0 Z3.0
G0 X34.0 Y87.54
G0 Z1.0
G1 F500.0 Z-1.0
G1 F1000.0 X26.0
G1 Y110.54
G1 X34.0
G1 Y87.54
G1 F500.0 Z-2.0
G1 F1000.0 X26.0
G1 Y110.54
G1 X34.0
G1 Y87.54
G1 F500.0 Z-3.0
G1 F1000.0 X26.0
G1 Y97.01
G1 Y98.51 Z-2.0
G1 Y100.51
G1 Y102.01 Z-3.0
G1 Y110.54
G1 X34.0
G1 Y102.01
G1 Y100.51 Z-2.0
G1 Y98.51
G1 Y97.01 Z-3.0
G1 Y87.54
G1 F500.0 Z-4.0
G1 F1000.0 X26.0
G1 Y97.01
G1 Y98.51 Z-2.0
G1 Y100.51
G1 Y102.01 Z-4.0
G1 Y110.54
G1 X34.0
G1 Y102.01
G1 Y100.51 Z-2.0
G1 Y98.51
G1 Y97.01 Z-4.0
G1 Y87.54
G1 F500.0 Z-5.0
G1 F1000.0 X26.0
G1 Y97.01
G1 Y98.51 Z-2.0
G1 Y100.51
G1 Y102.01 Z-5.0
G1 Y110.54
G1 X34.0
G1 Y102.01
G1 Y100.51 Z-2.0
G1 Y98.51
G1 Y97.01 Z-5.0
G1 Y87.54
( Contour4 )
S1000
G0 Z3.0
G0 X105.0
G0 Z1.0
G1 F500.0 Z-1.0
G1 F1000.0 X97.0
G1 Y110.54
G1 X105.0
G1 Y87.54
G1 F500.0 Z-2.0
G1 F1000.0 X97.0
G1 Y110.54
G1 X105.0
G1 Y87.54
G1 F500.0 Z-3.0
G1 F1000.0 X97.0
G1 Y97.01
G1 Y98.51 Z-2.0
G1 Y100.51
G1 Y102.01 Z-3.0
G1 Y110.54
G1 X105.0
G1 Y102.01
G1 Y100.51 Z-2.0
G1 Y98.51
G1 Y97.01 Z-3.0
G1 Y87.54
G1 F500.0 Z-4.0
G1 F1000.0 X97.0
G1 Y97.01
G1 Y98.51 Z-2.0
G1 Y100.51
G1 Y102.01 Z-4.0
G1 Y110.54
G1 X105.0
G1 Y102.01
G1 Y100.51 Z-2.0
G1 Y98.51
G1 Y97.01 Z-4.0
G1 Y87.54
G1 F500.0 Z-5.0
G1 F1000.0 X97.0
G1 Y97.01
G1 Y98.51 Z-2.0
G1 Y100.51
G1 Y102.01 Z-5.0
G1 Y110.54
G1 X105.0
G1 Y102.01
G1 Y100.51 Z-2.0
G1 Y98.51
G1 Y97.01 Z-5.0
G1 Y87.54
( Contour5 )
S1000
G0 Z3.0
G0 X49.0 Y134.27
G0 Z1.0
G1 F500.0 Z-1.0
G1 F1000.0 X40.5
G1 Y153.27
G1 X90.5
G1 Y134.27
G1 X49.0
G1 F500.0 Z-2.0
G1 F1000.0 X40.5
G1 Y153.27
G1 X90.5
G1 Y134.27
G1 X49.0
G1 F500.0 Z-3.0
G1 F1000.0 X40.5
G1 Y153.27
G1 X45.15
G1 X46.65 Z-2.0
G1 X48.65
G1 X50.15 Z-3.0
G1 X79.15
G1 X80.65 Z-2.0
G1 X82.65
G1 X84.15 Z-3.0
G1 X90.5
G1 Y134.27
G1 X67.15
G1 X65.65 Z-2.0
G1 X63.65
G1 X62.15 Z-3.0
G1 X49.0
G1 F500.0 Z-4.0
G1 F1000.0 X40.5
G1 Y153.27
G1 X45.15
G1 X46.65 Z-2.0
G1 X48.65
G1 X50.15 Z-4.0
G1 X79.15
G1 X80.65 Z-2.0
G1 X82.65
G1 X84.15 Z-4.0
G1 X90.5
G1 Y134.27
G1 X67.15
G1 X65.65 Z-2.0
G1 X63.65
G1 X62.15 Z-4.0
G1 X49.0
G1 F500.0 Z-5.0
G1 F1000.0 X40.5
G1 Y153.27
G1 X45.15
G1 X46.65 Z-2.0
G1 X48.65
G1 X50.15 Z-5.0
G1 X79.15
G1 X80.65 Z-2.0
G1 X82.65
G1 X84.15 Z-5.0
G1 X90.5
G1 Y134.27
G1 X67.15
G1 X65.65 Z-2.0
G1 X63.65
G1 X62.15 Z-5.0
G1 X49.0
( Contour6 )
S1000
G0 Z3.0
G0 X79.5 Y169.05
G0 Z1.0
G1 F500.0 Z-1.0
G1 F1000.0 X66.5
G1 Y177.05
G1 X79.5
G1 Y169.05
G1 F500.0 Z-2.0
G1 F1000.0 X66.5
G1 Y177.05
G1 X79.5
G1 Y169.05
G1 F500.0 Z-3.0
G1 F1000.0 X75.15
G1 X73.65 Z-2.0
G1 X71.65
G1 X70.15 Z-3.0
G1 X66.5
G1 Y177.05
G1 X70.15
G1 X71.65 Z-2.0
G1 X73.65
G1 X75.15 Z-3.0
G1 X79.5
G1 Y169.05
G1 F500.0 Z-4.0
G1 F1000.0 X75.15
G1 X73.65 Z-2.0
G1 X71.65
G1 X70.15 Z-4.0
G1 X66.5
G1 Y177.05
G1 X70.15
G1 X71.65 Z-2.0
G1 X73.65
G1 X75.15 Z-4.0
G1 X79.5
G1 Y169.05
G1 F500.0 Z-5.0
G1 F1000.0 X75.15
G1 X73.65 Z-2.0
G1 X71.65
G1 X70.15 Z-5.0
G1 X66.5
G1 Y177.05
G1 X70.15
G1 X71.65 Z-2.0
G1 X73.65
G1 X75.15 Z-5.0
G1 X79.5
G1 Y169.05
( Contour7 )
S1000
G0 Z3.0
G0 X88.55 Y196.0
G0 Z1.0
G1 F500.0 Z-1.0
G1 F1000.0 Y189.0
G1 X60.55
G1 Y280.0
G1 X88.55
G1 Y196.0
G1 F500.0 Z-2.0
G1 F1000.0 Y189.0
G1 X60.55
G1 Y280.0
G1 X88.55
G1 Y196.0
G1 F500.0 Z-3.0
G1 F1000.0 Y189.0
G1 X75.15
G1 X73.65 Z-2.0
G1 X71.65
G1 X70.15 Z-3.0
G1 X60.55
G1 Y206.01
G1 Y207.51 Z-2.0
G1 Y209.51
G1 Y211.01 Z-3.0
G1 Y258.0
G1 Y259.5 Z-2.0
G1 Y261.5
G1 Y263.0 Z-3.0
G1 Y280.0
G1 X73.15
G1 X74.65 Z-2.0
G1 X76.65
G1 X78.15 Z-3.0
G1 X88.55
G1 Y262.01
G1 Y260.51 Z-2.0
G1 Y258.51
G1 Y257.01 Z-3.0
G1 Y211.0
G1 Y209.5 Z-2.0
G1 Y207.5
G1 Y206.0 Z-3.0
G1 Y196.0
G1 F500.0 Z-4.0
G1 F1000.0 Y189.0
G1 X75.15
G1 X73.65 Z-2.0
G1 X71.65
G1 X70.15 Z-4.0
G1 X60.55
G1 Y206.01
G1 Y207.51 Z-2.0
G1 Y209.51
G1 Y211.01 Z-4.0
G1 Y258.0
G1 Y259.5 Z-2.0
G1 Y261.5
G1 Y263.0 Z-4.0
G1 Y280.0
G1 X73.15
G1 X74.65 Z-2.0
G1 X76.65
G1 X78.15 Z-4.0
G1 X88.55
G1 Y262.01
G1 Y260.51 Z-2.0
G1 Y258.51
G1 Y257.01 Z-4.0
G1 Y211.0
G1 Y209.5 Z-2.0
G1 Y207.5
G1 Y206.0 Z-4.0
G1 Y196.0
G1 F500.0 Z-5.0
G1 F1000.0 Y189.0
G1 X75.15
G1 X73.65 Z-2.0
G1 X71.65
G1 X70.15 Z-5.0
G1 X60.55
G1 Y206.01
G1 Y207.51 Z-2.0
G1 Y209.51
G1 Y211.01 Z-5.0
G1 Y258.0
G1 Y259.5 Z-2.0
G1 Y261.5
G1 Y263.0 Z-5.0
G1 Y280.0
G1 X73.15
G1 X74.65 Z-2.0
G1 X76.65
G1 X78.15 Z-5.0
G1 X88.55
G1 Y262.01
G1 Y260.51 Z-2.0
G1 Y258.51
G1 Y257.01 Z-5.0
G1 Y211.0
G1 Y209.5 Z-2.0
G1 Y207.5
G1 Y206.0 Z-5.0
G1 Y196.0
( Contour8 )
S1000
G0 Z3.0
G0 X24.3 Y173.99
G0 Z1.0
G1 F500.0 Z-1.0
G1 F1000.0 X30.78 Y212.95
G1 X48.97 Y209.93
G1 X42.49 Y170.96
G1 X24.3 Y173.99
G1 F500.0 Z-2.0
G1 F1000.0 X30.78 Y212.95
G1 X48.97 Y209.93
G1 X42.49 Y170.96
G1 X24.3 Y173.99
G1 F500.0 Z-3.0
G1 F1000.0 X27.11 Y190.9
G1 X27.36 Y192.38 Z-2.0
G1 X27.68 Y194.36
G1 X27.93 Y195.84 Z-3.0
G1 X30.78 Y212.95
G1 X48.97 Y209.93
G1 X46.2 Y193.29
G1 X46.17 Y193.12 Z-2.89
G1 X45.96 Y191.81 Z-2.0
G1 X45.93 Y191.64
G1 X45.63 Y189.83
G1 X45.6 Y189.67
G1 X45.38 Y188.35 Z-2.89
G1 X45.35 Y188.19 Z-3.0
G1 X42.49 Y170.96
G1 X24.3 Y173.99
G1 F500.0 Z-4.0
G1 F1000.0 X27.11 Y190.9
G1 X27.36 Y192.38 Z-2.0
G1 X27.68 Y194.36
G1 X27.93 Y195.84 Z-4.0
G1 X30.78 Y212.95
G1 X48.97 Y209.93
G1 X46.2 Y193.29
G1 X46.17 Y193.12 Z-3.78
G1 X45.96 Y191.81 Z-2.0
G1 X45.93 Y191.64
G1 X45.63 Y189.83
G1 X45.6 Y189.67
G1 X45.38 Y188.35 Z-3.78
G1 X45.35 Y188.19 Z-4.0
G1 X42.49 Y170.96
G1 X24.3 Y173.99
G1 F500.0 Z-5.0
G1 F1000.0 X27.11 Y190.9
G1 X27.36 Y192.38 Z-2.0
G1 X27.68 Y194.36
G1 X27.93 Y195.84 Z-5.0
G1 X30.78 Y212.95
G1 X48.97 Y209.93
G1 X46.2 Y193.29
G1 X46.17 Y193.12 Z-4.67
G1 X45.96 Y191.81 Z-2.0
G1 X45.93 Y191.64
G1 X45.63 Y189.83
G1 X45.6 Y189.67
G1 X45.38 Y188.35 Z-4.67
G1 X45.35 Y188.19 Z-5.0
G1 X42.49 Y170.96
G1 X24.3 Y173.99
( Contour9 )
S1000
G0 Z3.0
G0 X14.86 Y175.86
G0 Z1.0
G1 F500.0 Z-1.0
F1000.0
G3X13.92Y167.77I509.26J-63.39
G1 X13.86 Y167.2
G1 X13.74 Y166.07
G1 X13.51 Y163.89
G1 X13.46 Y163.38
G3X12.69Y155.31I879.49J-88.55
G1 X12.55 Y153.79
G1 X11.59 Y142.44
G1 Y142.43
G1 X11.54 Y141.73
G3Y141.72I1.0J-0.08
G1 X11.33 Y139.06
G1 X11.26 Y138.06
G1 X11.22 Y137.63
G1 X11.19 Y137.22
G1 X11.08 Y135.68
G1 X11.06 Y135.39
G1 X10.9 Y133.23
G1 X10.75 Y131.07
G1 X10.66 Y129.72
G3Y129.71I1.0J-0.07
G1 X10.49 Y127.09
G1 X10.47 Y126.78
G1 X10.31 Y124.34
G1 X10.24 Y123.2
G1 X10.11 Y120.98
G1 X10.05 Y119.94
G1 X9.22 Y103.82
G1 X9.13 Y101.81
G1 X9.06 Y100.05
G3Y100.04I1.0J-0.04
G1 X8.93 Y96.96
G1 X8.91 Y96.38
G1 X8.86 Y95.3
G1 X8.83 Y94.35
G1 X8.7 Y91.03
G1 Y91.02
G1 Y90.82
G1 X8.58 Y87.7
G1 X8.54 Y86.5
G1 X8.5 Y85.32
G1 X8.46 Y84.16
G1 X8.43 Y83.02
G1 X8.39 Y81.9
G1 Y81.89
G1 X8.37 Y81.34
G1 X8.3 Y79.14
G1 X8.29 Y78.61
G1 X8.25 Y77.56
G1 Y77.55
G1 X8.22 Y76.52
G1 X8.21 Y76.0
G1 X8.19 Y75.5
G3Y75.49I1.0J-0.03
G1 X8.08 Y71.47
G3X8.03Y69.58I490.99J-13.93
G1 X8.02 Y69.12
G1 X7.93 Y65.49
G1 X7.85 Y62.08
G1 X7.81 Y60.49
G1 X7.75 Y57.39
G1 X7.71 Y55.94
G1 X7.7 Y55.24
G1 X7.69 Y54.55
G3X7.67Y53.87I121.66J-2.81
G1 X7.65 Y52.53
G1 X7.55 Y47.34
G1 X7.47 Y42.8
G1 X7.46 Y42.68
G1 X7.4 Y38.72
G1 X7.34 Y35.25
G1 X7.33 Y34.5
G1 X7.24 Y28.63
G1 X7.18 Y24.22
G1 X7.16 Y23.4
G1 X7.15 Y22.62
G1 X7.07 Y16.82
G1 X7.04 Y13.92
G1 Y13.91
G1 X7.0 Y11.01
G3X8.0Y10.0I1.0J-0.01
G1 X123.0
G3X124.0Y11.01I0.0J1.0
G1 X123.94 Y15.81
G1 X123.88 Y20.3
G1 X123.85 Y22.4
G1 Y22.41
G1 X123.79 Y26.49
G1 X123.74 Y30.31
G1 X123.68 Y33.9
G1 X123.63 Y37.26
G1 X123.6 Y38.84
G1 X123.58 Y40.36
G1 X123.47 Y46.28
G1 X123.38 Y51.46
G1 X123.35 Y52.59
G1 X123.31 Y54.79
G1 X123.29 Y55.81
G1 Y55.82
G1 X123.2 Y59.8
G3X123.19Y60.24I-42.66J-0.73
G1 X123.15 Y61.95
G1 X123.08 Y65.17
G1 X123.04 Y66.56
G3Y66.66I-1.87J0.01
G3Y66.76I-1.86J-0.01
G1 X122.97 Y69.36
G1 X122.42 Y87.7
G1 X122.39 Y88.38
G1 X122.34 Y89.71
G1 X122.3 Y91.01
G1 X122.2 Y93.5
G3Y93.59I-2.09J-0.03
G3Y93.67I-2.09J-0.04
G1 X122.11 Y96.0
G1 X122.06 Y97.09
G1 X121.98 Y99.22
G1 X121.89 Y101.21
G1 X121.85 Y102.14
G1 X121.83 Y102.6
G1 X121.81 Y103.04
G1 X121.74 Y104.78
G3X121.73Y104.9I-2.41J-0.04
G3Y105.0I-2.4J-0.06
G3X121.72Y105.1I-2.4J-0.06
G3Y105.22I-2.4J-0.06
G1 X121.64 Y106.82
G1 X121.5 Y109.85
G1 X121.43 Y111.18
G1 X121.37 Y112.42
G1 X121.31 Y113.59
G1 X121.19 Y115.77
G1 X120.75 Y123.42
G1 X120.63 Y125.33
G3Y125.34I-1.0J-0.06
G1 X120.44 Y128.2
G1 X120.35 Y129.63
G3X120.33Y129.82I-8.93J-0.51
G3X120.32Y129.97I-9.04J-0.53
G3X120.3Y130.25I-13.05J-0.75
G3X120.29Y130.45I-13.64J-0.83
G3X120.25Y131.07I-49.77J-3.1
G1 X118.83 Y149.43
G1 X118.63 Y151.72
G3X118.54Y152.73I-128.34J-10.81
G1 X118.38 Y154.61
G1 X118.3 Y155.43
G3Y155.44I-1.0J-0.09
G1 X118.16 Y156.98
G1 X118.1 Y157.65
G1 X117.98 Y158.92
G1 X117.92 Y159.47
G1 X117.82 Y160.51
G1 X117.73 Y161.42
G1 X117.65 Y162.21
G1 X117.58 Y162.91
G1 X117.52 Y163.52
G1 X117.3 Y165.64
G3Y165.65I-0.99J-0.1
G1 X117.08 Y167.77
G3X117.06Y167.96I-6.79J-0.64
G3X117.04Y168.15I-7.4J-0.71
G3X116.72Y171.02I-384.86J-41.57
G1 X116.68 Y171.34
G1 X116.53 Y172.58
G3X115.34Y181.88I-467.54J-55.24
G1 X115.18 Y183.04
G1 X114.89 Y185.07
G1 X114.67 Y186.59
G1 X114.33 Y188.87
G1 X113.99 Y191.15
G1 X113.61 Y193.65
G1 X113.28 Y195.84
G1 X112.99 Y197.76
G1 X112.73 Y199.44
G1 X112.51 Y200.9
G3Y200.91I-0.99J-0.15
G1 X112.3 Y202.19
G1 X111.95 Y204.44
G1 X111.81 Y205.28
G1 X111.69 Y206.02
G1 X111.58 Y206.66
G1 X111.49 Y207.22
G3Y207.23I-0.99J-0.16
G1 X111.33 Y208.21
G1 X111.07 Y209.69
G1 X110.82 Y211.17
G1 X110.6 Y212.42
G3Y212.43I-0.98J-0.17
G1 X110.49 Y213.01
G3X109.66Y217.56I-668.29J-119.52
G1 X109.35 Y219.26
G2X109.28Y219.63I55.25J10.41
G3Y219.64I-0.98J-0.18
G2X109.21Y219.99I34.79J6.61
G3Y220.0I-0.98J-0.18
G2X109.15Y220.33I27.17J5.2
G3Y220.34I-0.98J-0.18
G1 X108.65 Y223.05
G3Y223.06I-0.98J-0.18
G2X108.61Y223.29I10.99J2.13
G3X108.6Y223.31I-0.99J-0.17
G2X108.56Y223.53I10.46J2.02
G3Y223.55I-0.99J-0.17
G2X108.52Y223.77I9.98J1.93
G3Y223.79I-0.99J-0.17
G2X108.48Y224.0I9.55J1.84
G3X108.47Y224.02I-0.99J-0.17
G2X108.44Y224.23I9.15J1.76
G3X108.43Y224.25I-0.99J-0.17
G2X108.4Y224.44I8.79J1.69
G3X108.39Y224.46I-0.99J-0.17
G2X108.36Y224.65I8.45J1.62
G3Y224.67I-0.99J-0.17
G2X108.32Y224.85I8.14J1.56
G3Y224.88I-0.99J-0.17
G2X108.29Y225.05I7.84J1.5
G3X108.28Y225.07I-0.99J-0.17
G2X108.25Y225.24I7.57J1.45
G3Y225.26I-0.99J-0.17
G2X108.22Y225.43I7.31J1.39
G3Y225.45I-0.99J-0.17
G2X108.19Y225.6I7.07J1.35
G3X108.18Y225.63I-0.99J-0.16
G2X108.16Y225.78I6.85J1.3
G3X108.15Y225.8I-0.99J-0.16
G2X108.13Y225.95I6.63J1.26
G3X108.12Y225.97I-0.99J-0.16
G2X108.1Y226.11I6.43J1.21
G3Y226.13I-0.99J-0.16
G2X108.07Y226.27I6.23J1.18
G3Y226.29I-0.99J-0.16
G2X108.04Y226.42I6.05J1.14
G3Y226.43I-0.99J-0.16
G2X107.84Y227.61I156.19J28.0
G3X107.83Y227.63I-0.99J-0.17
G2X107.8Y227.82I6.85J1.29
G3X107.79Y227.85I-0.99J-0.16
G2X107.76Y228.03I6.52J1.22
G3Y228.04I-0.99J-0.16
G1 X107.49 Y229.6
G3Y229.61I-0.99J-0.17
G2X107.46Y229.78I5.75J1.05
G3Y229.79I-0.99J-0.15
G1 X107.24 Y231.16
G3X107.23Y231.17I-0.99J-0.16
G2X107.21Y231.32I5.64J0.99
G3Y231.33I-0.99J-0.15
G1 X107.1 Y232.0
G1 X107.05 Y232.32
G1 X107.0 Y232.64
G1 X106.9 Y233.27
G1 X106.85 Y233.58
G1 X106.67 Y234.78
G1 X106.58 Y235.34
G1 X106.42 Y236.43
G1 X106.11 Y238.48
G1 X105.98 Y239.38
G1 X105.73 Y241.07
G1 X105.5 Y242.54
G1 X105.4 Y243.18
G3Y243.19I-0.99J-0.15
G1 X105.21 Y244.39
G3X104.52Y248.63I-323.67J-50.63
G1 X104.34 Y249.68
G1 X104.2 Y250.47
G1 X104.15 Y250.77
G1 X103.97 Y251.81
G3X103.96I-0.98J-0.18
G1 X103.78 Y252.85
G3X103.77I-0.98J-0.18
G1 X103.72 Y253.15
G1 X103.49 Y254.34
G3Y254.35I-0.98J-0.19
G1 X103.27 Y255.5
G1 X103.16 Y256.06
G1 X102.95 Y257.16
G3Y257.17I-0.98J-0.19
G1 X102.93 Y257.23
G1 X102.92 Y257.3
G3X102.06Y261.54I-722.02J-143.64
G1 X101.68 Y263.4
G1 X100.96 Y266.87
G1 X99.7 Y272.95
G1 X98.76 Y277.51
G1 X98.58 Y278.37
G1 X98.5 Y278.77
G1 X97.86 Y281.87
G1 X97.39 Y284.2
G1 X96.68 Y287.7
G1 X95.98 Y291.2
G3X95.0Y292.0I-0.98J-0.2
G1 X36.0
G3X35.02Y291.2I0.0J-1.0
G1 X34.54 Y288.8
G1 X32.72 Y279.82
G1 X32.02 Y276.45
G1 X31.42 Y273.51
G1 X30.88 Y270.93
G1 X29.95 Y266.42
G1 X29.59 Y264.73
G1 X29.29 Y263.25
G1 X28.76 Y260.65
G1 X28.36 Y258.71
G1 X28.07 Y257.25
G3Y257.24I0.98J-0.2
G1 X27.96 Y256.7
G1 X27.87 Y256.22
G3Y256.21I0.98J-0.19
G1 X27.7 Y255.38
G3X27.22Y252.85I251.98J-49.04
G1 X26.98 Y251.5
G3Y251.49I0.98J-0.18
G1 X26.92 Y251.18
G3Y251.17I0.98J-0.18
G1 X26.7 Y249.93
G3X26.5Y248.75I296.23J-51.59
G1 X26.31 Y247.65
G1 X26.14 Y246.62
G1 X26.06 Y246.14
G1 X25.91 Y245.2
G1 X25.88 Y244.98
G1 X25.84 Y244.76
G1 X25.71 Y243.91
G1 X25.59 Y243.11
G1 X25.47 Y242.38
G3X25.46Y242.31I1.66J-0.29
G1 X25.25 Y240.92
G1 X24.89 Y238.48
G1 X24.82 Y238.02
G1 X24.3 Y234.58
G1 X24.04 Y232.87
G1 X23.9 Y232.02
G1 X23.76 Y231.16
G1 X23.66 Y230.54
G1 X23.56 Y229.93
G1 X23.36 Y228.76
G1 X23.17 Y227.66
G1 X23.08 Y227.15
G1 X23.0 Y226.65
G1 X22.65 Y224.72
G1 X22.5 Y223.87
G1 X22.35 Y223.08
G1 X22.08 Y221.59
G1 X21.84 Y220.29
G1 X21.63 Y219.16
G3X21.54Y218.66I64.48J-12.19
G3X21.45Y218.19I38.06J-7.28
G3X21.37Y217.75I29.4J-5.66
G3X21.3Y217.34I24.67J-4.77
G3X21.23Y216.96I21.56J-4.17
G3X21.16Y216.6I19.31J-3.74
G3X21.1Y216.26I17.57J-3.41
G3X21.04Y215.94I16.18J-3.13
G3X20.98Y215.64I15.03J-2.91
G3X20.93Y215.36I14.05J-2.71
G3X20.18Y211.17I632.72J-115.61
G3X19.75Y208.67I406.25J-71.17
G3X19.03Y204.29I529.58J-89.51
G1 X18.77 Y202.65
G1 X18.54 Y201.21
G1 X18.15 Y198.7
G1 X17.86 Y196.81
G1 X17.44 Y193.98
G3X17.38Y193.62I31.1J-4.86
G3X17.34Y193.32I31.12J-4.84
G3X17.25Y192.77I45.12J-7.06
G3X17.19Y192.37I45.18J-6.99
G3X17.1Y191.76I68.61J-10.61
G3X17.01Y191.15I119.22J-18.19
G1 X16.58 Y188.24
G1 X16.48 Y187.6
G1 X16.3 Y186.37
G1 Y186.36
G1 X16.28 Y186.22
G3X15.01Y177.01I490.23J-72.21
G1 X14.86 Y175.86
G1 F500.0 Z-2.0
F1000.0
G3X13.92Y167.77I509.26J-63.39
G1 X13.86 Y167.2
G1 X13.74 Y166.07
G1 X13.51 Y163.89
G1 X13.46 Y163.38
G3X12.69Y155.31I879.49J-88.55
G1 X12.55 Y153.79
G1 X11.59 Y142.44
G1 Y142.43
G1 X11.54 Y141.73
G3Y141.72I1.0J-0.08
G1 X11.33 Y139.06
G1 X11.26 Y138.06
G1 X11.22 Y137.63
G1 X11.19 Y137.22
G1 X11.08 Y135.68
G1 X11.06 Y135.39
G1 X10.9 Y133.23
G1 X10.75 Y131.07
G1 X10.66 Y129.72
G3Y129.71I1.0J-0.07
G1 X10.49 Y127.09
G1 X10.47 Y126.78
G1 X10.31 Y124.34
G1 X10.24 Y123.2
G1 X10.11 Y120.98
G1 X10.05 Y119.94
G1 X9.22 Y103.82
G1 X9.13 Y101.81
G1 X9.06 Y100.05
G3Y100.04I1.0J-0.04
G1 X8.93 Y96.96
G1 X8.91 Y96.38
G1 X8.86 Y95.3
G1 X8.83 Y94.35
G1 X8.7 Y91.03
G1 Y91.02
G1 Y90.82
G1 X8.58 Y87.7
G1 X8.54 Y86.5
G1 X8.5 Y85.32
G1 X8.46 Y84.16
G1 X8.43 Y83.02
G1 X8.39 Y81.9
G1 Y81.89
G1 X8.37 Y81.34
G1 X8.3 Y79.14
G1 X8.29 Y78.61
G1 X8.25 Y77.56
G1 Y77.55
G1 X8.22 Y76.52
G1 X8.21 Y76.0
G1 X8.19 Y75.5
G3Y75.49I1.0J-0.03
G1 X8.08 Y71.47
G3X8.03Y69.58I490.99J-13.93
G1 X8.02 Y69.12
G1 X7.93 Y65.49
G1 X7.85 Y62.08
G1 X7.81 Y60.49
G1 X7.75 Y57.39
G1 X7.71 Y55.94
G1 X7.7 Y55.24
G1 X7.69 Y54.55
G3X7.67Y53.87I121.66J-2.81
G1 X7.65 Y52.53
G1 X7.55 Y47.34
G1 X7.47 Y42.8
G1 X7.46 Y42.68
G1 X7.4 Y38.72
G1 X7.34 Y35.25
G1 X7.33 Y34.5
G1 X7.24 Y28.63
G1 X7.18 Y24.22
G1 X7.16 Y23.4
G1 X7.15 Y22.62
G1 X7.07 Y16.82
G1 X7.04 Y13.92
G1 Y13.91
G1 X7.0 Y11.01
G3X8.0Y10.0I1.0J-0.01
G1 X123.0
G3X124.0Y11.01I0.0J1.0
G1 X123.94 Y15.81
G1 X123.88 Y20.3
G1 X123.85 Y22.4
G1 Y22.41
G1 X123.79 Y26.49
G1 X123.74 Y30.31
G1 X123.68 Y33.9
G1 X123.63 Y37.26
G1 X123.6 Y38.84
G1 X123.58 Y40.36
G1 X123.47 Y46.28
G1 X123.38 Y51.46
G1 X123.35 Y52.59
G1 X123.31 Y54.79
G1 X123.29 Y55.81
G1 Y55.82
G1 X123.2 Y59.8
G3X123.19Y60.24I-42.66J-0.73
G1 X123.15 Y61.95
G1 X123.08 Y65.17
G1 X123.04 Y66.56
G3Y66.66I-1.87J0.01
G3Y66.76I-1.86J-0.01
G1 X122.97 Y69.36
G1 X122.42 Y87.7
G1 X122.39 Y88.38
G1 X122.34 Y89.71
G1 X122.3 Y91.01
G1 X122.2 Y93.5
G3Y93.59I-2.09J-0.03
G3Y93.67I-2.09J-0.04
G1 X122.11 Y96.0
G1 X122.06 Y97.09
G1 X121.98 Y99.22
G1 X121.89 Y101.21
G1 X121.85 Y102.14
G1 X121.83 Y102.6
G1 X121.81 Y103.04
G1 X121.74 Y104.78
G3X121.73Y104.9I-2.41J-0.04
G3Y105.0I-2.4J-0.06
G3X121.72Y105.1I-2.4J-0.06
G3Y105.22I-2.4J-0.06
G1 X121.64 Y106.82
G1 X121.5 Y109.85
G1 X121.43 Y111.18
G1 X121.37 Y112.42
G1 X121.31 Y113.59
G1 X121.19 Y115.77
G1 X120.75 Y123.42
G1 X120.63 Y125.33
G3Y125.34I-1.0J-0.06
G1 X120.44 Y128.2
G1 X120.35 Y129.63
G3X120.33Y129.82I-8.93J-0.51
G3X120.32Y129.97I-9.04J-0.53
G3X120.3Y130.25I-13.05J-0.75
G3X120.29Y130.45I-13.64J-0.83
G3X120.25Y131.07I-49.77J-3.1
G1 X118.83 Y149.43
G1 X118.63 Y151.72
G3X118.54Y152.73I-128.34J-10.81
G1 X118.38 Y154.61
G1 X118.3 Y155.43
G3Y155.44I-1.0J-0.09
G1 X118.16 Y156.98
G1 X118.1 Y157.65
G1 X117.98 Y158.92
G1 X117.92 Y159.47
G1 X117.82 Y160.51
G1 X117.73 Y161.42
G1 X117.65 Y162.21
G1 X117.58 Y162.91
G1 X117.52 Y163.52
G1 X117.3 Y165.64
G3Y165.65I-0.99J-0.1
G1 X117.08 Y167.77
G3X117.06Y167.96I-6.79J-0.64
G3X117.04Y168.15I-7.4J-0.71
G3X116.72Y171.02I-384.86J-41.57
G1 X116.68 Y171.34
G1 X116.53 Y172.58
G3X115.34Y181.88I-467.54J-55.24
G1 X115.18 Y183.04
G1 X114.89 Y185.07
G1 X114.67 Y186.59
G1 X114.33 Y188.87
G1 X113.99 Y191.15
G1 X113.61 Y193.65
G1 X113.28 Y195.84
G1 X112.99 Y197.76
G1 X112.73 Y199.44
G1 X112.51 Y200.9
G3Y200.91I-0.99J-0.15
G1 X112.3 Y202.19
G1 X111.95 Y204.44
G1 X111.81 Y205.28
G1 X111.69 Y206.02
G1 X111.58 Y206.66
G1 X111.49 Y207.22
G3Y207.23I-0.99J-0.16
G1 X111.33 Y208.21
G1 X111.07 Y209.69
G1 X110.82 Y211.17
G1 X110.6 Y212.42
G3Y212.43I-0.98J-0.17
G1 X110.49 Y213.01
G3X109.66Y217.56I-668.29J-119.52
G1 X109.35 Y219.26
G2X109.28Y219.63I55.25J10.41
G3Y219.64I-0.98J-0.18
G2X109.21Y219.99I34.79J6.61
G3Y220.0I-0.98J-0.18
G2X109.15Y220.33I27.17J5.2
G3Y220.34I-0.98J-0.18
G1 X108.65 Y223.05
G3Y223.06I-0.98J-0.18
G2X108.61Y223.29I10.99J2.13
G3X108.6Y223.31I-0.99J-0.17
G2X108.56Y223.53I10.46J2.02
G3Y223.55I-0.99J-0.17
G2X108.52Y223.77I9.98J1.93
G3Y223.79I-0.99J-0.17
G2X108.48Y224.0I9.55J1.84
G3X108.47Y224.02I-0.99J-0.17
G2X108.44Y224.23I9.15J1.76
G3X108.43Y224.25I-0.99J-0.17
G2X108.4Y224.44I8.79J1.69
G3X108.39Y224.46I-0.99J-0.17
G2X108.36Y224.65I8.45J1.62
G3Y224.67I-0.99J-0.17
G2X108.32Y224.85I8.14J1.56
G3Y224.88I-0.99J-0.17
G2X108.29Y225.05I7.84J1.5
G3X108.28Y225.07I-0.99J-0.17
G2X108.25Y225.24I7.57J1.45
G3Y225.26I-0.99J-0.17
G2X108.22Y225.43I7.31J1.39
G3Y225.45I-0.99J-0.17
G2X108.19Y225.6I7.07J1.35
G3X108.18Y225.63I-0.99J-0.16
G2X108.16Y225.78I6.85J1.3
G3X108.15Y225.8I-0.99J-0.16
G2X108.13Y225.95I6.63J1.26
G3X108.12Y225.97I-0.99J-0.16
G2X108.1Y226.11I6.43J1.21
G3Y226.13I-0.99J-0.16
G2X108.07Y226.27I6.23J1.18
G3Y226.29I-0.99J-0.16
G2X108.04Y226.42I6.05J1.14
G3Y226.43I-0.99J-0.16
G2X107.84Y227.61I156.19J28.0
G3X107.83Y227.63I-0.99J-0.17
G2X107.8Y227.82I6.85J1.29
G3X107.79Y227.85I-0.99J-0.16
G2X107.76Y228.03I6.52J1.22
G3Y228.04I-0.99J-0.16
G1 X107.49 Y229.6
G3Y229.61I-0.99J-0.17
G2X107.46Y229.78I5.75J1.05
G3Y229.79I-0.99J-0.15
G1 X107.24 Y231.16
G3X107.23Y231.17I-0.99J-0.16
G2X107.21Y231.32I5.64J0.99
G3Y231.33I-0.99J-0.15
G1 X107.1 Y232.0
G1 X107.05 Y232.32
G1 X107.0 Y232.64
G1 X106.9 Y233.27
G1 X106.85 Y233.58
G1 X106.67 Y234.78
G1 X106.58 Y235.34
G1 X106.42 Y236.43
G1 X106.11 Y238.48
G1 X105.98 Y239.38
G1 X105.73 Y241.07
G1 X105.5 Y242.54
G1 X105.4 Y243.18
G3Y243.19I-0.99J-0.15
G1 X105.21 Y244.39
G3X104.52Y248.63I-323.67J-50.63
G1 X104.34 Y249.68
G1 X104.2 Y250.47
G1 X104.15 Y250.77
G1 X103.97 Y251.81
G3X103.96I-0.98J-0.18
G1 X103.78 Y252.85
G3X103.77I-0.98J-0.18
G1 X103.72 Y253.15
G1 X103.49 Y254.34
G3Y254.35I-0.98J-0.19
G1 X103.27 Y255.5
G1 X103.16 Y256.06
G1 X102.95 Y257.16
G3Y257.17I-0.98J-0.19
G1 X102.93 Y257.23
G1 X102.92 Y257.3
G3X102.06Y261.54I-722.02J-143.64
G1 X101.68 Y263.4
G1 X100.96 Y266.87
G1 X99.7 Y272.95
G1 X98.76 Y277.51
G1 X98.58 Y278.37
G1 X98.5 Y278.77
G1 X97.86 Y281.87
G1 X97.39 Y284.2
G1 X96.68 Y287.7
G1 X95.98 Y291.2
G3X95.0Y292.0I-0.98J-0.2
G1 X36.0
G3X35.02Y291.2I0.0J-1.0
G1 X34.54 Y288.8
G1 X32.72 Y279.82
G1 X32.02 Y276.45
G1 X31.42 Y273.51
G1 X30.88 Y270.93
G1 X29.95 Y266.42
G1 X29.59 Y264.73
G1 X29.29 Y263.25
G1 X28.76 Y260.65
G1 X28.36 Y258.71
G1 X28.07 Y257.25
G3Y257.24I0.98J-0.2
G1 X27.96 Y256.7
G1 X27.87 Y256.22
G3Y256.21I0.98J-0.19
G1 X27.7 Y255.38
G3X27.22Y252.85I251.98J-49.04
G1 X26.98 Y251.5
G3Y251.49I0.98J-0.18
G1 X26.92 Y251.18
G3Y251.17I0.98J-0.18
G1 X26.7 Y249.93
G3X26.5Y248.75I296.23J-51.59
G1 X26.31 Y247.65
G1 X26.14 Y246.62
G1 X26.06 Y246.14
G1 X25.91 Y245.2
G1 X25.88 Y244.98
G1 X25.84 Y244.76
G1 X25.71 Y243.91
G1 X25.59 Y243.11
G1 X25.47 Y242.38
G3X25.46Y242.31I1.66J-0.29
G1 X25.25 Y240.92
G1 X24.89 Y238.48
G1 X24.82 Y238.02
G1 X24.3 Y234.58
G1 X24.04 Y232.87
G1 X23.9 Y232.02
G1 X23.76 Y231.16
G1 X23.66 Y230.54
G1 X23.56 Y229.93
G1 X23.36 Y228.76
G1 X23.17 Y227.66
G1 X23.08 Y227.15
G1 X23.0 Y226.65
G1 X22.65 Y224.72
G1 X22.5 Y223.87
G1 X22.35 Y223.08
G1 X22.08 Y221.59
G1 X21.84 Y220.29
G1 X21.63 Y219.16
G3X21.54Y218.66I64.48J-12.19
G3X21.45Y218.19I38.06J-7.28
G3X21.37Y217.75I29.4J-5.66
G3X21.3Y217.34I24.67J-4.77
G3X21.23Y216.96I21.56J-4.17
G3X21.16Y216.6I19.31J-3.74
G3X21.1Y216.26I17.57J-3.41
G3X21.04Y215.94I16.18J-3.13
G3X20.98Y215.64I15.03J-2.91
G3X20.93Y215.36I14.05J-2.71
G3X20.18Y211.17I632.72J-115.61
G3X19.75Y208.67I406.25J-71.17
G3X19.03Y204.29I529.58J-89.51
G1 X18.77 Y202.65
G1 X18.54 Y201.21
G1 X18.15 Y198.7
G1 X17.86 Y196.81
G1 X17.44 Y193.98
G3X17.38Y193.62I31.1J-4.86
G3X17.34Y193.32I31.12J-4.84
G3X17.25Y192.77I45.12J-7.06
G3X17.19Y192.37I45.18J-6.99
G3X17.1Y191.76I68.61J-10.61
G3X17.01Y191.15I119.22J-18.19
G1 X16.58 Y188.24
G1 X16.48 Y187.6
G1 X16.3 Y186.37
G1 Y186.36
G1 X16.28 Y186.22
G3X15.01Y177.01I490.23J-72.21
G1 X14.86 Y175.86
G1 F500.0 Z-3.0
F1000.0
G3X13.92Y167.77I509.26J-63.39
G1 X13.86 Y167.2
G1 X13.74 Y166.07
G1 X13.51 Y163.89
G1 X13.46 Y163.38
G3X12.69Y155.31I879.49J-88.55
G1 X12.55 Y153.79
G1 X12.44 Y152.6
G1 X12.31 Y151.11 Z-2.0
G1 X12.14 Y149.12
G1 X12.02 Y147.62 Z-3.0
G1 X11.59 Y142.44
G1 Y142.43
G1 X11.54 Y141.73
G3Y141.72I1.0J-0.08
G1 X11.33 Y139.06
G1 X11.26 Y138.06
G1 X11.22 Y137.63
G1 X11.19 Y137.22
G1 X11.08 Y135.68
G1 X11.06 Y135.39
G1 X10.9 Y133.23
G1 X10.75 Y131.07
G1 X10.66 Y129.72
G3Y129.71I1.0J-0.07
G1 X10.49 Y127.09
G1 X10.47 Y126.78
G1 X10.31 Y124.34
G1 X10.24 Y123.2
G1 X10.11 Y120.98
G1 X10.05 Y119.94
G1 X9.22 Y103.82
G1 X9.13 Y101.81
G1 X9.06 Y100.05
G3Y100.04I1.0J-0.04
G1 X8.93 Y96.96
G1 X8.91 Y96.38
G1 X8.86 Y95.3
G1 X8.83 Y94.35
G1 X8.7 Y91.03
G1 Y91.02
G1 Y90.82
G1 X8.58 Y87.7
G1 X8.54 Y86.5
G1 X8.5 Y85.32
G1 X8.46 Y84.16
G1 X8.43 Y83.02
G1 X8.39 Y81.9
G1 Y81.89
G1 X8.37 Y81.34
G1 X8.3 Y79.14
G1 X8.29 Y78.61
G1 X8.25 Y77.56
G1 Y77.55
G1 X8.22 Y76.52
G1 X8.21 Y76.0
G1 X8.19 Y75.5
G3Y75.49I1.0J-0.03
G1 X8.08 Y71.47
G3X8.03Y69.58I490.99J-13.93
G1 X8.02 Y69.12
G1 X7.93 Y65.49
G1 X7.85 Y62.08
G1 X7.81 Y60.49
G1 X7.75 Y57.39
G1 X7.71 Y55.94
G1 X7.7 Y55.24
G1 X7.69 Y54.55
G3X7.67Y53.87I121.66J-2.81
G1 X7.65 Y52.53
G1 X7.55 Y47.34
G1 X7.47 Y42.8
G1 X7.46 Y42.68
G1 X7.4 Y38.72
G1 X7.34 Y35.25
G1 X7.33 Y34.5
G1 X7.25 Y29.66
G1 X7.24 Y28.63 Z-2.31
G1 X7.23 Y28.16 Z-2.0
G1 X7.2 Y26.16
G1 X7.18 Y24.66 Z-3.0
G1 Y24.22
G1 X7.16 Y23.4
G1 X7.15 Y22.62
G1 X7.07 Y16.82
G1 X7.04 Y13.92
G1 Y13.91
G1 X7.0 Y11.01
G3X8.0Y10.0I1.0J-0.01
G1 X123.0
G3X124.0Y11.01I0.0J1.0
G1 X123.94 Y15.81
G1 X123.88 Y20.3
G1 X123.86 Y21.99
G1 X123.85 Y22.4 Z-2.72
G1 Y22.41
G1 X123.83 Y23.49 Z-2.0
G1 X123.81 Y25.49
G1 X123.79 Y26.49 Z-2.67
G1 Y26.99 Z-3.0
G1 X123.74 Y30.31
G1 X123.68 Y33.9
G1 X123.63 Y37.26
G1 X123.6 Y38.84
G1 X123.58 Y40.36
G1 X123.47 Y46.28
G1 X123.38 Y51.46
G1 X123.35 Y52.59
G1 X123.31 Y54.79
G1 X123.29 Y55.81
G1 Y55.82
G1 X123.2 Y59.8
G3X123.19Y60.24I-42.66J-0.73
G1 X123.15 Y61.95
G1 X123.08 Y65.17
G1 X123.04 Y66.56
G3Y66.66I-1.87J0.01
G3Y66.76I-1.86J-0.01
G1 X122.97 Y69.36
G1 X122.42 Y87.7
G1 X122.39 Y88.38
G1 X122.34 Y89.71
G1 X122.3 Y91.01
G1 X122.2 Y93.5
G3Y93.59I-2.09J-0.03
G3Y93.67I-2.09J-0.04
G1 X122.11 Y96.0
G1 X122.06 Y97.09
G1 X121.98 Y99.22
G1 X121.89 Y101.21
G1 X121.85 Y102.14
G1 X121.83 Y102.6
G1 X121.81 Y103.04
G1 X121.74 Y104.78
G3X121.73Y104.9I-2.41J-0.04
G3Y105.0I-2.4J-0.06
G3X121.72Y105.1I-2.4J-0.06
G3Y105.22I-2.4J-0.06
G1 X121.64 Y106.82
G1 X121.5 Y109.85
G1 X121.43 Y111.18
G1 X121.37 Y112.42
G1 X121.31 Y113.59
G1 X121.19 Y115.77
G1 X120.75 Y123.42
G1 X120.63 Y125.33
G3Y125.34I-1.0J-0.06
G1 X120.44 Y128.2
G1 X120.35 Y129.63
G3X120.33Y129.82I-8.93J-0.51
G3X120.32Y129.97I-9.04J-0.53
G3X120.3Y130.25I-13.05J-0.75
G3X120.29Y130.45I-13.64J-0.83
G3X120.25Y131.07I-49.77J-3.1
G1 X119.37 Y142.9
G1 X119.25 Y144.39 Z-2.0
G1 X119.09 Y146.39
G1 X118.96 Y147.88 Z-3.0
G1 X118.83 Y149.43
G1 X118.63 Y151.72
G3X118.54Y152.73I-128.34J-10.81
G1 X118.38 Y154.61
G1 X118.3 Y155.43
G3Y155.44I-1.0J-0.09
G1 X118.16 Y156.98
G1 X118.1 Y157.65
G1 X117.98 Y158.92
G1 X117.92 Y159.47
G1 X117.82 Y160.51
G1 X117.73 Y161.42
G1 X117.65 Y162.21
G1 X117.58 Y162.91
G1 X117.52 Y163.52
G1 X117.3 Y165.64
G3Y165.65I-0.99J-0.1
G1 X117.08 Y167.77
G3X117.06Y167.96I-6.79J-0.64
G3X117.04Y168.15I-7.4J-0.71
G3X116.72Y171.02I-384.86J-41.57
G1 X116.68 Y171.34
G1 X116.53 Y172.58
G3X115.34Y181.88I-467.54J-55.24
G1 X115.18 Y183.04
G1 X114.89 Y185.07
G1 X114.67 Y186.59
G1 X114.33 Y188.87
G1 X113.99 Y191.15
G1 X113.61 Y193.65
G1 X113.28 Y195.84
G1 X112.99 Y197.76
G1 X112.73 Y199.44
G1 X112.51 Y200.9
G3Y200.91I-0.99J-0.15
G1 X112.3 Y202.19
G1 X111.95 Y204.44
G1 X111.81 Y205.28
G1 X111.69 Y206.02
G1 X111.58 Y206.66
G1 X111.49 Y207.22
G3Y207.23I-0.99J-0.16
G1 X111.33 Y208.21
G1 X111.07 Y209.69
G1 X110.82 Y211.17
G1 X110.6 Y212.42
G3Y212.43I-0.98J-0.17
G1 X110.49 Y213.01
G3X109.66Y217.56I-668.29J-119.52
G1 X109.35 Y219.26
G2X109.28Y219.63I55.25J10.41
G3Y219.64I-0.98J-0.18
G2X109.21Y219.99I34.79J6.61
G3Y220.0I-0.98J-0.18
G2X109.15Y220.33I27.17J5.2
G3Y220.34I-0.98J-0.18
G1 X108.65 Y223.05
G3Y223.06I-0.98J-0.18
G2X108.61Y223.29I10.99J2.13
G3X108.6Y223.31I-0.99J-0.17
G2X108.56Y223.53I10.46J2.02
G3Y223.55I-0.99J-0.17
G2X108.52Y223.77I9.98J1.93
G3Y223.79I-0.99J-0.17
G2X108.48Y224.0I9.55J1.84
G3X108.47Y224.02I-0.99J-0.17
G2X108.44Y224.23I9.15J1.76
G3X108.43Y224.25I-0.99J-0.17
G2X108.4Y224.44I8.79J1.69
G3X108.39Y224.46I-0.99J-0.17
G2X108.36Y224.65I8.45J1.62
G3Y224.67I-0.99J-0.17
G2X108.32Y224.85I8.14J1.56
G3Y224.88I-0.99J-0.17
G2X108.29Y225.05I7.84J1.5
G3X108.28Y225.07I-0.99J-0.17
G2X108.25Y225.24I7.57J1.45
G3Y225.26I-0.99J-0.17
G2X108.22Y225.43I7.31J1.39
G3Y225.45I-0.99J-0.17
G2X108.19Y225.6I7.07J1.35
G3X108.18Y225.63I-0.99J-0.16
G2X108.16Y225.78I6.85J1.3
G3X108.15Y225.8I-0.99J-0.16
G2X108.13Y225.95I6.63J1.26
G3X108.12Y225.97I-0.99J-0.16
G2X108.1Y226.11I6.43J1.21
G3Y226.13I-0.99J-0.16
G2X108.07Y226.27I6.23J1.18
G3Y226.29I-0.99J-0.16
G2X108.04Y226.42I6.05J1.14
G3Y226.43I-0.99J-0.16
G2X107.84Y227.61I156.19J28.0
G3X107.83Y227.63I-0.99J-0.17
G2X107.8Y227.82I6.85J1.29
G3X107.79Y227.85I-0.99J-0.16
G2X107.76Y228.03I6.52J1.22
G3Y228.04I-0.99J-0.16
G1 X107.49 Y229.6
G3Y229.61I-0.99J-0.17
G2X107.46Y229.78I5.75J1.05
G3Y229.79I-0.99J-0.15
G1 X107.24 Y231.16
G3X107.23Y231.17I-0.99J-0.16
G2X107.21Y231.32I5.64J0.99
G3Y231.33I-0.99J-0.15
G1 X107.1 Y232.0
G1 X107.05 Y232.32
G1 X107.0 Y232.64
G1 X106.9 Y233.27
G1 X106.85 Y233.58
G1 X106.67 Y234.78
G1 X106.58 Y235.34
G1 X106.42 Y236.43
G1 X106.11 Y238.48
G1 X105.98 Y239.38
G1 X105.73 Y241.07
G1 X105.5 Y242.54
G1 X105.4 Y243.18
G3Y243.19I-0.99J-0.15
G1 X105.21 Y244.39
G3X105.05Y245.41I-323.67J-50.63
G3X104.81Y246.89Z-2.0I-323.51J-51.65
G3X104.52Y248.63I-323.27J-53.13
G1 X104.48 Y248.87
G1 X104.34 Y249.68 Z-2.55
G1 X104.23 Y250.35 Z-3.0
G1 X104.2 Y250.47
G1 X104.15 Y250.77
G1 X103.97 Y251.81
G3X103.96I-0.98J-0.18
G1 X103.78 Y252.85
G3X103.77I-0.98J-0.18
G1 X103.72 Y253.15
G1 X103.49 Y254.34
G3Y254.35I-0.98J-0.19
G1 X103.27 Y255.5
G1 X103.16 Y256.06
G1 X102.95 Y257.16
G3Y257.17I-0.98J-0.19
G1 X102.93 Y257.23
G1 X102.92 Y257.3
G3X102.06Y261.54I-722.02J-143.64
G1 X101.68 Y263.4
G1 X100.96 Y266.87
G1 X99.7 Y272.95
G1 X98.76 Y277.51
G1 X98.58 Y278.37
G1 X98.5 Y278.77
G1 X97.86 Y281.87
G1 X97.39 Y284.2
G1 X96.68 Y287.7
G1 X95.98 Y291.2
G3X95.0Y292.0I-0.98J-0.2
G1 X36.0
G3X35.02Y291.2I0.0J-1.0
G1 X34.54 Y288.8
G1 X32.72 Y279.82
G1 X32.02 Y276.45
G1 X31.42 Y273.51
G1 X30.88 Y270.93
G1 X29.95 Y266.42
G1 X29.59 Y264.73
G1 X29.29 Y263.25
G1 X28.76 Y260.65
G1 X28.56 Y259.7
G1 X28.36 Y258.71 Z-2.33
G1 X28.27 Y258.23 Z-2.0
G1 X28.07 Y257.25
G3Y257.24I0.98J-0.2
G1 X27.96 Y256.7
G1 X27.88 Y256.26
G1 X27.87 Y256.22 Z-2.03
G3Y256.21I0.98J-0.19
G1 X27.7 Y255.38 Z-2.6
G3X27.59Y254.79Z-3.0I251.98J-49.04
G3X27.22Y252.85I252.1J-48.46
G1 X26.98 Y251.5
G3Y251.49I0.98J-0.18
G1 X26.92 Y251.18
G3Y251.17I0.98J-0.18
G1 X26.7 Y249.93
G3X26.5Y248.75I296.23J-51.59
G1 X26.31 Y247.65
G1 X26.14 Y246.62
G1 X26.06 Y246.14
G1 X25.91 Y245.2
G1 X25.88 Y244.98
G1 X25.84 Y244.76
G1 X25.71 Y243.91
G1 X25.59 Y243.11
G1 X25.47 Y242.38
G3X25.46Y242.31I1.66J-0.29
G1 X25.25 Y240.92
G1 X24.89 Y238.48
G1 X24.82 Y238.02
G1 X24.3 Y234.58
G1 X24.04 Y232.87
G1 X23.9 Y232.02
G1 X23.76 Y231.16
G1 X23.66 Y230.54
G1 X23.56 Y229.93
G1 X23.36 Y228.76
G1 X23.17 Y227.66
G1 X23.08 Y227.15
G1 X23.0 Y226.65
G1 X22.65 Y224.72
G1 X22.5 Y223.87
G1 X22.35 Y223.08
G1 X22.08 Y221.59
G1 X21.84 Y220.29
G1 X21.63 Y219.16
G3X21.54Y218.66I64.48J-12.19
G3X21.45Y218.19I38.06J-7.28
G3X21.37Y217.75I29.4J-5.66
G3X21.3Y217.34I24.67J-4.77
G3X21.23Y216.96I21.56J-4.17
G3X21.16Y216.6I19.31J-3.74
G3X21.1Y216.26I17.57J-3.41
G3X21.04Y215.94I16.18J-3.13
G3X20.98Y215.64I15.03J-2.91
G3X20.93Y215.36I14.05J-2.71
G3X20.18Y211.17I632.72J-115.61
G3X19.75Y208.67I406.25J-71.17
G3X19.03Y204.29I529.58J-89.51
G1 X18.77 Y202.65
G1 X18.54 Y201.21
G1 X18.15 Y198.7
G1 X17.86 Y196.81
G1 X17.44 Y193.98
G3X17.38Y193.62I31.1J-4.86
G3X17.34Y193.32I31.12J-4.84
G3X17.25Y192.77I45.12J-7.06
G3X17.19Y192.37I45.18J-6.99
G3X17.1Y191.76I68.61J-10.61
G3X17.01Y191.15I119.22J-18.19
G1 X16.58 Y188.24
G1 X16.48 Y187.6
G1 X16.3 Y186.37
G1 Y186.36
G1 X16.28 Y186.22
G3X15.01Y177.01I490.23J-72.21
G1 X14.86 Y175.86
G1 F500.0 Z-4.0
F1000.0
G3X13.92Y167.77I509.26J-63.39
G1 X13.86 Y167.2
G1 X13.74 Y166.07
G1 X13.51 Y163.89
G1 X13.46 Y163.38
G3X12.69Y155.31I879.49J-88.55
G1 X12.55 Y153.79
G1 X12.44 Y152.6
G1 X12.31 Y151.11 Z-2.0
G1 X12.14 Y149.12
G1 X12.02 Y147.62 Z-4.0
G1 X11.59 Y142.44
G1 Y142.43
G1 X11.54 Y141.73
G3Y141.72I1.0J-0.08
G1 X11.33 Y139.06
G1 X11.26 Y138.06
G1 X11.22 Y137.63
G1 X11.19 Y137.22
G1 X11.08 Y135.68
G1 X11.06 Y135.39
G1 X10.9 Y133.23
G1 X10.75 Y131.07
G1 X10.66 Y129.72
G3Y129.71I1.0J-0.07
G1 X10.49 Y127.09
G1 X10.47 Y126.78
G1 X10.31 Y124.34
G1 X10.24 Y123.2
G1 X10.11 Y120.98
G1 X10.05 Y119.94
G1 X9.22 Y103.82
G1 X9.13 Y101.81
G1 X9.06 Y100.05
G3Y100.04I1.0J-0.04
G1 X8.93 Y96.96
G1 X8.91 Y96.38
G1 X8.86 Y95.3
G1 X8.83 Y94.35
G1 X8.7 Y91.03
G1 Y91.02
G1 Y90.82
G1 X8.58 Y87.7
G1 X8.54 Y86.5
G1 X8.5 Y85.32
G1 X8.46 Y84.16
G1 X8.43 Y83.02
G1 X8.39 Y81.9
G1 Y81.89
G1 X8.37 Y81.34
G1 X8.3 Y79.14
G1 X8.29 Y78.61
G1 X8.25 Y77.56
G1 Y77.55
G1 X8.22 Y76.52
G1 X8.21 Y76.0
G1 X8.19 Y75.5
G3Y75.49I1.0J-0.03
G1 X8.08 Y71.47
G3X8.03Y69.58I490.99J-13.93
G1 X8.02 Y69.12
G1 X7.93 Y65.49
G1 X7.85 Y62.08
G1 X7.81 Y60.49
G1 X7.75 Y57.39
G1 X7.71 Y55.94
G1 X7.7 Y55.24
G1 X7.69 Y54.55
G3X7.67Y53.87I121.66J-2.81
G1 X7.65 Y52.53
G1 X7.55 Y47.34
G1 X7.47 Y42.8
G1 X7.46 Y42.68
G1 X7.4 Y38.72
G1 X7.34 Y35.25
G1 X7.33 Y34.5
G1 X7.25 Y29.66
G1 X7.24 Y28.63 Z-2.63
G1 Z-2.62
G1 X7.23 Y28.16 Z-2.0
G1 X7.2 Y26.16
G1 X7.18 Y24.66 Z-4.0
G1 Y24.22
G1 X7.16 Y23.4
G1 X7.15 Y22.62
G1 X7.07 Y16.82
G1 X7.04 Y13.92
G1 Y13.91
G1 X7.0 Y11.01
G3X8.0Y10.0I1.0J-0.01
G1 X123.0
G3X124.0Y11.01I0.0J1.0
G1 X123.94 Y15.81
G1 X123.88 Y20.3
G1 X123.86 Y21.99
G1 X123.85 Y22.4 Z-3.44
G1 Y22.41
G1 X123.83 Y23.49 Z-2.0
G1 X123.81 Y25.49
G1 X123.79 Y26.49 Z-3.33
G1 Y26.99 Z-4.0
G1 X123.74 Y30.31
G1 X123.68 Y33.9
G1 X123.63 Y37.26
G1 X123.6 Y38.84
G1 X123.58 Y40.36
G1 X123.47 Y46.28
G1 X123.38 Y51.46
G1 X123.35 Y52.59
G1 X123.31 Y54.79
G1 X123.29 Y55.81
G1 Y55.82
G1 X123.2 Y59.8
G3X123.19Y60.24I-42.66J-0.73
G1 X123.15 Y61.95
G1 X123.08 Y65.17
G1 X123.04 Y66.56
G3Y66.66I-1.87J0.01
G3Y66.76I-1.86J-0.01
G1 X122.97 Y69.36
G1 X122.42 Y87.7
G1 X122.39 Y88.38
G1 X122.34 Y89.71
G1 X122.3 Y91.01
G1 X122.2 Y93.5
G3Y93.59I-2.09J-0.03
G3Y93.67I-2.09J-0.04
G1 X122.11 Y96.0
G1 X122.06 Y97.09
G1 X121.98 Y99.22
G1 X121.89 Y101.21
G1 X121.85 Y102.14
G1 X121.83 Y102.6
G1 X121.81 Y103.04
G1 X121.74 Y104.78
G3X121.73Y104.9I-2.41J-0.04
G3Y105.0I-2.4J-0.06
G3X121.72Y105.1I-2.4J-0.06
G3Y105.22I-2.4J-0.06
G1 X121.64 Y106.82
G1 X121.5 Y109.85
G1 X121.43 Y111.18
G1 X121.37 Y112.42
G1 X121.31 Y113.59
G1 X121.19 Y115.77
G1 X120.75 Y123.42
G1 X120.63 Y125.33
G3Y125.34I-1.0J-0.06
G1 X120.44 Y128.2
G1 X120.35 Y129.63
G3X120.33Y129.82I-8.93J-0.51
G3X120.32Y129.97I-9.04J-0.53
G3X120.3Y130.25I-13.05J-0.75
G3X120.29Y130.45I-13.64J-0.83
G3X120.25Y131.07I-49.77J-3.1
G1 X119.37 Y142.9
G1 X119.25 Y144.39 Z-2.0
G1 X119.09 Y146.39
G1 X118.96 Y147.88 Z-4.0
G1 X118.83 Y149.43
G1 X118.63 Y151.72
G3X118.54Y152.73I-128.34J-10.81
G1 X118.38 Y154.61
G1 X118.3 Y155.43
G3Y155.44I-1.0J-0.09
G1 X118.16 Y156.98
G1 X118.1 Y157.65
G1 X117.98 Y158.92
G1 X117.92 Y159.47
G1 X117.82 Y160.51
G1 X117.73 Y161.42
G1 X117.65 Y162.21
G1 X117.58 Y162.91
G1 X117.52 Y163.52
G1 X117.3 Y165.64
G3Y165.65I-0.99J-0.1
G1 X117.08 Y167.77
G3X117.06Y167.96I-6.79J-0.64
G3X117.04Y168.15I-7.4J-0.71
G3X116.72Y171.02I-384.86J-41.57
G1 X116.68 Y171.34
G1 X116.53 Y172.58
G3X115.34Y181.88I-467.54J-55.24
G1 X115.18 Y183.04
G1 X114.89 Y185.07
G1 X114.67 Y186.59
G1 X114.33 Y188.87
G1 X113.99 Y191.15
G1 X113.61 Y193.65
G1 X113.28 Y195.84
G1 X112.99 Y197.76
G1 X112.73 Y199.44
G1 X112.51 Y200.9
G3Y200.91I-0.99J-0.15
G1 X112.3 Y202.19
G1 X111.95 Y204.44
G1 X111.81 Y205.28
G1 X111.69 Y206.02
G1 X111.58 Y206.66
G1 X111.49 Y207.22
G3Y207.23I-0.99J-0.16
G1 X111.33 Y208.21
G1 X111.07 Y209.69
G1 X110.82 Y211.17
G1 X110.6 Y212.42
G3Y212.43I-0.98J-0.17
G1 X110.49 Y213.01
G3X109.66Y217.56I-668.29J-119.52
G1 X109.35 Y219.26
G2X109.28Y219.63I55.25J10.41
G3Y219.64I-0.98J-0.18
G2X109.21Y219.99I34.79J6.61
G3Y220.0I-0.98J-0.18
G2X109.15Y220.33I27.17J5.2
G3Y220.34I-0.98J-0.18
G1 X108.65 Y223.05
G3Y223.06I-0.98J-0.18
G2X108.61Y223.29I10.99J2.13
G3X108.6Y223.31I-0.99J-0.17
G2X108.56Y223.53I10.46J2.02
G3Y223.55I-0.99J-0.17
G2X108.52Y223.77I9.98J1.93
G3Y223.79I-0.99J-0.17
G2X108.48Y224.0I9.55J1.84
G3X108.47Y224.02I-0.99J-0.17
G2X108.44Y224.23I9.15J1.76
G3X108.43Y224.25I-0.99J-0.17
G2X108.4Y224.44I8.79J1.69
G3X108.39Y224.46I-0.99J-0.17
G2X108.36Y224.65I8.45J1.62
G3Y224.67I-0.99J-0.17
G2X108.32Y224.85I8.14J1.56
G3Y224.88I-0.99J-0.17
G2X108.29Y225.05I7.84J1.5
G3X108.28Y225.07I-0.99J-0.17
G2X108.25Y225.24I7.57J1.45
G3Y225.26I-0.99J-0.17
G2X108.22Y225.43I7.31J1.39
G3Y225.45I-0.99J-0.17
G2X108.19Y225.6I7.07J1.35
G3X108.18Y225.63I-0.99J-0.16
G2X108.16Y225.78I6.85J1.3
G3X108.15Y225.8I-0.99J-0.16
G2X108.13Y225.95I6.63J1.26
G3X108.12Y225.97I-0.99J-0.16
G2X108.1Y226.11I6.43J1.21
G3Y226.13I-0.99J-0.16
G2X108.07Y226.27I6.23J1.18
G3Y226.29I-0.99J-0.16
G2X108.04Y226.42I6.05J1.14
G3Y226.43I-0.99J-0.16
G2X107.84Y227.61I156.19J28.0
G3X107.83Y227.63I-0.99J-0.17
G2X107.8Y227.82I6.85J1.29
G3X107.79Y227.85I-0.99J-0.16
G2X107.76Y228.03I6.52J1.22
G3Y228.04I-0.99J-0.16
G1 X107.49 Y229.6
G3Y229.61I-0.99J-0.17
G2X107.46Y229.78I5.75J1.05
G3Y229.79I-0.99J-0.15
G1 X107.24 Y231.16
G3X107.23Y231.17I-0.99J-0.16
G2X107.21Y231.32I5.64J0.99
G3Y231.33I-0.99J-0.15
G1 X107.1 Y232.0
G1 X107.05 Y232.32
G1 X107.0 Y232.64
G1 X106.9 Y233.27
G1 X106.85 Y233.58
G1 X106.67 Y234.78
G1 X106.58 Y235.34
G1 X106.42 Y236.43
G1 X106.11 Y238.48
G1 X105.98 Y239.38
G1 X105.73 Y241.07
G1 X105.5 Y242.54
G1 X105.4 Y243.18
G3Y243.19I-0.99J-0.15
G1 X105.21 Y244.39
G3X105.05Y245.41I-323.67J-50.63
G3X104.81Y246.89Z-2.0I-323.51J-51.65
G3X104.52Y248.63I-323.27J-53.13
G1 X104.48 Y248.87
G1 X104.34 Y249.68 Z-3.1
G1 X104.23 Y250.35 Z-4.0
G1 X104.2 Y250.47
G1 X104.15 Y250.77
G1 X103.97 Y251.81
G3X103.96I-0.98J-0.18
G1 X103.78 Y252.85
G3X103.77I-0.98J-0.18
G1 X103.72 Y253.15
G1 X103.49 Y254.34
G3Y254.35I-0.98J-0.19
G1 X103.27 Y255.5
G1 X103.16 Y256.06
G1 X102.95 Y257.16
G3Y257.17I-0.98J-0.19
G1 X102.93 Y257.23
G1 X102.92 Y257.3
G3X102.06Y261.54I-722.02J-143.64
G1 X101.68 Y263.4
G1 X100.96 Y266.87
G1 X99.7 Y272.95
G1 X98.76 Y277.51
G1 X98.58 Y278.37
G1 X98.5 Y278.77
G1 X97.86 Y281.87
G1 X97.39 Y284.2
G1 X96.68 Y287.7
G1 X95.98 Y291.2
G3X95.0Y292.0I-0.98J-0.2
G1 X36.0
G3X35.02Y291.2I0.0J-1.0
G1 X34.54 Y288.8
G1 X32.72 Y279.82
G1 X32.02 Y276.45
G1 X31.42 Y273.51
G1 X30.88 Y270.93
G1 X29.95 Y266.42
G1 X29.59 Y264.73
G1 X29.29 Y263.25
G1 X28.76 Y260.65
G1 X28.56 Y259.7
G1 X28.36 Y258.71 Z-2.65
G1 X28.27 Y258.23 Z-2.0
G1 X28.07 Y257.25
G3Y257.24I0.98J-0.2
G1 X27.96 Y256.7
G1 X27.88 Y256.26
G1 X27.87 Y256.22 Z-2.07
G3Y256.21I0.98J-0.19
G1 X27.7 Y255.38 Z-3.21
G3X27.59Y254.79Z-4.0I251.98J-49.04
G3X27.22Y252.85I252.1J-48.46
G1 X26.98 Y251.5
G3Y251.49I0.98J-0.18
G1 X26.92 Y251.18
G3Y251.17I0.98J-0.18
G1 X26.7 Y249.93
G3X26.5Y248.75I296.23J-51.59
G1 X26.31 Y247.65
G1 X26.14 Y246.62
G1 X26.06 Y246.14
G1 X25.91 Y245.2
G1 X25.88 Y244.98
G1 X25.84 Y244.76
G1 X25.71 Y243.91
G1 X25.59 Y243.11
G1 X25.47 Y242.38
G3X25.46Y242.31I1.66J-0.29
G1 X25.25 Y240.92
G1 X24.89 Y238.48
G1 X24.82 Y238.02
G1 X24.3 Y234.58
G1 X24.04 Y232.87
G1 X23.9 Y232.02
G1 X23.76 Y231.16
G1 X23.66 Y230.54
G1 X23.56 Y229.93
G1 X23.36 Y228.76
G1 X23.17 Y227.66
G1 X23.08 Y227.15
G1 X23.0 Y226.65
G1 X22.65 Y224.72
G1 X22.5 Y223.87
G1 X22.35 Y223.08
G1 X22.08 Y221.59
G1 X21.84 Y220.29
G1 X21.63 Y219.16
G3X21.54Y218.66I64.48J-12.19
G3X21.45Y218.19I38.06J-7.28
G3X21.37Y217.75I29.4J-5.66
G3X21.3Y217.34I24.67J-4.77
G3X21.23Y216.96I21.56J-4.17
G3X21.16Y216.6I19.31J-3.74
G3X21.1Y216.26I17.57J-3.41
G3X21.04Y215.94I16.18J-3.13
G3X20.98Y215.64I15.03J-2.91
G3X20.93Y215.36I14.05J-2.71
G3X20.18Y211.17I632.72J-115.61
G3X19.75Y208.67I406.25J-71.17
G3X19.03Y204.29I529.58J-89.51
G1 X18.77 Y202.65
G1 X18.54 Y201.21
G1 X18.15 Y198.7
G1 X17.86 Y196.81
G1 X17.44 Y193.98
G3X17.38Y193.62I31.1J-4.86
G3X17.34Y193.32I31.12J-4.84
G3X17.25Y192.77I45.12J-7.06
G3X17.19Y192.37I45.18J-6.99
G3X17.1Y191.76I68.61J-10.61
G3X17.01Y191.15I119.22J-18.19
G1 X16.58 Y188.24
G1 X16.48 Y187.6
G1 X16.3 Y186.37
G1 Y186.36
G1 X16.28 Y186.22
G3X15.01Y177.01I490.23J-72.21
G1 X14.86 Y175.86
G1 F500.0 Z-5.0
F1000.0
G3X13.92Y167.77I509.26J-63.39
G1 X13.86 Y167.2
G1 X13.74 Y166.07
G1 X13.51 Y163.89
G1 X13.46 Y163.38
G3X12.69Y155.31I879.49J-88.55
G1 X12.55 Y153.79
G1 X12.44 Y152.6
G1 X12.31 Y151.11 Z-2.0
G1 X12.14 Y149.12
G1 X12.02 Y147.62 Z-5.0
G1 X11.59 Y142.44
G1 Y142.43
G1 X11.54 Y141.73
G3Y141.72I1.0J-0.08
G1 X11.33 Y139.06
G1 X11.26 Y138.06
G1 X11.22 Y137.63
G1 X11.19 Y137.22
G1 X11.08 Y135.68
G1 X11.06 Y135.39
G1 X10.9 Y133.23
G1 X10.75 Y131.07
G1 X10.66 Y129.72
G3Y129.71I1.0J-0.07
G1 X10.49 Y127.09
G1 X10.47 Y126.78
G1 X10.31 Y124.34
G1 X10.24 Y123.2
G1 X10.11 Y120.98
G1 X10.05 Y119.94
G1 X9.22 Y103.82
G1 X9.13 Y101.81
G1 X9.06 Y100.05
G3Y100.04I1.0J-0.04
G1 X8.93 Y96.96
G1 X8.91 Y96.38
G1 X8.86 Y95.3
G1 X8.83 Y94.35
G1 X8.7 Y91.03
G1 Y91.02
G1 Y90.82
G1 X8.58 Y87.7
G1 X8.54 Y86.5
G1 X8.5 Y85.32
G1 X8.46 Y84.16
G1 X8.43 Y83.02
G1 X8.39 Y81.9
G1 Y81.89
G1 X8.37 Y81.34
G1 X8.3 Y79.14
G1 X8.29 Y78.61
G1 X8.25 Y77.56
G1 Y77.55
G1 X8.22 Y76.52
G1 X8.21 Y76.0
G1 X8.19 Y75.5
G3Y75.49I1.0J-0.03
G1 X8.08 Y71.47
G3X8.03Y69.58I490.99J-13.93
G1 X8.02 Y69.12
G1 X7.93 Y65.49
G1 X7.85 Y62.08
G1 X7.81 Y60.49
G1 X7.75 Y57.39
G1 X7.71 Y55.94
G1 X7.7 Y55.24
G1 X7.69 Y54.55
G3X7.67Y53.87I121.66J-2.81
G1 X7.65 Y52.53
G1 X7.55 Y47.34
G1 X7.47 Y42.8
G1 X7.46 Y42.68
G1 X7.4 Y38.72
G1 X7.34 Y35.25
G1 X7.33 Y34.5
G1 X7.25 Y29.66
G1 X7.24 Y28.63 Z-2.94
G1 X7.23 Y28.16 Z-2.0
G1 X7.2 Y26.16
G1 X7.18 Y24.66 Z-5.0
G1 Y24.22
G1 X7.16 Y23.4
G1 X7.15 Y22.62
G1 X7.07 Y16.82
G1 X7.04 Y13.92
G1 Y13.91
G1 X7.0 Y11.01
G3X8.0Y10.0I1.0J-0.01
G1 X123.0
G3X124.0Y11.01I0.0J1.0
G1 X123.94 Y15.81
G1 X123.88 Y20.3
G1 X123.86 Y21.99
G1 X123.85 Y22.4 Z-4.16
G1 Y22.41
G1 X123.83 Y23.49 Z-2.0
G1 X123.81 Y25.49
G1 X123.79 Y26.49 Z-4.0
G1 Y26.99 Z-5.0
G1 X123.74 Y30.31
G1 X123.68 Y33.9
G1 X123.63 Y37.26
G1 X123.6 Y38.84
G1 X123.58 Y40.36
G1 X123.47 Y46.28
G1 X123.38 Y51.46
G1 X123.35 Y52.59
G1 X123.31 Y54.79
G1 X123.29 Y55.81
G1 Y55.82
G1 X123.2 Y59.8
G3X123.19Y60.24I-42.66J-0.73
G1 X123.15 Y61.95
G1 X123.08 Y65.17
G1 X123.04 Y66.56
G3Y66.66I-1.87J0.01
G3Y66.76I-1.86J-0.01
G1 X122.97 Y69.36
G1 X122.42 Y87.7
G1 X122.39 Y88.38
G1 X122.34 Y89.71
G1 X122.3 Y91.01
G1 X122.2 Y93.5
G3Y93.59I-2.09J-0.03
G3Y93.67I-2.09J-0.04
G1 X122.11 Y96.0
G1 X122.06 Y97.09
G1 X121.98 Y99.22
G1 X121.89 Y101.21
G1 X121.85 Y102.14
G1 X121.83 Y102.6
G1 X121.81 Y103.04
G1 X121.74 Y104.78
G3X121.73Y104.9I-2.41J-0.04
G3Y105.0I-2.4J-0.06
G3X121.72Y105.1I-2.4J-0.06
G3Y105.22I-2.4J-0.06
G1 X121.64 Y106.82
G1 X121.5 Y109.85
G1 X121.43 Y111.18
G1 X121.37 Y112.42
G1 X121.31 Y113.59
G1 X121.19 Y115.77
G1 X120.75 Y123.42
G1 X120.63 Y125.33
G3Y125.34I-1.0J-0.06
G1 X120.44 Y128.2
G1 X120.35 Y129.63
G3X120.33Y129.82I-8.93J-0.51
G3X120.32Y129.97I-9.04J-0.53
G3X120.3Y130.25I-13.05J-0.75
G3X120.29Y130.45I-13.64J-0.83
G3X120.25Y131.07I-49.77J-3.1
G1 X119.37 Y142.9
G1 X119.25 Y144.39 Z-2.0
G1 X119.09 Y146.39
G1 X118.96 Y147.88 Z-5.0
G1 X118.83 Y149.43
G1 X118.63 Y151.72
G3X118.54Y152.73I-128.34J-10.81
G1 X118.38 Y154.61
G1 X118.3 Y155.43
G3Y155.44I-1.0J-0.09
G1 X118.16 Y156.98
G1 X118.1 Y157.65
G1 X117.98 Y158.92
G1 X117.92 Y159.47
G1 X117.82 Y160.51
G1 X117.73 Y161.42
G1 X117.65 Y162.21
G1 X117.58 Y162.91
G1 X117.52 Y163.52
G1 X117.3 Y165.64
G3Y165.65I-0.99J-0.1
G1 X117.08 Y167.77
G3X117.06Y167.96I-6.79J-0.64
G3X117.04Y168.15I-7.4J-0.71
G3X116.72Y171.02I-384.86J-41.57
G1 X116.68 Y171.34
G1 X116.53 Y172.58
G3X115.34Y181.88I-467.54J-55.24
G1 X115.18 Y183.04
G1 X114.89 Y185.07
G1 X114.67 Y186.59
G1 X114.33 Y188.87
G1 X113.99 Y191.15
G1 X113.61 Y193.65
G1 X113.28 Y195.84
G1 X112.99 Y197.76
G1 X112.73 Y199.44
G1 X112.51 Y200.9
G3Y200.91I-0.99J-0.15
G1 X112.3 Y202.19
G1 X111.95 Y204.44
G1 X111.81 Y205.28
G1 X111.69 Y206.02
G1 X111.58 Y206.66
G1 X111.49 Y207.22
G3Y207.23I-0.99J-0.16
G1 X111.33 Y208.21
G1 X111.07 Y209.69
G1 X110.82 Y211.17
G1 X110.6 Y212.42
G3Y212.43I-0.98J-0.17
G1 X110.49 Y213.01
G3X109.66Y217.56I-668.29J-119.52
G1 X109.35 Y219.26
G2X109.28Y219.63I55.25J10.41
G3Y219.64I-0.98J-0.18
G2X109.21Y219.99I34.79J6.61
G3Y220.0I-0.98J-0.18
G2X109.15Y220.33I27.17J5.2
G3Y220.34I-0.98J-0.18
G1 X108.65 Y223.05
G3Y223.06I-0.98J-0.18
G2X108.61Y223.29I10.99J2.13
G3X108.6Y223.31I-0.99J-0.17
G2X108.56Y223.53I10.46J2.02
G3Y223.55I-0.99J-0.17
G2X108.52Y223.77I9.98J1.93
G3Y223.79I-0.99J-0.17
G2X108.48Y224.0I9.55J1.84
G3X108.47Y224.02I-0.99J-0.17
G2X108.44Y224.23I9.15J1.76
G3X108.43Y224.25I-0.99J-0.17
G2X108.4Y224.44I8.79J1.69
G3X108.39Y224.46I-0.99J-0.17
G2X108.36Y224.65I8.45J1.62
G3Y224.67I-0.99J-0.17
G2X108.32Y224.85I8.14J1.56
G3Y224.88I-0.99J-0.17
G2X108.29Y225.05I7.84J1.5
G3X108.28Y225.07I-0.99J-0.17
G2X108.25Y225.24I7.57J1.45
G3Y225.26I-0.99J-0.17
G2X108.22Y225.43I7.31J1.39
G3Y225.45I-0.99J-0.17
G2X108.19Y225.6I7.07J1.35
G3X108.18Y225.63I-0.99J-0.16
G2X108.16Y225.78I6.85J1.3
G3X108.15Y225.8I-0.99J-0.16
G2X108.13Y225.95I6.63J1.26
G3X108.12Y225.97I-0.99J-0.16
G2X108.1Y226.11I6.43J1.21
G3Y226.13I-0.99J-0.16
G2X108.07Y226.27I6.23J1.18
G3Y226.29I-0.99J-0.16
G2X108.04Y226.42I6.05J1.14
G3Y226.43I-0.99J-0.16
G2X107.84Y227.61I156.19J28.0
G3X107.83Y227.63I-0.99J-0.17
G2X107.8Y227.82I6.85J1.29
G3X107.79Y227.85I-0.99J-0.16
G2X107.76Y228.03I6.52J1.22
G3Y228.04I-0.99J-0.16
G1 X107.49 Y229.6
G3Y229.61I-0.99J-0.17
G2X107.46Y229.78I5.75J1.05
G3Y229.79I-0.99J-0.15
G1 X107.24 Y231.16
G3X107.23Y231.17I-0.99J-0.16
G2X107.21Y231.32I5.64J0.99
G3Y231.33I-0.99J-0.15
G1 X107.1 Y232.0
G1 X107.05 Y232.32
G1 X107.0 Y232.64
G1 X106.9 Y233.27
G1 X106.85 Y233.58
G1 X106.67 Y234.78
G1 X106.58 Y235.34
G1 X106.42 Y236.43
G1 X106.11 Y238.48
G1 X105.98 Y239.38
G1 X105.73 Y241.07
G1 X105.5 Y242.54
G1 X105.4 Y243.18
G3Y243.19I-0.99J-0.15
G1 X105.21 Y244.39
G3X105.05Y245.41I-323.67J-50.63
G3X104.81Y246.89Z-2.0I-323.51J-51.65
G3X104.52Y248.63I-323.27J-53.13
G1 X104.48 Y248.87
G1 X104.34 Y249.68 Z-3.65
G3Z-3.66I-0.99J-0.17
G1 X104.23 Y250.35 Z-5.0
G1 X104.2 Y250.47
G1 X104.15 Y250.77
G1 X103.97 Y251.81
G3X103.96I-0.98J-0.18
G1 X103.78 Y252.85
G3X103.77I-0.98J-0.18
G1 X103.72 Y253.15
G1 X103.49 Y254.34
G3Y254.35I-0.98J-0.19
G1 X103.27 Y255.5
G1 X103.16 Y256.06
G1 X102.95 Y257.16
G3Y257.17I-0.98J-0.19
G1 X102.93 Y257.23
G1 X102.92 Y257.3
G3X102.06Y261.54I-722.02J-143.64
G1 X101.68 Y263.4
G1 X100.96 Y266.87
G1 X99.7 Y272.95
G1 X98.76 Y277.51
G1 X98.58 Y278.37
G1 X98.5 Y278.77
G1 X97.86 Y281.87
G1 X97.39 Y284.2
G1 X96.68 Y287.7
G1 X95.98 Y291.2
G3X95.0Y292.0I-0.98J-0.2
G1 X36.0
G3X35.02Y291.2I0.0J-1.0
G1 X34.54 Y288.8
G1 X32.72 Y279.82
G1 X32.02 Y276.45
G1 X31.42 Y273.51
G1 X30.88 Y270.93
G1 X29.95 Y266.42
G1 X29.59 Y264.73
G1 X29.29 Y263.25
G1 X28.76 Y260.65
G1 X28.56 Y259.7
G1 X28.36 Y258.71 Z-2.98
G1 X28.27 Y258.23 Z-2.0
G1 X28.07 Y257.25
G3Y257.24I0.98J-0.2
G1 X27.96 Y256.7
G1 X27.88 Y256.26
G1 X27.87 Y256.22 Z-2.1
G3Y256.21I0.98J-0.19
G1 X27.7 Y255.38 Z-3.81
G3X27.59Y254.79Z-5.0I251.98J-49.04
G3X27.22Y252.85I252.1J-48.46
G1 X26.98 Y251.5
G3Y251.49I0.98J-0.18
G1 X26.92 Y251.18
G3Y251.17I0.98J-0.18
G1 X26.7 Y249.93
G3X26.5Y248.75I296.23J-51.59
G1 X26.31 Y247.65
G1 X26.14 Y246.62
G1 X26.06 Y246.14
G1 X25.91 Y245.2
G1 X25.88 Y244.98
G1 X25.84 Y244.76
G1 X25.71 Y243.91
G1 X25.59 Y243.11
G1 X25.47 Y242.38
G3X25.46Y242.31I1.66J-0.29
G1 X25.25 Y240.92
G1 X24.89 Y238.48
G1 X24.82 Y238.02
G1 X24.3 Y234.58
G1 X24.04 Y232.87
G1 X23.9 Y232.02
G1 X23.76 Y231.16
G1 X23.66 Y230.54
G1 X23.56 Y229.93
G1 X23.36 Y228.76
G1 X23.17 Y227.66
G1 X23.08 Y227.15
G1 X23.0 Y226.65
G1 X22.65 Y224.72
G1 X22.5 Y223.87
G1 X22.35 Y223.08
G1 X22.08 Y221.59
G1 X21.84 Y220.29
G1 X21.63 Y219.16
G3X21.54Y218.66I64.48J-12.19
G3X21.45Y218.19I38.06J-7.28
G3X21.37Y217.75I29.4J-5.66
G3X21.3Y217.34I24.67J-4.77
G3X21.23Y216.96I21.56J-4.17
G3X21.16Y216.6I19.31J-3.74
G3X21.1Y216.26I17.57J-3.41
G3X21.04Y215.94I16.18J-3.13
G3X20.98Y215.64I15.03J-2.91
G3X20.93Y215.36I14.05J-2.71
G3X20.18Y211.17I632.72J-115.61
G3X19.75Y208.67I406.25J-71.17
G3X19.03Y204.29I529.58J-89.51
G1 X18.77 Y202.65
G1 X18.54 Y201.21
G1 X18.15 Y198.7
G1 X17.86 Y196.81
G1 X17.44 Y193.98
G3X17.38Y193.62I31.1J-4.86
G3X17.34Y193.32I31.12J-4.84
G3X17.25Y192.77I45.12J-7.06
G3X17.19Y192.37I45.18J-6.99
G3X17.1Y191.76I68.61J-10.61
G3X17.01Y191.15I119.22J-18.19
G1 X16.58 Y188.24
G1 X16.48 Y187.6
G1 X16.3 Y186.37
G1 Y186.36
G1 X16.28 Y186.22
G3X15.01Y177.01I490.23J-72.21
G1 X14.86 Y175.86
G0 Z3.0
M5
M30
